;FLAVOR:Marlin
;TIME:14478.9
;Filament used:19.1575m
;Layer height:0.2
;MINX:10.494
;MINY:18.91
;MINZ:0.2
;MAXX:200.139
;MAXY:208.557
;MAXZ:194
;OuterWall Time:5264.96
;InnerWall Time:3364.07
;Skin Time:1311.89
;Support Time:0
;SkirtBrim Time:82.0842
;Infill Time:1121.54
;Support Infills Time:0
;Combing Time:1688.7
;Retraction Time:1645.64
;PrimeTower Time:0
;;;;;;;;;;;;;;;;;;;;;;;;;;;;;;;;;;;;;;;;;;;;;;;;;;;;;;;;;;;;;;;;;;;;;;;;;;
;Creality Print GCode Generated by CXEngine
;CRSLICE_GIT_HASH:d90fa71
;Creality Print Version : V4.3.8.6674
;CXEngine Release Time:2023-10-16 18:06:53
;Gcode Generated Time:2024-12-18 03:06:45
;----------Machine Config--------------
;Machine Name:Ender-3 V3 SE
;Machine Height:250
;Machine Width:220
;Machine Depth:220
;Material Type:PLA
;Material Name:CR-PLA_1.75
;Number of Extruders:1
;ExtruderParams[0] Nozzle Diameter:1000
;----------Profile Config---------------
;Wall Thickness:0.8
;Top/Bottom Thickness:0.8
;Out Wall Line Width:0.42
;Inner Wall Line Width:0.45
;Inital Height:200
;Wall Line Count:2
;Infill Line Distance:8
;Infill Pattern:grid
;Infill Sparse Density:10
;Infill Wipe Distance:0
;Print Temperature:190
;Bed Temperature:60
;Support Enable:false
;Support Density:15
;Support Angle:60
;Adhesion Type:autobrim
;machine is belt:false
;machine belt offset:10
;machine belt offset Y:0
;Raft Base Line Spacing:1.6
;Wait Heatup Sync:true
;Enable Ironing:false
;Material Type:PLA
;Max volumetric speed:20
;Material Diameter:1.75
;Material Density:1.24
;Filament Cost:20
;Filament Weight:1000
;Preview Img Type:png
;Screen Size:Sermoon D3
;----------Shell Config----------------
;Outer Wall Wipe Distance:200
;Outer Inset First:false
;Infill Before Walls:false
;Infill Overlap:0.04
;Fill Gaps Between Walls:everywhere
;Minimum Infill Area:15
;Top Surface Skin Layer:0
;Top Layers:4
;Z Seam Alignment:sharpest_corner
;Seam Corner Preference:z_seam_corner_inner
;Z Seam X:110
;Z Seam Y:220
;Horizontal Expansion:0
;Top/Bottom Pattern:zigzag
;Ironing Pattern:zigzag
;Vase Model:false
;----------Support Config----------------
;Support Type:everywhere
;Support Pattern:zigzag
;Support Infill Layer Thickness:0.15
;Minimum Support Area:1
;Enable Support Roof:true
;Support Roof Thickness:0.8
;Support Roof Pattern:lines
;Connect Support Lines:0
;Connect Support ZigZags:1
;Minimum Support X/Y Distance:0.2
;Support Line Distance:2.67
; ---------PrintSpeed & Travel----------
;Enable Print Cool:true
;Avoid Printed Parts Traveling:true
;Enable Retraction:true
;Retraction Distance:0.8
;Retraction Speed:25
;Retraction Prime Speed:25
;Maximum Retraction Count:100
;Minimum Extrusion Distance Window:0.8
;Z Hop When Retracted:false
;Z Hop Height:0.2
;Retract Before Outer Wall:true

;Outer Wall Speed:60
;Inner Wall Speed:90
;Infill Speed:180
;Top/Bottom Speed:50
;Travel Speed:150
;Initial Layer Speed:30
;Skirt/Brim Speed:25
;Prime Tower Speed:60
;Outer Wall Acceleration:1000
;Inner Wall Acceleration:2000
;Infill Acceleration:2500
;Top/Bottom Acceleration:2500
;Travel Acceleration:2500
;Initial Layer Print Acceleration:500
;Initial Layer Travel Acceleration:500
;Skirt/Brim Acceleration:500
;Combing Mode:no_outer_surfaces
; --------SpecialModel&Mesh Fixes--------
;Union Overlapping Volum:true
;Remove All Holes:false
;Maximum Travel Resolution:0.25
;Maximum Deviation:0.05
;Maximum Model Angle:0.872665
;IS Mold Print:false
;Make Overhang Printable:false
;Enable Coasting:false
;Coasting Volumes:0.064
;Coasting Speed:0.9
;Raft AirGap:0.25
;Layer0 ZOverLap:0.13
;Adaptive Layers:0
;---------------------End of Head--------------------------
M140 S60
M105
M190 S60
M104 S190
M82 ;absolute extrusion mode
M220 S100 ;Reset Feedrate
M221 S100 ;Reset Flowrate

G28 ;Home

G92 E0 ;Reset Extruder
G1 Z2.0 F3000 ;Move Z Axis up
G1 X-2.1 Y20 Z0.28 F5000.0 ;Move to start position
M109 S190.000000
G1 X-2.1 Y145.0 Z0.28 F1500.0 E15 ;Draw the first line
G1 X-2.4 Y145.0 Z0.28 F5000.0 ;Move to side a little
G1 X-2.4 Y20 Z0.28 F1500.0 E30 ;Draw the second line
G92 E0  ;Reset Extruder
G1 E-1.0000 F1800 ;Retract a bit
G1 Z2.0 F3000 ;Move Z Axis up
G1 E0.0000 F1800 

G92 E0
G92 E0
G1 F1500 E-0.8
;LAYER_COUNT:971

;LAYER:0
M106 S0
M204 S500
G0 F4800 X100.444 Y77.073 Z0.2
;TYPE:SKIRT
G1 F1500 E0
G1 X68.655 Y108.863 E1.72705
G1 X68.402 Y109.139 E1.74143
G1 X68.052 Y109.616 E1.76416
G1 X67.769 Y110.137 E1.78694
G1 X67.559 Y110.69 E1.80966
G1 X67.426 Y111.267 E1.83241
G1 X67.371 Y111.857 E1.85517
G1 X67.397 Y112.449 E1.87793
G1 X67.501 Y113.032 E1.90068
G1 X67.684 Y113.595 E1.92343
G1 X67.94 Y114.129 E1.94618
G1 X68.266 Y114.623 E1.96891
G1 X68.656 Y115.069 E1.99167
G1 X103.981 Y150.394 E3.9108
G1 X104.257 Y150.648 E3.92521
G1 X104.734 Y150.998 E3.94793
G1 X105.255 Y151.281 E3.97071
G1 X105.808 Y151.491 E3.99343
G1 X106.385 Y151.624 E4.01618
G1 X106.975 Y151.679 E4.03894
G1 X107.567 Y151.653 E4.06171
G1 X108.15 Y151.549 E4.08446
G1 X108.713 Y151.366 E4.1072
G1 X109.247 Y151.11 E4.12995
G1 X109.741 Y150.784 E4.15269
G1 X110.187 Y150.394 E4.17545
G1 X141.977 Y118.604 E5.90252
G1 X142.231 Y118.328 E5.91693
G1 X142.581 Y117.851 E5.93966
G1 X142.864 Y117.33 E5.96244
G1 X143.074 Y116.776 E5.9852
G1 X143.207 Y116.2 E6.00791
G1 X143.262 Y115.61 E6.03067
G1 X143.236 Y115.018 E6.05343
G1 X143.132 Y114.435 E6.07618
G1 X142.949 Y113.872 E6.09892
G1 X142.693 Y113.338 E6.12167
G1 X142.367 Y112.844 E6.14441
G1 X141.977 Y112.397 E6.1672
G1 X106.651 Y77.072 E8.08635
G1 X106.375 Y76.819 E8.10073
G1 X105.898 Y76.469 E8.12346
G1 X105.377 Y76.186 E8.14624
G1 X104.823 Y75.976 E8.169
G1 X104.247 Y75.843 E8.19171
G1 X103.657 Y75.788 E8.21447
G1 X103.065 Y75.814 E8.23724
G1 X102.482 Y75.918 E8.25999
G1 X101.919 Y76.101 E8.28273
G1 X101.385 Y76.357 E8.30548
G1 X100.891 Y76.683 E8.32821
G1 X100.444 Y77.073 E8.351
G0 F4800 X100.771 Y77.399
G1 F1500 X68.982 Y109.189 E10.07805
G1 X68.614 Y109.614 E10.09965
G1 X68.312 Y110.085 E10.12114
G1 X68.079 Y110.595 E10.14268
G1 X67.922 Y111.132 E10.16417
G1 X67.842 Y111.687 E10.18571
G1 X67.842 Y112.247 E10.20723
G1 X67.922 Y112.801 E10.22873
G1 X68.08 Y113.339 E10.25027
G1 X68.313 Y113.848 E10.27178
G1 X68.615 Y114.319 E10.29327
G1 X68.982 Y114.743 E10.31481
G1 X104.307 Y150.068 E12.23394
G1 X104.732 Y150.436 E12.25553
G1 X105.203 Y150.738 E12.27703
G1 X105.713 Y150.971 E12.29857
G1 X106.25 Y151.128 E12.32006
G1 X106.805 Y151.208 E12.3416
G1 X107.365 Y151.208 E12.36311
G1 X107.919 Y151.128 E12.38461
G1 X108.457 Y150.97 E12.40616
G1 X108.966 Y150.737 E12.42766
G1 X109.437 Y150.435 E12.44915
G1 X109.861 Y150.068 E12.4707
G1 X141.651 Y118.278 E14.19777
G1 X142.019 Y117.853 E14.21937
G1 X142.321 Y117.382 E14.24086
G1 X142.554 Y116.872 E14.2624
G1 X142.711 Y116.335 E14.28389
G1 X142.791 Y115.78 E14.30544
G1 X142.791 Y115.22 E14.32695
G1 X142.711 Y114.666 E14.34845
G1 X142.553 Y114.128 E14.36999
G1 X142.32 Y113.619 E14.3915
G1 X142.018 Y113.147 E14.41302
G1 X141.651 Y112.724 E14.43454
G1 X106.325 Y77.399 E16.35369
G1 X105.9 Y77.031 E16.37528
G1 X105.429 Y76.729 E16.39678
G1 X104.919 Y76.496 E16.41832
G1 X104.382 Y76.338 E16.43982
G1 X103.827 Y76.259 E16.46136
G1 X103.267 Y76.259 E16.48287
G1 X102.713 Y76.339 E16.50437
G1 X102.175 Y76.497 E16.52591
G1 X101.666 Y76.73 E16.54742
G1 X101.194 Y77.032 E16.56894
G1 X100.771 Y77.399 E16.59046
G0 F4800 X101.098 Y77.726
G1 F1500 X69.309 Y109.516 E18.31751
G1 X68.865 Y110.06 E18.34448
G1 X68.61 Y110.52 E18.36468
G1 X68.428 Y111.013 E18.38487
G1 X68.322 Y111.529 E18.40511
G1 X68.295 Y112.054 E18.4253
G1 X68.348 Y112.578 E18.44554
G1 X68.48 Y113.087 E18.46574
G1 X68.688 Y113.57 E18.48594
G1 X68.966 Y114.017 E18.50616
G1 X69.309 Y114.416 E18.52637
G1 X104.634 Y149.741 E20.4455
G1 X105.178 Y150.185 E20.47247
G1 X105.638 Y150.44 E20.49268
G1 X106.131 Y150.622 E20.51287
G1 X106.647 Y150.728 E20.5331
G1 X107.172 Y150.755 E20.5533
G1 X107.696 Y150.702 E20.57353
G1 X108.205 Y150.57 E20.59373
G1 X108.688 Y150.362 E20.61393
G1 X109.135 Y150.084 E20.63415
G1 X109.534 Y149.741 E20.65437
G1 X141.324 Y117.951 E22.38144
G1 X141.768 Y117.407 E22.40842
G1 X142.023 Y116.947 E22.42862
G1 X142.206 Y116.453 E22.44886
G1 X142.311 Y115.938 E22.46905
G1 X142.338 Y115.413 E22.48925
G1 X142.285 Y114.889 E22.50948
G1 X142.153 Y114.38 E22.52968
G1 X141.945 Y113.896 E22.54992
G1 X141.667 Y113.45 E22.5701
G1 X141.324 Y113.051 E22.59032
G1 X105.998 Y77.726 E24.50947
G1 X105.454 Y77.282 E24.53644
G1 X104.994 Y77.027 E24.55665
G1 X104.5 Y76.844 E24.57689
G1 X103.985 Y76.739 E24.59708
G1 X103.46 Y76.712 E24.61727
G1 X102.936 Y76.765 E24.6375
G1 X102.427 Y76.897 E24.6577
G1 X101.943 Y77.105 E24.67794
G1 X101.497 Y77.383 E24.69813
G1 X101.098 Y77.726 E24.71834
G0 F4800 X101.425 Y78.053
G1 F1500 X69.636 Y109.843 E26.44539
G1 X69.431 Y110.068 E26.45709
G1 X69.154 Y110.472 E26.4759
G1 X68.946 Y110.915 E26.4947
G1 X68.812 Y111.387 E26.51355
G1 X68.757 Y111.873 E26.53234
G1 X68.782 Y112.362 E26.55115
G1 X68.886 Y112.841 E26.56998
G1 X69.067 Y113.296 E26.58879
G1 X69.319 Y113.716 E26.60761
G1 X69.636 Y114.089 E26.62641
G1 X104.961 Y149.414 E28.54554
G1 X105.186 Y149.619 E28.55723
G1 X105.59 Y149.896 E28.57605
G1 X106.033 Y150.104 E28.59485
G1 X106.505 Y150.238 E28.6137
G1 X106.991 Y150.293 E28.63249
G1 X107.48 Y150.268 E28.6513
G1 X107.959 Y150.164 E28.67013
G1 X108.414 Y149.983 E28.68894
G1 X108.834 Y149.731 E28.70775
G1 X109.207 Y149.414 E28.72656
G1 X140.997 Y117.624 E30.45363
G1 X141.202 Y117.398 E30.46536
G1 X141.479 Y116.995 E30.48414
G1 X141.687 Y116.552 E30.50294
G1 X141.821 Y116.08 E30.52179
G1 X141.876 Y115.594 E30.54058
G1 X141.851 Y115.105 E30.55939
G1 X141.747 Y114.626 E30.57822
G1 X141.566 Y114.171 E30.59703
G1 X141.314 Y113.751 E30.61585
G1 X140.997 Y113.378 E30.63465
G1 X105.671 Y78.053 E32.5538
G1 X105.445 Y77.848 E32.56552
G1 X105.042 Y77.571 E32.58431
G1 X104.599 Y77.363 E32.60311
G1 X104.127 Y77.229 E32.62196
G1 X103.641 Y77.174 E32.64075
G1 X103.152 Y77.199 E32.65956
G1 X102.673 Y77.303 E32.67839
G1 X102.218 Y77.484 E32.6972
G1 X101.798 Y77.736 E32.71601
G1 X101.425 Y78.053 E32.73482
G0 F4800 X101.751 Y78.379
G1 F1500 X69.962 Y110.169 E34.46187
G1 X69.713 Y110.46 E34.47658
G1 X69.479 Y110.845 E34.49389
G1 X69.317 Y111.265 E34.51118
G1 X69.231 Y111.707 E34.52848
G1 X69.225 Y112.157 E34.54577
G1 X69.299 Y112.602 E34.5631
G1 X69.45 Y113.026 E34.58039
G1 X69.673 Y113.417 E34.59768
G1 X69.962 Y113.763 E34.615
G1 X105.287 Y149.088 E36.53412
G1 X105.578 Y149.337 E36.54884
G1 X105.963 Y149.571 E36.56614
G1 X106.383 Y149.733 E36.58344
G1 X106.825 Y149.819 E36.60073
G1 X107.275 Y149.825 E36.61802
G1 X107.72 Y149.751 E36.63535
G1 X108.144 Y149.6 E36.65264
G1 X108.535 Y149.377 E36.66993
G1 X108.881 Y149.088 E36.68725
G1 X140.671 Y117.298 E38.41433
G1 X140.92 Y117.007 E38.42904
G1 X141.154 Y116.622 E38.44635
G1 X141.316 Y116.202 E38.46364
G1 X141.402 Y115.76 E38.48094
G1 X141.408 Y115.31 E38.49823
G1 X141.334 Y114.865 E38.51556
G1 X141.183 Y114.441 E38.53285
G1 X140.96 Y114.05 E38.55014
G1 X140.671 Y113.704 E38.56746
G1 X105.345 Y78.379 E40.48661
G1 X105.054 Y78.13 E40.50132
G1 X104.669 Y77.896 E40.51863
G1 X104.249 Y77.734 E40.53592
G1 X103.807 Y77.648 E40.55322
G1 X103.357 Y77.642 E40.57051
G1 X102.912 Y77.716 E40.58784
G1 X102.488 Y77.867 E40.60513
G1 X102.097 Y78.09 E40.62242
G1 X101.751 Y78.379 E40.63974
G0 F4800 X102.078 Y78.706
G1 F1500 X70.289 Y110.496 E42.36679
G1 X70.03 Y110.812 E42.38249
G1 X69.838 Y111.172 E42.39816
G1 X69.72 Y111.562 E42.41381
G1 X69.68 Y111.967 E42.42945
G1 X69.72 Y112.372 E42.44508
G1 X69.838 Y112.762 E42.46073
G1 X70.03 Y113.121 E42.47637
G1 X70.289 Y113.436 E42.49204
G1 X105.614 Y148.761 E44.41116
G1 X105.93 Y149.02 E44.42686
G1 X106.29 Y149.212 E44.44253
G1 X106.68 Y149.33 E44.45818
G1 X107.085 Y149.37 E44.47382
G1 X107.49 Y149.33 E44.48945
G1 X107.88 Y149.212 E44.50511
G1 X108.239 Y149.02 E44.52074
G1 X108.554 Y148.761 E44.53641
G1 X140.344 Y116.971 E46.26349
G1 X140.604 Y116.655 E46.27921
G1 X140.795 Y116.295 E46.29486
G1 X140.913 Y115.905 E46.31052
G1 X140.953 Y115.5 E46.32615
G1 X140.913 Y115.095 E46.34178
G1 X140.795 Y114.705 E46.35744
G1 X140.602 Y114.346 E46.37309
G1 X140.344 Y114.031 E46.38874
G1 X105.018 Y78.706 E48.30789
G1 X104.702 Y78.446 E48.32361
G1 X104.342 Y78.255 E48.33926
G1 X103.952 Y78.137 E48.35492
G1 X103.547 Y78.097 E48.37055
G1 X103.142 Y78.137 E48.38618
G1 X102.752 Y78.255 E48.40184
G1 X102.393 Y78.448 E48.41749
G1 X102.078 Y78.706 E48.43314
G0 F4800 X102.405 Y79.033
G1 F1500 X70.616 Y110.823 E50.16019
G1 X70.38 Y111.121 E50.17479
G1 X70.228 Y111.446 E50.18857
G1 X70.151 Y111.797 E50.20238
G1 X70.153 Y112.156 E50.21617
G1 X70.235 Y112.506 E50.22998
G1 X70.391 Y112.829 E50.24376
G1 X70.616 Y113.109 E50.25755
G1 X105.941 Y148.434 E52.17668
G1 X106.239 Y148.67 E52.19128
G1 X106.564 Y148.822 E52.20507
G1 X106.915 Y148.899 E52.21887
G1 X107.274 Y148.897 E52.23266
G1 X107.624 Y148.815 E52.24647
G1 X107.947 Y148.659 E52.26025
G1 X108.227 Y148.434 E52.27405
G1 X140.017 Y116.644 E54.00113
G1 X140.253 Y116.346 E54.01573
G1 X140.405 Y116.021 E54.02951
G1 X140.482 Y115.67 E54.04332
G1 X140.48 Y115.311 E54.05711
G1 X140.398 Y114.961 E54.07092
G1 X140.242 Y114.638 E54.0847
G1 X140.017 Y114.358 E54.09849
G1 X104.691 Y79.033 E56.01765
G1 X104.393 Y78.797 E56.03225
G1 X104.068 Y78.645 E56.04603
G1 X103.717 Y78.568 E56.05984
G1 X103.358 Y78.57 E56.07363
G1 X103.008 Y78.652 E56.08744
G1 X102.685 Y78.808 E56.10122
G1 X102.405 Y79.033 E56.11502
G0 F4800 X102.731 Y79.359
G1 F1500 X70.942 Y111.149 E57.84207
G1 X70.763 Y111.381 E57.85332
G1 X70.645 Y111.66 E57.86496
G1 X70.604 Y111.961 E57.87663
G1 X70.642 Y112.261 E57.88825
G1 X70.758 Y112.542 E57.89992
G1 X70.942 Y112.783 E57.91157
G1 X106.267 Y148.108 E59.8307
G1 X106.499 Y148.287 E59.84195
G1 X106.778 Y148.405 E59.85359
G1 X107.079 Y148.446 E59.86526
G1 X107.379 Y148.408 E59.87688
G1 X107.66 Y148.292 E59.88856
G1 X107.901 Y148.108 E59.9002
G1 X139.691 Y116.318 E61.62728
G1 X139.87 Y116.086 E61.63854
G1 X139.988 Y115.807 E61.65017
G1 X140.029 Y115.506 E61.66184
G1 X139.991 Y115.206 E61.67346
G1 X139.875 Y114.925 E61.68514
G1 X139.691 Y114.684 E61.69679
G1 X104.365 Y79.359 E63.61594
G1 X104.133 Y79.18 E63.6272
G1 X103.854 Y79.062 E63.63883
G1 X103.553 Y79.021 E63.6505
G1 X103.253 Y79.059 E63.66212
G1 X102.972 Y79.175 E63.6738
G1 X102.731 Y79.359 E63.68545
G0 F4800 X103.454 Y79.944
G1 F1500 X71.549 Y111.85 E65.4188
G1 X71.527 Y112.06 E65.42691
G1 X106.968 Y147.501 E67.35233
G1 X107.178 Y147.523 E67.36045
G1 X139.084 Y115.617 E69.09382
G1 X139.106 Y115.407 E69.10194
G1 X103.664 Y79.966 E71.02739
G1 X103.454 Y79.944 E71.0355
G0 F4800 X103.058 Y79.686
G1 F1500 X71.195 Y111.55 E72.76657
G1 X71.085 Y111.805 E72.77724
G1 X71.07 Y112.039 E72.78625
G1 X71.269 Y112.456 E72.804
G1 X106.668 Y147.855 E74.72714
G1 X106.923 Y147.965 E74.73781
G1 X107.157 Y147.98 E74.74682
G1 X107.574 Y147.781 E74.76457
G1 X139.438 Y115.917 E76.49566
G1 X139.548 Y115.662 E76.50633
G1 X139.563 Y115.428 E76.51534
G1 X139.364 Y115.011 E76.53309
G1 X103.964 Y79.612 E78.45626
G1 X103.709 Y79.502 E78.46693
G1 X103.475 Y79.487 E78.47594
G1 X103.058 Y79.686 E78.49369
;;retract;;
G1 F1500 E77.93369
G1 F2400 X101.648 Y81.103 E77.70569
G1 F1500 E77.69369
;MESH:0_0
G0 F4800 X103.058 Y79.686
G0 X98.191 Y107.376
G1 F1500 E78.49369
G0 F4800 X98.145 Y108.084
;TYPE:WALL-OUTER
G1 F1800 X98.651 Y108.481 E78.5179
G1 X98.917 Y108.887 E78.53617
G1 X99.04 Y109.393 E78.55578
G1 X98.982 Y109.907 E78.57525
G1 X98.938 Y110.004 E78.57926
G1 X98.753 Y110.374 E78.59483
G1 X98.401 Y110.72 E78.61342
G1 X97.961 Y110.933 E78.63182
G1 X97.319 Y111.006 E78.65614
G1 X96.712 Y110.745 E78.68102
G1 X96.349 Y110.411 E78.69959
G1 X96.108 Y109.947 E78.71927
G1 X96.014 Y109.339 E78.74244
G1 X96.235 Y108.739 E78.76651
G1 X96.563 Y108.348 E78.78572
G1 X97.005 Y108.082 E78.80514
G1 X97.497 Y107.987 E78.82401
G1 X98.145 Y108.084 E78.84867
G0 F4800 X98.302 Y108.207
G0 X98.345 Y107.633
;TYPE:WALL-INNER
G1 F1800 X99.005 Y108.151 E78.88321
G1 X99.366 Y108.698 E78.91018
G1 X99.522 Y109.365 E78.93838
G1 X99.458 Y110.004 E78.96481
G1 X99.37 Y110.211 E78.97407
G1 X99.155 Y110.646 E78.99404
G1 X98.709 Y111.098 E79.02017
