;FLAVOR:Marlin
;TIME:12878.2
;Filament used:19.9755m
;Layer height:0.2
;MINX:0
;MINY:0
;MINZ:0.2
;MAXX:220
;MAXY:220
;MAXZ:45
;OuterWall Time:1649.43
;InnerWall Time:1152.48
;Skin Time:6890.64
;Support Time:0
;SkirtBrim Time:298.941
;Infill Time:832.353
;Support Infills Time:0
;Combing Time:716.667
;Retraction Time:1337.67
;PrimeTower Time:0

;
;
;
;
;
;
;;;;;;;;;;;;;;;;;;;;;;;;;;;;;;;;;;;;;;;;;;;;;;;;;;;;;;;;;;;;;;;;;;;;;;;
;Creality Print GCode Generated by CXEngine
;CRSLICE_GIT_HASH:d90fa71
;Creality Print Version : V4.3.8.6674
;CXEngine Release Time:2023-10-16 18:06:53
;Gcode Generated Time:2024-12-18 22:31:17
;----------Machine Config--------------
;Machine Name:Ender-3 V3 SE
;Machine Height:250
;Machine Width:220
;Machine Depth:220
;Material Type:PLA
;Material Name:CR-PLA_1.75
;Number of Extruders:1
;ExtruderParams[0] Nozzle Diameter:1000
;----------Profile Config---------------
;Wall Thickness:0.8
;Top/Bottom Thickness:0.8
;Out Wall Line Width:0.42
;Inner Wall Line Width:0.45
;Inital Height:200
;Wall Line Count:2
;Infill Line Distance:8
;Infill Pattern:grid
;Infill Sparse Density:10
;Infill Wipe Distance:0
;Print Temperature:190
;Bed Temperature:60
;Support Enable:false
;Support Density:15
;Support Angle:60
;Adhesion Type:autobrim
;machine is belt:false
;machine belt offset:10
;machine belt offset Y:0
;Raft Base Line Spacing:1.6
;Wait Heatup Sync:true
;Enable Ironing:false
;Material Type:PLA
;Max volumetric speed:20
;Material Diameter:1.75
;Material Density:1.24
;Filament Cost:20
;Filament Weight:1000
;Preview Img Type:png
;Screen Size:Sermoon D3
;----------Shell Config----------------
;Outer Wall Wipe Distance:200
;Outer Inset First:false
;Infill Before Walls:false
;Infill Overlap:0.04
;Fill Gaps Between Walls:everywhere
;Minimum Infill Area:15
;Top Surface Skin Layer:0
;Top Layers:4
;Z Seam Alignment:sharpest_corner
;Seam Corner Preference:z_seam_corner_inner
;Z Seam X:110
;Z Seam Y:220
;Horizontal Expansion:0
;Top/Bottom Pattern:zigzag
;Ironing Pattern:zigzag
;Vase Model:false
;----------Support Config----------------
;Support Type:everywhere
;Support Pattern:zigzag
;Support Infill Layer Thickness:0.15
;Minimum Support Area:1
;Enable Support Roof:true
;Support Roof Thickness:0.8
;Support Roof Pattern:lines
;Connect Support Lines:0
;Connect Support ZigZags:1
;Minimum Support X/Y Distance:0.2
;Support Line Distance:2.67
; ---------PrintSpeed & Travel----------
;Enable Print Cool:true
;Avoid Printed Parts Traveling:true
;Enable Retraction:true
;Retraction Distance:0.8
;Retraction Speed:25
;Retraction Prime Speed:25
;Maximum Retraction Count:100
;Minimum Extrusion Distance Window:0.8
;Z Hop When Retracted:false
;Z Hop Height:0.2
;Retract Before Outer Wall:true

;Outer Wall Speed:60
;Inner Wall Speed:90
;Infill Speed:180
;Top/Bottom Speed:50
;Travel Speed:150
;Initial Layer Speed:30
;Skirt/Brim Speed:25
;Prime Tower Speed:60
;Outer Wall Acceleration:1000
;Inner Wall Acceleration:2000
;Infill Acceleration:2500
;Top/Bottom Acceleration:2500
;Travel Acceleration:2500
;Initial Layer Print Acceleration:500
;Initial Layer Travel Acceleration:500
;Skirt/Brim Acceleration:500
;Combing Mode:no_outer_surfaces
; --------SpecialModel&Mesh Fixes--------
;Union Overlapping Volum:true
;Remove All Holes:false
;Maximum Travel Resolution:0.25
;Maximum Deviation:0.05
;Maximum Model Angle:0.872665
;IS Mold Print:false
;Make Overhang Printable:false
;Enable Coasting:false
;Coasting Volumes:0.064
;Coasting Speed:0.9
;Raft AirGap:0.25
;Layer0 ZOverLap:0.13
;Adaptive Layers:0
;---------------------End of Head--------------------------
M140 S60
M105
M190 S60
M104 S190
M82 ;absolute extrusion mode
M220 S100 ;Reset Feedrate
M221 S100 ;Reset Flowrate

G28 ;Home

G92 E0 ;Reset Extruder
G1 Z2.0 F3000 ;Move Z Axis up
G1 X-2.1 Y20 Z0.28 F5000.0 ;Move to start position
M109 S190.000000
G1 X-2.1 Y145.0 Z0.28 F1500.0 E15 ;Draw the first line
G1 X-2.4 Y145.0 Z0.28 F5000.0 ;Move to side a little
G1 X-2.4 Y20 Z0.28 F1500.0 E30 ;Draw the second line
G92 E0  ;Reset Extruder
G1 E-1.0000 F1800 ;Retract a bit
G1 Z2.0 F3000 ;Move Z Axis up
G1 E0.0000 F1800 

G92 E0
G92 E0
G1 F1500 E-0.8
;LAYER_COUNT:225

;LAYER:0
M106 S0
M204 S500
G0 F4800 X157.266 Y103.37 Z0.2
;TYPE:SKIRT
G1 F1500 E0
G1 X156.899 Y107.237 E0.14922
G1 X156.776 Y107.91 E0.1755
G1 X155.156 Y113.783 E0.40954
G1 X154.917 Y114.424 E0.43582
G1 X152.9 Y118.669 E0.61637
G1 X174.452 Y205.108 E4.03862
G1 X174.549 Y205.66 E4.06015
G1 X174.566 Y206.22 E4.08167
G1 X174.503 Y206.776 E4.10317
G1 X174.361 Y207.318 E4.12469
G1 X174.144 Y207.835 E4.14623
G1 X173.856 Y208.315 E4.16774
G1 X173.502 Y208.749 E4.18925
G1 X173.09 Y209.129 E4.21078
G1 X172.628 Y209.446 E4.23231
G1 X172.126 Y209.694 E4.25382
G1 X171.592 Y209.868 E4.27539
G1 X130.954 Y220 E5.88431
G1 X132.867 Y220 E5.9578
G1 X171.704 Y210.317 E7.49541
G1 X172.063 Y210.211 E7.50979
G1 X172.609 Y209.981 E7.53255
G1 X173.12 Y209.681 E7.55531
G1 X173.585 Y209.314 E7.57807
G1 X173.996 Y208.888 E7.60081
G1 X174.347 Y208.411 E7.62356
G1 X174.63 Y207.891 E7.6463
G1 X174.84 Y207.337 E7.66906
G1 X174.974 Y206.761 E7.69178
G1 X175.03 Y206.171 E7.71455
G1 X175.005 Y205.579 E7.73731
G1 X174.901 Y204.996 E7.76006
G1 X153.389 Y118.716 E11.17601
G1 X155.334 Y114.622 E11.35013
G1 X155.601 Y113.906 E11.37949
G1 X157.221 Y108.033 E11.61353
G1 X157.359 Y107.281 E11.6429
G1 X157.71 Y103.583 E11.7856
G1 X220 Y43.431 E15.1121
G1 X220 Y42.789 E15.13676
G1 X157.266 Y103.37 E18.48698
G0 F4800 X155.048 Y102.297
G1 F1500 X219.772 Y39.797 E21.9434
G1 X220 Y39.519 E21.95721
G1 X220 Y37.755 E22.02498
G1 X219.812 Y37.511 E22.03681
G1 X185.108 Y1.575 E23.95595
G1 X184.814 Y1.334 E23.97056
G1 X184.492 Y1.176 E23.98434
G1 X184.142 Y1.093 E23.99815
G1 X183.783 Y1.089 E24.01195
G1 X183.432 Y1.165 E24.02574
G1 X183.106 Y1.316 E24.03954
G1 X182.822 Y1.535 E24.05332
G1 X118.145 Y63.993 E27.50732
G1 X112.636 Y64.434 E27.71963
G1 X112.358 Y64.481 E27.73046
G1 X106.463 Y66.014 E27.96445
G1 X106.197 Y66.109 E27.9753
G1 X101.884 Y68.082 E28.1575
G1 X15.394 Y43.279 E31.61397
G1 X15.019 Y43.218 E31.62857
G1 X14.66 Y43.242 E31.64239
G1 X14.316 Y43.345 E31.65619
G1 X14.003 Y43.521 E31.66998
G1 X13.737 Y43.762 E31.68377
G1 X13.53 Y44.055 E31.69755
G1 X13.394 Y44.387 E31.71133
G1 X0.00 Y91.1 E33.57814
G1 X0.00 Y93.992 E33.68924
G1 X0.4 Y94.275 E33.70807
G1 X0.732 Y94.411 E33.72185
G1 X87.161 Y119.193 E37.17585
G1 X90.297 Y123.741 E37.38807
G1 X90.476 Y123.958 E37.39888
G1 X94.756 Y128.302 E37.63314
G1 X94.971 Y128.485 E37.64399
G1 X98.833 Y131.232 E37.82605
G1 X120.598 Y218.535 E41.28249
G1 X120.733 Y218.891 E41.29711
G1 X120.933 Y219.189 E41.3109
G1 X121.194 Y219.435 E41.32468
G1 X121.503 Y219.618 E41.33848
G1 X121.845 Y219.729 E41.35229
G1 X122.202 Y219.761 E41.36606
G1 X122.558 Y219.713 E41.37986
G1 X171.033 Y207.627 E43.29905
G1 X171.389 Y207.492 E43.31368
G1 X171.687 Y207.292 E43.32747
G1 X171.933 Y207.031 E43.34124
G1 X172.116 Y206.722 E43.35504
G1 X172.227 Y206.38 E43.36885
G1 X172.259 Y206.023 E43.38262
G1 X172.211 Y205.667 E43.39642
G1 X150.459 Y118.426 E46.85043
G1 X152.831 Y113.433 E47.06278
G1 X152.929 Y113.169 E47.0736
G1 X154.549 Y107.296 E47.30764
G1 X154.6 Y107.019 E47.31846
G1 X155.048 Y102.297 E47.50067
G0 F4800 X154.604 Y102.087
G1 F1500 X219.451 Y39.465 E50.96374
G1 X219.634 Y39.237 E50.97497
G1 X219.757 Y38.959 E50.98665
G1 X219.804 Y38.66 E50.99828
G1 X219.771 Y38.358 E51.00995
G1 X219.66 Y38.076 E51.02159
G1 X219.48 Y37.832 E51.03324
G1 X184.776 Y1.896 E52.95239
G1 X184.548 Y1.713 E52.96362
G1 X184.27 Y1.59 E52.97529
G1 X183.971 Y1.543 E52.98692
G1 X183.669 Y1.576 E52.99859
G1 X183.387 Y1.687 E53.01023
G1 X183.143 Y1.867 E53.02188
G1 X118.347 Y64.44 E56.48224
G1 X112.569 Y64.903 E56.70491
G1 X106.485 Y66.485 E56.94641
G1 X101.925 Y68.572 E57.13906
G1 X15.266 Y43.723 E60.60226
G1 X14.977 Y43.678 E60.61349
G1 X14.676 Y43.711 E60.62513
G1 X14.393 Y43.82 E60.63678
G1 X14.148 Y44 E60.64846
G1 X13.959 Y44.237 E60.6601
G1 X13.838 Y44.515 E60.67175
G1 X0.068 Y92.539 E62.59095
G1 X0.023 Y92.828 E62.60219
G1 X0.056 Y93.129 E62.61382
G1 X0.165 Y93.412 E62.62547
G1 X0.345 Y93.657 E62.63715
G1 X0.582 Y93.846 E62.64879
G1 X0.86 Y93.967 E62.66044
G1 X87.447 Y118.795 E66.12076
G1 X90.735 Y123.563 E66.34326
G1 X95.152 Y128.046 E66.58502
G1 X99.237 Y130.952 E66.77761
G1 X121.046 Y218.423 E70.24071
G1 X121.152 Y218.696 E70.25196
G1 X121.331 Y218.941 E70.26362
G1 X121.567 Y219.131 E70.27526
G1 X121.845 Y219.253 E70.28692
G1 X122.145 Y219.299 E70.29858
G1 X122.446 Y219.265 E70.31022
G1 X170.921 Y207.179 E72.22941
G1 X171.194 Y207.073 E72.24066
G1 X171.439 Y206.894 E72.25232
G1 X171.629 Y206.658 E72.26396
G1 X171.751 Y206.38 E72.27562
G1 X171.797 Y206.08 E72.28728
G1 X171.763 Y205.779 E72.29892
G1 X149.971 Y118.376 E75.75933
G1 X152.456 Y113.145 E75.98181
G1 X154.131 Y107.072 E76.22381
G1 X154.604 Y102.087 E76.41618
G0 F4800 X154.019 Y101.366
G1 F1500 X218.858 Y38.753 E79.87879
G1 X218.882 Y38.543 E79.88691
G1 X184.064 Y2.489 E81.81236
G1 X183.854 Y2.465 E81.82048
G1 X118.751 Y65.335 E85.29724
G1 X112.707 Y65.822 E85.53018
G1 X106.812 Y67.355 E85.76417
G1 X101.637 Y69.719 E85.98273
G1 X101.592 Y69.437 E85.9937
G1 X14.948 Y44.593 E89.45629
G1 X14.753 Y44.676 E89.46444
G1 X0.938 Y92.857 E91.38991
G1 X1.021 Y93.052 E91.39806
G1 X88.021 Y117.998 E94.87488
G1 X91.463 Y122.985 E95.10766
G1 X95.743 Y127.329 E95.34192
G1 X100.374 Y130.627 E95.56033
G1 X100.153 Y130.807 E95.57128
G1 X121.959 Y218.265 E99.03387
G1 X122.13 Y218.391 E99.04203
G1 X170.763 Y206.266 E100.96748
G1 X170.889 Y206.095 E100.97564
G1 X148.994 Y118.279 E104.45241
G1 X151.579 Y112.838 E104.68381
G1 X153.213 Y106.927 E104.91941
G1 X153.753 Y101.266 E105.13786
G1 X154.019 Y101.366 E105.14878
G0 F4800 X154.419 Y101.623
G1 F1500 X219.207 Y39.058 E108.6087
G1 X219.371 Y38.694 E108.62404
G1 X219.26 Y38.27 E108.64088
G1 X184.368 Y2.139 E110.57043
G1 X184.005 Y1.976 E110.58571
G1 X183.579 Y2.088 E110.60263
G1 X118.549 Y64.887 E114.07549
G1 X112.649 Y65.36 E114.30286
G1 X106.639 Y66.923 E114.54142
G1 X101.866 Y69.107 E114.74306
G1 X101.613 Y68.963 E114.75425
G1 X15.038 Y44.138 E118.21409
G1 X14.762 Y44.165 E118.22475
G1 X14.55 Y44.265 E118.23375
G1 X14.282 Y44.642 E118.25152
G1 X0.483 Y92.767 E120.17476
G1 X0.522 Y93.167 E120.1902
G1 X0.834 Y93.479 E120.20715
G1 X87.734 Y118.396 E123.67997
G1 X91.091 Y123.265 E123.90716
G1 X95.459 Y127.698 E124.14624
G1 X99.729 Y130.736 E124.34755
G1 X99.732 Y131.026 E124.3587
G1 X121.521 Y218.416 E127.8186
G1 X121.754 Y218.739 E127.8339
G1 X122.178 Y218.855 E127.85078
G1 X170.914 Y206.704 E129.78031
G1 X171.237 Y206.471 E129.79561
G1 X171.353 Y206.047 E129.8125
G1 X149.482 Y118.328 E133.28543
G1 X152.022 Y112.982 E133.5128
G1 X153.674 Y106.991 E133.75153
G1 X154.17 Y101.769 E133.95304
G1 X154.419 Y101.623 E133.96413
;;retract;;
G1 F1500 E133.40413
G1 F2400 X155.855 Y100.232 E133.17613
G1 F1500 E133.16413
G0 F4800 X154.419 Y101.623
G0 X219.572 Y38.649
G0 X183.96 Y1.775
G0 X117.942 Y63.546
G1 F1500 E133.96413
G1 X182.501 Y1.202 E137.41183
G1 X182.82 Y0.95 E137.42744
G1 X183.183 Y0.764 E137.44311
G1 X183.574 Y0.652 E137.45874
G1 X183.98 Y0.619 E137.47439
G1 X184.385 Y0.666 E137.49005
G1 X184.773 Y0.791 E137.50571
G1 X185.129 Y0.989 E137.52136
G1 X185.44 Y1.254 E137.53705
G1 X220 Y37.041 E139.44824
G1 X220 Y36.375 E139.47382
G1 X185.773 Y0.933 E141.36659
G1 X185.487 Y0.678 E141.38131
G1 X185.106 Y0.438 E141.39861
G1 X184.689 Y0.268 E141.4159
G1 X184.248 Y0.175 E141.43322
G1 X183.798 Y0.161 E141.45051
G1 X183.352 Y0.227 E141.46783
G1 X182.925 Y0.371 E141.48514
G1 X182.53 Y0.587 E141.50244
G1 X182.18 Y0.87 E141.51973
G1 X117.741 Y63.098 E144.96101
G1 X112.562 Y63.513 E145.16061
G1 X112.125 Y63.587 E145.17763
G1 X106.23 Y65.12 E145.41162
G1 X105.813 Y65.268 E145.42862
G1 X101.814 Y67.098 E145.59757
G1 X15.648 Y42.39 E149.04107
G1 X15.273 Y42.313 E149.05578
G1 X14.823 Y42.295 E149.07308
G1 X14.377 Y42.357 E149.09038
G1 X13.949 Y42.497 E149.10768
G1 X13.552 Y42.71 E149.12498
G1 X13.199 Y42.99 E149.14229
G1 X12.901 Y43.327 E149.15957
G1 X12.667 Y43.712 E149.17688
G1 X12.505 Y44.133 E149.19421
G1 X0.00 Y87.745 E150.9371
G1 X0.00 Y89.424 E151.0016
G1 X12.95 Y44.26 E152.8065
G1 X13.1 Y43.881 E152.82216
G1 X13.321 Y43.539 E152.8378
G1 X13.604 Y43.247 E152.85343
G1 X13.939 Y43.015 E152.86908
G1 X14.313 Y42.853 E152.88474
G1 X14.711 Y42.768 E152.90037
G1 X15.119 Y42.761 E152.91605
G1 X15.521 Y42.835 E152.93175
G1 X101.849 Y67.589 E156.38172
G1 X106.005 Y65.688 E156.55729
G1 X106.347 Y65.567 E156.57122
G1 X112.242 Y64.034 E156.80521
G1 X112.599 Y63.974 E156.81912
G1 X117.942 Y63.546 E157.02503
G0 F4800 X117.135 Y61.757
G1 F1500 X181.085 Y0.00 E160.44024
G1 X180.421 Y0.00 E160.46574
G1 X116.934 Y61.309 E163.8562
G1 X112.415 Y61.671 E164.03035
G1 X111.66 Y61.798 E164.05976
G1 X105.765 Y63.331 E164.29375
G1 X105.044 Y63.588 E164.32316
G1 X101.666 Y65.133 E164.46586
G1 X16.158 Y40.614 E167.88306
G1 X15.793 Y40.526 E167.89748
G1 X15.206 Y40.452 E167.92021
G1 X14.614 Y40.457 E167.94296
G1 X14.028 Y40.542 E167.9657
G1 X13.458 Y40.705 E167.98848
G1 X12.916 Y40.943 E168.01122
G1 X12.411 Y41.252 E168.03396
G1 X11.952 Y41.626 E168.05671
G1 X11.547 Y42.058 E168.07945
G1 X11.205 Y42.542 E168.10222
G1 X10.93 Y43.066 E168.12495
G1 X10.729 Y43.623 E168.1477
G1 X0.00 Y81.041 E169.64305
G1 X0.00 Y82.718 E169.70748
G1 X11.173 Y43.751 E171.26473
G1 X11.366 Y43.225 E171.28625
G1 X11.631 Y42.731 E171.30779
G1 X11.964 Y42.281 E171.3293
G1 X12.357 Y41.882 E171.35081
G1 X12.803 Y41.543 E171.37233
G1 X13.293 Y41.272 E171.39384
G1 X13.817 Y41.072 E171.41539
G1 X14.363 Y40.95 E171.43688
G1 X14.922 Y40.906 E171.45842
G1 X15.481 Y40.942 E171.47994
G1 X16.03 Y41.058 E171.50149
G1 X101.703 Y65.624 E174.92529
G1 X105.236 Y64.008 E175.07454
G1 X105.882 Y63.778 E175.10088
G1 X111.777 Y62.245 E175.33487
G1 X112.451 Y62.132 E175.36112
G1 X117.135 Y61.757 E175.54164
G0 F4800 X117.539 Y62.651
G1 F1500 X181.859 Y0.538 E178.97656
G1 X182.238 Y0.227 E178.9954
G1 X182.632 Y0.00 E179.01287
G1 X181.786 Y0.00 E179.04537
G1 X181.538 Y0.205 E179.05773
G1 X117.337 Y62.204 E182.48632
G1 X112.488 Y62.592 E182.6732
G1 X111.893 Y62.693 E182.69638
G1 X105.998 Y64.226 E182.93037
G1 X105.429 Y64.428 E182.95357
G1 X101.74 Y66.115 E183.1094
G1 X15.903 Y41.502 E186.53975
G1 X15.212 Y41.378 E186.56671
G1 X14.686 Y41.378 E186.58692
G1 X14.166 Y41.457 E186.60713
G1 X13.664 Y41.615 E186.62734
G1 X13.191 Y41.846 E186.64756
G1 X12.759 Y42.147 E186.66779
G1 X12.378 Y42.509 E186.68798
G1 X12.056 Y42.925 E186.70819
G1 X11.8 Y43.385 E186.72841
G1 X11.617 Y43.878 E186.74861
G1 X0.00 Y84.393 E188.36773
G1 X0.00 Y86.069 E188.43212
G1 X12.061 Y44.005 E190.11314
G1 X12.234 Y43.547 E190.13195
G1 X12.479 Y43.123 E190.15076
G1 X12.79 Y42.745 E190.16956
G1 X13.158 Y42.422 E190.18837
G1 X13.574 Y42.163 E190.2072
G1 X14.026 Y41.975 E190.226
G1 X14.503 Y41.863 E190.24483
G1 X14.992 Y41.83 E190.26365
G1 X15.479 Y41.877 E190.28245
G1 X15.776 Y41.946 E190.29416
G1 X101.777 Y66.606 E193.73107
G1 X105.621 Y64.848 E193.89344
G1 X106.114 Y64.673 E193.91354
G1 X112.009 Y63.14 E194.14753
G1 X112.525 Y63.053 E194.16763
G1 X117.539 Y62.651 E194.36087
;;retract;;
G1 F1500 E193.80087
G1 F2400 X118.978 Y61.263 E193.57287
G1 F1500 E193.56087
G0 F4800 X117.539 Y62.651
G0 X183.96 Y1.775
G0 X186.799 Y0.00
G1 F1500 E194.36087
G1 X220 Y34.38 E196.19691
G1 X220 Y33.715 E196.22245
G1 X187.441 Y0.00 E198.02298
G1 X186.799 Y0.00 E198.04764
G0 F4800 X185.241 Y0.00
G1 F1500 X185.484 Y0.119 E198.05804
G1 X185.883 Y0.404 E198.07688
G1 X186.105 Y0.612 E198.08856
G1 X220 Y35.71 E199.96296
G1 X220 Y35.045 E199.98851
G1 X186.437 Y0.291 E201.84454
G1 X186.093 Y0.00 E201.86185
G1 X185.241 Y0.00 E201.89458
;;retract;;
G1 F1500 E201.33458
G1 F2400 X185.883 Y0.404 E201.24817
G1 X186.105 Y0.612 E201.21351
G1 X186.756 Y1.286 E201.10658
G1 F1500 E201.09458
G0 F4800 X185.241 Y0.00
G0 X14.5 Y44.026
G0 X0.371 Y93.305
G0 X0.00 Y96.604
G1 F1500 E201.89458
G1 X0.00 Y97.085 E201.91306
G1 X85.444 Y121.585 E205.3277
G1 X88.015 Y125.314 E205.5017
G1 X88.502 Y125.903 E205.53106
G1 X92.782 Y130.247 E205.76532
