;FLAVOR:Marlin
;TIME:3030
;Filament used:2.89436m
;Layer height:0.2
;MINX:85.261
;MINY:52.309
;MINZ:0.2
;MAXX:154.709
;MAXY:167.219
;MAXZ:15
;OuterWall Time:889.593
;InnerWall Time:316.504
;Skin Time:850.784
;Support Time:0
;SkirtBrim Time:0
;Infill Time:0
;Support Infills Time:0
;Combing Time:250.874
;Retraction Time:722.244
;PrimeTower Time:0

;
;
;
;
;;;;;;;;;;;;;;;;;;;;;;;;;;;;;;;;;;;;;;;;;;;;;;;;;;;;;;;;;;;;;;;;;;;;;;;;;;
;Creality Print GCode Generated by CXEngine
;CRSLICE_GIT_HASH:d90fa71
;Creality Print Version : V4.3.8.6674
;CXEngine Release Time:2023-10-16 18:06:53
;Gcode Generated Time:2024-12-19 14:41:52
;----------Machine Config--------------
;Machine Name:Ender-3 V3 SE
;Machine Height:250
;Machine Width:220
;Machine Depth:220
;Material Type:PLA
;Material Name:CR-PLA_1.75
;Number of Extruders:1
;ExtruderParams[0] Nozzle Diameter:1000
;----------Profile Config---------------
;Wall Thickness:0.8
;Top/Bottom Thickness:0.8
;Out Wall Line Width:0.42
;Inner Wall Line Width:0.45
;Inital Height:200
;Wall Line Count:2
;Infill Line Distance:8
;Infill Pattern:grid
;Infill Sparse Density:10
;Infill Wipe Distance:0
;Print Temperature:190
;Bed Temperature:60
;Support Enable:false
;Support Density:15
;Support Angle:60
;Adhesion Type:autobrim
;machine is belt:false
;machine belt offset:10
;machine belt offset Y:0
;Raft Base Line Spacing:1.6
;Wait Heatup Sync:true
;Enable Ironing:false
;Material Type:PLA
;Max volumetric speed:20
;Material Diameter:1.75
;Material Density:1.24
;Filament Cost:20
;Filament Weight:1000
;Preview Img Type:png
;Screen Size:Sermoon D3
;----------Shell Config----------------
;Outer Wall Wipe Distance:200
;Outer Inset First:false
;Infill Before Walls:false
;Infill Overlap:0.04
;Fill Gaps Between Walls:everywhere
;Minimum Infill Area:15
;Top Surface Skin Layer:0
;Top Layers:4
;Z Seam Alignment:sharpest_corner
;Seam Corner Preference:z_seam_corner_inner
;Z Seam X:110
;Z Seam Y:220
;Horizontal Expansion:0
;Top/Bottom Pattern:zigzag
;Ironing Pattern:zigzag
;Vase Model:false
;----------Support Config----------------
;Support Type:everywhere
;Support Pattern:zigzag
;Support Infill Layer Thickness:0.15
;Minimum Support Area:1
;Enable Support Roof:true
;Support Roof Thickness:0.8
;Support Roof Pattern:lines
;Connect Support Lines:0
;Connect Support ZigZags:1
;Minimum Support X/Y Distance:0.2
;Support Line Distance:2.67
; ---------PrintSpeed & Travel----------
;Enable Print Cool:true
;Avoid Printed Parts Traveling:true
;Enable Retraction:true
;Retraction Distance:0.8
;Retraction Speed:25
;Retraction Prime Speed:25
;Maximum Retraction Count:100
;Minimum Extrusion Distance Window:0.8
;Z Hop When Retracted:false
;Z Hop Height:0.2
;Retract Before Outer Wall:true

;Outer Wall Speed:60
;Inner Wall Speed:90
;Infill Speed:180
;Top/Bottom Speed:50
;Travel Speed:150
;Initial Layer Speed:30
;Skirt/Brim Speed:25
;Prime Tower Speed:60
;Outer Wall Acceleration:1000
;Inner Wall Acceleration:2000
;Infill Acceleration:2500
;Top/Bottom Acceleration:2500
;Travel Acceleration:2500
;Initial Layer Print Acceleration:500
;Initial Layer Travel Acceleration:500
;Skirt/Brim Acceleration:500
;Combing Mode:no_outer_surfaces
; --------SpecialModel&Mesh Fixes--------
;Union Overlapping Volum:true
;Remove All Holes:false
;Maximum Travel Resolution:0.25
;Maximum Deviation:0.05
;Maximum Model Angle:0.872665
;IS Mold Print:false
;Make Overhang Printable:false
;Enable Coasting:false
;Coasting Volumes:0.064
;Coasting Speed:0.9
;Raft AirGap:0.25
;Layer0 ZOverLap:0.13
;Adaptive Layers:0
;---------------------End of Head--------------------------
M140 S60
M105
M190 S60
M104 S190
M82 ;absolute extrusion mode
M220 S100 ;Reset Feedrate
M221 S100 ;Reset Flowrate

G28 ;Home

G92 E0 ;Reset Extruder
G1 Z2.0 F3000 ;Move Z Axis up
G1 X-2.1 Y20 Z0.28 F5000.0 ;Move to start position
M109 S190.000000
G1 X-2.1 Y145.0 Z0.28 F1500.0 E15 ;Draw the first line
G1 X-2.4 Y145.0 Z0.28 F5000.0 ;Move to side a little
G1 X-2.4 Y20 Z0.28 F1500.0 E30 ;Draw the second line
G92 E0  ;Reset Extruder
G1 E-1.0000 F1800 ;Retract a bit
G1 Z2.0 F3000 ;Move Z Axis up
G1 E0.0000 F1800 

G92 E0
G92 E0
G1 F1500 E-0.8
;LAYER_COUNT:75

;LAYER:0
M106 S0
M204 S500
;MESH:0_18
G0 F4800 X85.324 Y56.915 Z0.2
;TYPE:WALL-OUTER
G1 F1500 E0
G1 F1800 X85.444 Y56.307 E0.02333
G1 X85.644 Y55.719 E0.04671
G1 X85.922 Y55.153 E0.07045
G1 X86.261 Y54.644 E0.09348
G1 X86.67 Y54.176 E0.11688
G1 X87.144 Y53.761 E0.14059
G1 X87.653 Y53.422 E0.16362
G1 X88.217 Y53.145 E0.18727
G1 X88.798 Y52.947 E0.21038
G1 X89.416 Y52.824 E0.2341
G1 X90.03 Y52.783 E0.25727
G1 X90.645 Y52.824 E0.28047
G1 X91.262 Y52.947 E0.30416
G1 X91.843 Y53.145 E0.32727
G1 X92.408 Y53.422 E0.35096
G1 X92.916 Y53.761 E0.37395
G1 X93.384 Y54.17 E0.39735
G1 X93.799 Y54.644 E0.42107
G1 X94.138 Y55.153 E0.44409
G1 X94.413 Y55.711 E0.46751
G1 X94.613 Y56.298 E0.49085
G1 X94.737 Y56.916 E0.51458
G1 X94.778 Y57.584 E0.53978
G1 X94.778 Y67.278 E0.90473
G1 X85.282 Y67.278 E1.26223
G1 X85.282 Y57.541 E1.6288
G1 X85.324 Y56.915 E1.65242
G0 F4800 X85.362 Y56.719
G0 X85.799 Y56.978
;TYPE:WALL-INNER
G1 F1800 X85.907 Y56.431 E1.67537
G1 X86.087 Y55.902 E1.69837
G1 X86.337 Y55.392 E1.72175
G1 X86.642 Y54.935 E1.74436
G1 X87.009 Y54.515 E1.76732
G1 X87.435 Y54.142 E1.79062
G1 X87.892 Y53.837 E1.81324
G1 X88.4 Y53.588 E1.83652
G1 X88.923 Y53.41 E1.85926
G1 X89.478 Y53.299 E1.88256
G1 X90.03 Y53.262 E1.90533
G1 X90.582 Y53.299 E1.9281
G1 X91.137 Y53.41 E1.95139
G1 X91.66 Y53.588 E1.97413
G1 X92.168 Y53.837 E1.99742
G1 X92.625 Y54.142 E2.02003
G1 X93.045 Y54.509 E2.04299
G1 X93.418 Y54.935 E2.06629
G1 X93.723 Y55.392 E2.08891
G1 X93.97 Y55.894 E2.11194
G1 X94.15 Y56.423 E2.13494
G1 X94.261 Y56.979 E2.15827
G1 X94.3 Y57.584 E2.18323
G1 X94.3 Y66.8 E2.56255
G1 X85.761 Y66.8 E2.91401
G1 X85.761 Y57.557 E3.29445
G1 X85.799 Y56.978 E3.31833
;;retract;;
G1 F1500 E2.75833
G1 F2400 X86.087 Y55.902 E2.63145
G1 X86.337 Y55.392 E2.56681
G1 X86.514 Y55.126 E2.53033
G1 F1500 E2.51833
G0 F4800 X85.946 Y56.997
G0 X86.24 Y56.222
G0 X87.926 Y57.202
G0 X88.816 Y56.673
G0 X89.315 Y56.498
G0 X89.783 Y56.417
G0 X90.277 Y56.417
G0 X90.817 Y56.522
G0 X91.603 Y56.879
G0 X92.297 Y57.513
G1 F1500 E3.31833
G0 F4800 X91.83 Y57.929
;TYPE:WALL-OUTER
G1 F1800 X92.037 Y58.258 E3.33296
G1 X92.19 Y58.641 E3.34849
G1 X92.266 Y59.012 E3.36275
G1 X92.28 Y59.365 E3.37605
G1 X92.234 Y59.745 E3.39046
G1 X92.127 Y60.101 E3.40445
G1 X91.935 Y60.482 E3.42051
G1 X91.71 Y60.779 E3.43454
G1 X91.429 Y61.044 E3.44908
G1 X91.144 Y61.236 E3.46202
G1 X90.778 Y61.405 E3.4772
G1 X90.41 Y61.5 E3.49151
G1 X90.03 Y61.532 E3.50586
G1 X89.636 Y61.496 E3.52076
G1 X89.282 Y61.405 E3.53452
G1 X88.916 Y61.236 E3.54969
G1 X88.6 Y61.019 E3.56413
G1 X88.329 Y60.755 E3.57837
G1 X88.123 Y60.477 E3.59139
G1 X87.933 Y60.099 E3.60732
G1 X87.827 Y59.747 E3.62116
G1 X87.78 Y59.359 E3.63588
G1 X87.794 Y59.012 E3.64895
G1 X87.882 Y58.601 E3.66477
G1 X88.016 Y58.274 E3.67808
G1 X88.21 Y57.954 E3.69217
G1 X88.486 Y57.641 E3.70788
G1 X88.754 Y57.426 E3.72081
G1 X89.123 Y57.219 E3.73674
G1 X89.48 Y57.096 E3.75095
G1 X89.815 Y57.038 E3.76375
G1 X90.246 Y57.038 E3.77998
G1 X90.579 Y57.096 E3.7927
G1 X90.946 Y57.223 E3.80733
G1 X91.283 Y57.41 E3.82183
G1 X91.588 Y57.653 E3.83652
G1 X91.83 Y57.929 E3.85033
G0 F4800 X91.936 Y58.098
G0 X92.226 Y57.654
;TYPE:WALL-INNER
G1 F1800 X92.461 Y58.036 E3.86879
G1 X92.644 Y58.477 E3.88845
G1 X92.742 Y58.932 E3.9076
G1 X92.759 Y59.365 E3.92544
G1 X92.705 Y59.828 E3.94463
G1 X92.569 Y60.296 E3.96469
G1 X92.356 Y60.719 E3.98418
G1 X92.084 Y61.082 E4.00285
G1 X91.743 Y61.41 E4.02232
G1 X91.36 Y61.667 E4.04131
G1 X90.934 Y61.857 E4.06051
G1 X90.493 Y61.971 E4.07925
G1 X90.03 Y62.011 E4.09838
G1 X89.577 Y61.975 E4.11709
G1 X89.126 Y61.857 E4.13627
G1 X88.7 Y61.667 E4.15547
G1 X88.315 Y61.408 E4.17457
G1 X87.979 Y61.086 E4.19373
G1 X87.704 Y60.715 E4.21273
G1 X87.49 Y60.29 E4.23232
G1 X87.356 Y59.83 E4.25204
G1 X87.299 Y59.402 E4.26981
G1 X87.319 Y58.931 E4.28921
G1 X87.416 Y58.477 E4.30832
G1 X87.595 Y58.039 E4.3278
G1 X87.835 Y57.652 E4.34654
G1 X88.141 Y57.308 E4.36549
G1 X88.523 Y57.004 E4.38558
G1 X88.936 Y56.778 E4.40496
G1 X89.364 Y56.632 E4.42357
G1 X89.733 Y56.567 E4.439
G1 X89.807 Y56.558 E4.44206
G1 X90.255 Y56.558 E4.4605
G1 X90.695 Y56.632 E4.47887
G1 X91.124 Y56.778 E4.49752
G1 X91.537 Y57.004 E4.5169
G1 X91.917 Y57.306 E4.53688
G1 X92.226 Y57.654 E4.55603
;;retract;;
G1 F1500 E3.99603
G1 F2400 X92.644 Y58.477 E3.89081
G1 X92.742 Y58.932 E3.8378
G1 X92.759 Y59.365 E3.78844
G1 X92.739 Y59.542 E3.76803
G1 F1500 E3.75603
G0 F4800 X92.346 Y57.578
G0 X91.93 Y57.135
G0 X91.244 Y56.673
G0 X90.745 Y56.498
G0 X90.277 Y56.417
G0 X89.783 Y56.417
G0 X89.243 Y56.522
G0 X88.758 Y56.712
G0 X88.066 Y57.177
G0 X87.689 Y57.622
G0 X87.366 Y58.256
G0 X87.074 Y59.329
G0 X86.008 Y59.329
G1 F1500 E4.55603
G0 F4800 X86.259 Y59.387
;TYPE:SKIN
G1 F1800 X86.267 Y58.78 E4.57935
G1 X86.219 Y58.268 E4.59911
G1 X86.219 Y57.574 E4.62577
G1 X86.255 Y57.04 E4.64633
G1 X86.351 Y56.554 E4.66536
G1 X86.512 Y56.075 E4.68477
G1 X86.734 Y55.623 E4.70412
G1 X87.005 Y55.218 E4.72284
G1 X87.333 Y54.842 E4.742
G1 X87.716 Y54.507 E4.76155
G1 X88.122 Y54.236 E4.7803
G1 X88.577 Y54.012 E4.79978
G1 X89.027 Y53.856 E4.81808
G1 X89.536 Y53.755 E4.83802
G1 X90.03 Y53.722 E4.85704
G1 X90.517 Y53.755 E4.87579
G1 X91.021 Y53.856 E4.89553
G1 X91.484 Y54.013 E4.91431
G1 X91.943 Y54.238 E4.93395
G1 X92.342 Y54.505 E4.95239
G1 X92.719 Y54.833 E4.97159
G1 X93.056 Y55.218 E4.99125
G1 X93.323 Y55.619 E5.00975
G1 X93.543 Y56.068 E5.02896
G1 X93.704 Y56.527 E5.04765
G1 X93.806 Y57.04 E5.06774
G1 X93.841 Y57.582 E5.0886
G1 X93.841 Y58.273 E5.11515
G1 X93.793 Y58.779 E5.13468
G1 X93.801 Y59.388 E5.15807
G1 X93.784 Y59.965 E5.18025
G1 X93.841 Y60.557 E5.20309
G1 X93.841 Y66.341 E5.42529
G1 X86.219 Y66.341 E5.71809
G1 X86.219 Y60.556 E5.94033
G1 X86.276 Y59.964 E5.96317
G1 X86.847 Y59.91 E5.98521
G1 X86.847 Y59.915 E5.9854
G1 X87.071 Y60.476 E6.0086
G1 X87.297 Y60.928 E6.02802
G1 X87.648 Y61.405 E6.05077
G1 X88.004 Y61.746 E6.0697
G1 X88.455 Y62.055 E6.09071
G1 X88.975 Y62.291 E6.11264
G1 X89.473 Y62.423 E6.13244
G1 X90.03 Y62.469 E6.15391
G1 X90.566 Y62.428 E6.17456
G1 X91.099 Y62.284 E6.19577
G1 X91.602 Y62.057 E6.21697
G1 X92.052 Y61.748 E6.23794
G1 X92.413 Y61.403 E6.25712
G1 X92.761 Y60.936 E6.27949
G1 X92.99 Y60.477 E6.2992
G1 X93.213 Y59.916 E6.32239
G1 X93.258 Y59.444 E6.3406
G1 X93.24 Y58.838 E6.36389
G1 X93.073 Y58.313 E6.38506
G1 X92.867 Y57.824 E6.40544
G1 X92.586 Y57.368 E6.42602
G1 X92.231 Y56.971 E6.44648
G1 X91.814 Y56.634 E6.46707
G1 X91.297 Y56.354 E6.48966
G1 X90.837 Y56.192 E6.50839
G1 X90.283 Y56.101 E6.52996
G1 X89.743 Y56.1 E6.55071
G1 X89.241 Y56.186 E6.57027
G1 X88.737 Y56.361 E6.59077
G1 X88.249 Y56.633 E6.61223
G1 X87.818 Y56.983 E6.63356
G1 X87.457 Y57.39 E6.65446
G1 X87.183 Y57.836 E6.67456
G1 X86.987 Y58.31 E6.69427
G1 X86.819 Y58.84 E6.71563
G1 X86.805 Y59.336 E6.73469
G1 X86.259 Y59.387 E6.75576
G0 F4800 X85.908 Y59.387
G0 X85.98 Y66.58
G0 X87.017 Y66.652
G0 X87.017 Y66.11
G1 F1800 X86.448 Y65.541 E6.78667
G1 X86.448 Y64.887
G1 X87.671 Y66.11 E6.85311
G1 X88.324 Y66.11
G1 X86.448 Y64.234 E6.95503
G1 X86.448 Y63.58
G1 X88.978 Y66.11 E7.09248
G1 X89.631 Y66.11
G1 X86.448 Y62.927 E7.2654
G1 X86.448 Y62.274
G1 X90.284 Y66.11 E7.4738
G1 X90.938 Y66.11
G1 X86.448 Y61.62 E7.71774
G1 X86.448 Y60.967
G1 X91.591 Y66.11 E7.99714
G1 X92.244 Y66.11
G1 X88.441 Y62.306 E8.20378
G0 F4800 X88.693 Y61.826
G0 X89.538 Y62.113
G0 X89.443 Y62.655
G1 F1800 X92.898 Y66.11 E8.39148
G1 X93.551 Y66.11
G1 X90.135 Y62.694 E8.57706
G1 X90.721 Y62.627
G1 X93.609 Y65.514 E8.73393
G1 X93.609 Y64.861
G1 X91.227 Y62.479 E8.86334
G1 X91.68 Y62.279
G1 X93.609 Y64.208 E8.96814
G1 X93.609 Y63.554
G1 X92.071 Y62.016 E9.0517
G1 X92.421 Y61.713
G1 X93.609 Y62.901 E9.11624
G1 X93.609 Y62.248
G1 X92.729 Y61.368 E9.16405
G1 X92.995 Y60.98
G1 X93.609 Y61.594 E9.1974
G1 X93.609 Y60.941
G1 X93.21 Y60.541 E9.21911
G1 X93.55 Y60.229
G1 X93.425 Y60.104 E9.2259
G0 F4800 X92.826 Y59.957
G0 X92.987 Y59.365
G0 X94.052 Y59.365
G0 X94.152 Y58.319
G0 X93.601 Y58.319
G1 F1800 X93.123 Y57.841 E9.25187
G1 X93.609 Y57.674
G1 X89.897 Y53.962 E9.45353
G1 X89.315 Y54.033
G1 X91.467 Y56.185 E9.57044
G1 X90.536 Y55.908
G1 X88.805 Y54.177 E9.66449
G1 X88.354 Y54.379
G1 X89.844 Y55.869 E9.74543
G1 X89.269 Y55.947
G1 X87.95 Y54.628 E9.81709
G1 X87.591 Y54.923
G1 X88.772 Y56.103 E9.88123
G1 X88.335 Y56.32
G1 X87.274 Y55.259 E9.93887
G1 X86.999 Y55.637
G1 X87.942 Y56.58 E9.9901
G1 X87.597 Y56.888
G1 X86.772 Y56.064 E10.03489
G1 X86.597 Y56.543
G1 X87.284 Y57.229 E10.07219
G1 X87.035 Y57.634
G1 X86.482 Y57.081 E10.10223
G1 X86.449 Y57.701
G1 X86.83 Y58.082 E10.12293
G1 X86.469 Y58.374
G1 X86.643 Y58.549 E10.13241
G0 F4800 X87.222 Y58.673
G0 X87.131 Y59.869
G0 X86.008 Y59.869
G0 X85.908 Y60.35
G0 X86.485 Y60.35
G1 F1800 X87.015 Y60.88 E10.1612
;;retract;;
G1 F1500 E9.6012
G1 F1500 E9.3612
G0 F4800 X87.5 Y60.636
G0 X87.576 Y58.974
G0 X87.816 Y58.178
G0 X88.332 Y57.481
G0 X88.996 Y57.033
G0 X89.818 Y56.817
G0 X90.647 Y56.887
G0 X91.394 Y57.221
G0 X91.728 Y57.481
G0 X92.152 Y58.029
G0 X92.597 Y57.782
G0 X94.05 Y57.536
G0 X94.088 Y56.859
G1 F1500 E10.1612
G0 F4800 X93.554 Y56.965
G1 F1800 X90.594 Y54.005 E10.32201
G1 X91.54 Y54.298
G1 X93.261 Y56.019 E10.41551
;;retract;;
G1 F1500 E9.85551
G1 F2400 X91.847 Y54.605
G1 X93.261 Y56.019 E9.62751
G1 F1500 E9.61551
;MESH:0_14
G0 F4800 X93.749 Y55.78
G0 X94.54 Y56.937
G0 X95.63 Y56.865
G0 X104.359 Y57.472
G0 X105.45 Y57.543
G0 X105.916 Y56.997
G1 F1500 E10.41551
G0 F4800 X105.294 Y56.915
;TYPE:WALL-OUTER
G1 F1800 X105.414 Y56.307 E10.43884
G1 X105.614 Y55.719 E10.46222
G1 X105.892 Y55.153 E10.48596
G1 X106.231 Y54.644 E10.50899
G1 X106.64 Y54.176 E10.53239
G1 X107.114 Y53.761 E10.5561
G1 X107.623 Y53.422 E10.57913
G1 X108.187 Y53.145 E10.60278
G1 X108.768 Y52.947 E10.62589
G1 X109.386 Y52.824 E10.64961
G1 X110 Y52.783 E10.67278
G1 X110.615 Y52.824 E10.69598
G1 X111.232 Y52.947 E10.71967
G1 X111.813 Y53.145 E10.74278
G1 X112.378 Y53.422 E10.76647
G1 X112.886 Y53.761 E10.78946
G1 X113.354 Y54.17 E10.81286
G1 X113.769 Y54.644 E10.83658
G1 X114.108 Y55.153 E10.8596
G1 X114.383 Y55.711 E10.88302
G1 X114.583 Y56.298 E10.90637
G1 X114.707 Y56.916 E10.9301
G1 X114.748 Y57.584 E10.95529
G1 X114.748 Y67.278 E11.32024
G1 X105.252 Y67.278 E11.67774
G1 X105.252 Y57.541 E12.04431
G1 X105.294 Y56.915 E12.06793
G0 F4800 X105.332 Y56.719
G0 X105.769 Y56.978
;TYPE:WALL-INNER
G1 F1800 X105.877 Y56.431 E12.09088
G1 X106.057 Y55.902 E12.11388
G1 X106.307 Y55.392 E12.13726
G1 X106.612 Y54.935 E12.15987
G1 X106.979 Y54.515 E12.18283
G1 X107.405 Y54.142 E12.20613
G1 X107.862 Y53.837 E12.22875
G1 X108.37 Y53.588 E12.25203
G1 X108.893 Y53.41 E12.27477
G1 X109.448 Y53.299 E12.29807
G1 X110 Y53.262 E12.32084
G1 X110.552 Y53.299 E12.34361
G1 X111.107 Y53.41 E12.3669
G1 X111.63 Y53.588 E12.38964
G1 X112.138 Y53.837 E12.41293
G1 X112.595 Y54.142 E12.43554
G1 X113.015 Y54.509 E12.4585
G1 X113.388 Y54.935 E12.48181
G1 X113.693 Y55.392 E12.50442
G1 X113.94 Y55.894 E12.52745
G1 X114.12 Y56.423 E12.55045
G1 X114.231 Y56.979 E12.57378
G1 X114.27 Y57.584 E12.59874
G1 X114.27 Y66.8 E12.97806
G1 X105.731 Y66.8 E13.32952
G1 X105.731 Y57.557 E13.70996
G1 X105.769 Y56.978 E13.73384
;;retract;;
G1 F1500 E13.17384
G1 F2400 X106.057 Y55.902 E13.04696
G1 X106.307 Y55.392 E12.98232
G1 X106.484 Y55.126 E12.94584
G1 F1500 E12.93384
G0 F4800 X105.916 Y56.997
G0 X106.21 Y56.222
G0 X107.896 Y57.202
G0 X108.786 Y56.673
G0 X109.285 Y56.498
G0 X109.753 Y56.417
G0 X110.247 Y56.417
G0 X110.787 Y56.522
G0 X111.272 Y56.712
G0 X111.831 Y57.088
G0 X112.267 Y57.513
G1 F1500 E13.73384
G0 F4800 X111.8 Y57.929
;TYPE:WALL-OUTER
G1 F1800 X112.007 Y58.258 E13.74847
G1 X112.16 Y58.641 E13.764
G1 X112.236 Y59.012 E13.77826
G1 X112.25 Y59.365 E13.79156
G1 X112.204 Y59.745 E13.80597
G1 X112.097 Y60.101 E13.81996
G1 X111.905 Y60.482 E13.83603
G1 X111.68 Y60.779 E13.85005
G1 X111.399 Y61.044 E13.86459
G1 X111.114 Y61.236 E13.87753
G1 X110.748 Y61.405 E13.89271
G1 X110.38 Y61.5 E13.90702
