;FLAVOR:Marlin
;TIME:8235.34
;Filament used:13.6905m
;Layer height:0.2
;MINX:1.961
;MINY:2.379
;MINZ:0.2
;MAXX:217.9
;MAXY:218.318
;MAXZ:7
;OuterWall Time:619.985
;InnerWall Time:514.019
;Skin Time:6016.83
;Support Time:0
;SkirtBrim Time:0
;Infill Time:433.723
;Support Infills Time:0
;Combing Time:265.349
;Retraction Time:385.425
;PrimeTower Time:0

;
;
;;;;;;;;;;;;;;;;;;;;;;;;;;;;;;;;;;;;;;;;;;;;;;;;;;;;;;;;;;;;;;;;;;;;;;;;;;;;
;Creality Print GCode Generated by CXEngine
;CRSLICE_GIT_HASH:d90fa71
;Creality Print Version : V4.3.8.6674
;CXEngine Release Time:2023-10-16 18:06:53
;Gcode Generated Time:2024-12-18 15:50:37
;----------Machine Config--------------
;Machine Name:Ender-3 V3 SE
;Machine Height:250
;Machine Width:220
;Machine Depth:220
;Material Type:PLA
;Material Name:CR-PLA_1.75
;Number of Extruders:1
;ExtruderParams[0] Nozzle Diameter:1000
;----------Profile Config---------------
;Wall Thickness:0.8
;Top/Bottom Thickness:0.8
;Out Wall Line Width:0.42
;Inner Wall Line Width:0.45
;Inital Height:200
;Wall Line Count:2
;Infill Line Distance:8
;Infill Pattern:grid
;Infill Sparse Density:10
;Infill Wipe Distance:0
;Print Temperature:190
;Bed Temperature:60
;Support Enable:false
;Support Density:15
;Support Angle:60
;Adhesion Type:autobrim
;machine is belt:false
;machine belt offset:10
;machine belt offset Y:0
;Raft Base Line Spacing:1.6
;Wait Heatup Sync:true
;Enable Ironing:false
;Material Type:PLA
;Max volumetric speed:20
;Material Diameter:1.75
;Material Density:1.24
;Filament Cost:20
;Filament Weight:1000
;Preview Img Type:png
;Screen Size:Sermoon D3
;----------Shell Config----------------
;Outer Wall Wipe Distance:200
;Outer Inset First:false
;Infill Before Walls:false
;Infill Overlap:0.04
;Fill Gaps Between Walls:everywhere
;Minimum Infill Area:15
;Top Surface Skin Layer:0
;Top Layers:4
;Z Seam Alignment:sharpest_corner
;Seam Corner Preference:z_seam_corner_inner
;Z Seam X:110
;Z Seam Y:220
;Horizontal Expansion:0
;Top/Bottom Pattern:zigzag
;Ironing Pattern:zigzag
;Vase Model:false
;----------Support Config----------------
;Support Type:everywhere
;Support Pattern:zigzag
;Support Infill Layer Thickness:0.15
;Minimum Support Area:1
;Enable Support Roof:true
;Support Roof Thickness:0.8
;Support Roof Pattern:lines
;Connect Support Lines:0
;Connect Support ZigZags:1
;Minimum Support X/Y Distance:0.2
;Support Line Distance:2.67
; ---------PrintSpeed & Travel----------
;Enable Print Cool:true
;Avoid Printed Parts Traveling:true
;Enable Retraction:true
;Retraction Distance:0.8
;Retraction Speed:25
;Retraction Prime Speed:25
;Maximum Retraction Count:100
;Minimum Extrusion Distance Window:0.8
;Z Hop When Retracted:false
;Z Hop Height:0.2
;Retract Before Outer Wall:true

;Outer Wall Speed:60
;Inner Wall Speed:90
;Infill Speed:180
;Top/Bottom Speed:50
;Travel Speed:150
;Initial Layer Speed:30
;Skirt/Brim Speed:25
;Prime Tower Speed:60
;Outer Wall Acceleration:1000
;Inner Wall Acceleration:2000
;Infill Acceleration:2500
;Top/Bottom Acceleration:2500
;Travel Acceleration:2500
;Initial Layer Print Acceleration:500
;Initial Layer Travel Acceleration:500
;Skirt/Brim Acceleration:500
;Combing Mode:no_outer_surfaces
; --------SpecialModel&Mesh Fixes--------
;Union Overlapping Volum:true
;Remove All Holes:false
;Maximum Travel Resolution:0.25
;Maximum Deviation:0.05
;Maximum Model Angle:0.872665
;IS Mold Print:false
;Make Overhang Printable:false
;Enable Coasting:false
;Coasting Volumes:0.064
;Coasting Speed:0.9
;Raft AirGap:0.25
;Layer0 ZOverLap:0.13
;Adaptive Layers:0
;---------------------End of Head--------------------------
M140 S60
M105
M190 S60
M104 S190
M82 ;absolute extrusion mode
M220 S100 ;Reset Feedrate
M221 S100 ;Reset Flowrate

G28 ;Home

G92 E0 ;Reset Extruder
G1 Z2.0 F3000 ;Move Z Axis up
G1 X-2.1 Y20 Z0.28 F5000.0 ;Move to start position
M109 S190.000000
G1 X-2.1 Y145.0 Z0.28 F1500.0 E15 ;Draw the first line
G1 X-2.4 Y145.0 Z0.28 F5000.0 ;Move to side a little
G1 X-2.4 Y20 Z0.28 F1500.0 E30 ;Draw the second line
G92 E0  ;Reset Extruder
G1 E-1.0000 F1800 ;Retract a bit
G1 Z2.0 F3000 ;Move Z Axis up
G1 E0.0000 F1800 

G92 E0
G92 E0
G1 F1500 E-0.8
;LAYER_COUNT:35

;LAYER:0
M106 S0
M204 S500
;MESH:0_0
G0 F4800 X18.582 Y53.362 Z0.2
;TYPE:WALL-OUTER
G1 F1500 E0
G1 F1800 X18.957 Y53.5 E0.01504
G1 X19.291 Y53.694 E0.02958
G1 X19.554 Y53.91 E0.0424
G1 X19.821 Y54.216 E0.05769
G1 X20.003 Y54.51 E0.0707
G1 X20.148 Y54.868 E0.08524
G1 X20.231 Y55.238 E0.09952
G1 X20.249 Y55.621 E0.11395
G1 X20.193 Y56.043 E0.12998
G1 X20.085 Y56.385 E0.14348
G1 X19.909 Y56.732 E0.15813
G1 X19.682 Y57.035 E0.17238
G1 X19.407 Y57.295 E0.18663
G1 X19.086 Y57.51 E0.20118
G1 X18.749 Y57.662 E0.21509
G1 X18.371 Y57.76 E0.2298
G1 X17.992 Y57.79 E0.24411
G1 X17.582 Y57.752 E0.25961
G1 X17.255 Y57.663 E0.27237
G1 X16.877 Y57.489 E0.28803
G1 X16.593 Y57.296 E0.30096
G1 X16.285 Y56.999 E0.31707
G1 X16.082 Y56.719 E0.33009
G1 X15.911 Y56.379 E0.34442
G1 X15.791 Y55.976 E0.36025
G1 X15.748 Y55.598 E0.37457
G1 X15.766 Y55.25 E0.38769
G1 X15.849 Y54.872 E0.40226
G1 X15.992 Y54.519 E0.4166
G1 X16.181 Y54.207 E0.43033
G1 X16.439 Y53.914 E0.44503
G1 X16.769 Y53.653 E0.46087
G1 X17.061 Y53.492 E0.47342
G1 X17.434 Y53.358 E0.48834
G1 X17.805 Y53.295 E0.50251
G1 X18.203 Y53.295 E0.51749
G1 X18.582 Y53.362 E0.53198
G0 F4800 X18.769 Y53.431
G0 X18.702 Y52.896
;TYPE:WALL-INNER
G1 F1800 X19.141 Y53.053 E0.55117
G1 X19.544 Y53.284 E0.57029
G1 X19.904 Y53.58 E0.58947
G1 X20.195 Y53.913 E0.60768
G1 X20.444 Y54.316 E0.62717
G1 X20.615 Y54.748 E0.6463
G1 X20.712 Y55.195 E0.66512
G1 X20.729 Y55.662 E0.68436
G1 X20.667 Y56.131 E0.70383
G1 X20.527 Y56.567 E0.72268
G1 X20.32 Y56.983 E0.7418
G1 X20.055 Y57.335 E0.75994
G1 X19.708 Y57.667 E0.7797
G1 X19.323 Y57.926 E0.7988
G1 X18.921 Y58.108 E0.81696
G1 X18.452 Y58.231 E0.83692
G1 X17.993 Y58.269 E0.85588
G1 X17.52 Y58.231 E0.87541
G1 X17.074 Y58.11 E0.89443
G1 X16.656 Y57.918 E0.91336
G1 X16.276 Y57.659 E0.93229
G1 X15.934 Y57.33 E0.95182
G1 X15.66 Y56.952 E0.97104
G1 X15.454 Y56.535 E0.99018
G1 X15.323 Y56.095 E1.00908
G1 X15.267 Y55.631 E1.02831
G1 X15.289 Y55.207 E1.04579
G1 X15.387 Y54.748 E1.06511
G1 X15.57 Y54.288 E1.08548
G1 X15.807 Y53.902 E1.10413
G1 X16.122 Y53.55 E1.12357
G1 X16.489 Y53.261 E1.1428
G1 X16.885 Y53.043 E1.1614
G1 X17.306 Y52.897 E1.17974
G1 X17.781 Y52.813 E1.1996
G1 X18.246 Y52.818 E1.21874
G1 X18.702 Y52.896 E1.23778
;;retract;;
G1 F1500 E0.67778
G1 F2400 X19.544 Y53.284 E0.5721
G1 X19.904 Y53.58 E0.51898
G1 X20.195 Y53.913 E0.46859
G1 X20.281 Y54.053 E0.44978
G1 F1500 E0.43778
G0 F4800 X18.751 Y52.76
G0 X19.289 Y52.977
G0 X19.975 Y53.448
G0 X20.565 Y54.24
G0 X20.954 Y55.594
G0 X51.413 Y80.48
G0 X52.287 Y80.658
G0 X52.768 Y80.862
G0 X53.394 Y81.328
G1 F1500 E1.23778
G0 F4800 X52.954 Y81.769
;TYPE:WALL-OUTER
G1 F1800 X53.182 Y82.139 E1.25414
G1 X53.352 Y82.57 E1.27158
G1 X53.368 Y83.01 E1.28816
G1 X53.331 Y83.304 E1.29931
G1 X53.193 Y83.731 E1.31621
G1 X52.936 Y84.084 E1.33265
G1 X52.72 Y84.292 E1.34394
G1 X52.478 Y84.456 E1.35494
G1 X52.17 Y84.591 E1.3676
G1 X51.912 Y84.657 E1.37763
G1 X51.612 Y84.682 E1.38896
G1 X51.317 Y84.658 E1.4001
G1 X51.02 Y84.577 E1.41169
G1 X50.757 Y84.456 E1.42259
G1 X50.516 Y84.292 E1.43357
G1 X50.292 Y84.077 E1.44525
G1 X50.131 Y83.856 E1.45555
G1 X49.987 Y83.568 E1.46767
G1 X49.902 Y83.286 E1.47876
G1 X49.866 Y82.997 E1.48972
G1 X49.889 Y82.557 E1.50631
G1 X50.059 Y82.131 E1.52358
G1 X50.211 Y81.884 E1.5345
G1 X50.51 Y81.548 E1.55143
G1 X50.895 Y81.334 E1.56801
G1 X51.174 Y81.235 E1.57916
G1 X51.453 Y81.187 E1.58981
G1 X51.769 Y81.184 E1.60171
G1 X52.046 Y81.231 E1.61229
G1 X52.489 Y81.387 E1.62997
G1 X52.954 Y81.769 E1.65263
G0 F4800 X53.059 Y81.939
G0 X53.321 Y81.449
;TYPE:WALL-INNER
G1 F1800 X53.623 Y81.951 E1.67674
G1 X53.826 Y82.476 E1.69991
G1 X53.847 Y83.002 E1.72157
G1 X53.795 Y83.421 E1.73895
G1 X53.62 Y83.971 E1.76271
G1 X53.277 Y84.42 E1.78596
G1 X53.017 Y84.671 E1.80084
G1 X52.709 Y84.876 E1.81607
G1 X52.361 Y85.032 E1.83176
G1 X51.966 Y85.133 E1.84854
G1 X51.612 Y85.161 E1.86316
G1 X51.204 Y85.124 E1.88002
G1 X50.856 Y85.027 E1.89489
G1 X50.524 Y84.878 E1.90987
G1 X50.225 Y84.672 E1.92481
G1 X49.922 Y84.38 E1.94213
G1 X49.7 Y84.069 E1.95786
G1 X49.537 Y83.732 E1.97327
G1 X49.43 Y83.366 E1.98896
G1 X49.385 Y83.016 E2.00349
G1 X49.414 Y82.448 E2.0269
G1 X49.62 Y81.94 E2.04946
G1 X49.825 Y81.597 E2.06591
G1 X50.214 Y81.167 E2.08977
G1 X50.723 Y80.887 E2.11368
G1 X51.041 Y80.775 E2.12756
G1 X51.432 Y80.708 E2.14389
G1 X51.819 Y80.708 E2.15982
G1 X52.185 Y80.769 E2.17509
G1 X52.726 Y80.965 E2.19877
G1 X53.321 Y81.449 E2.23034
;;retract;;
G1 F1500 E1.67034
G1 F2400 X53.826 Y82.476 E1.53993
G1 X53.847 Y83.002 E1.47996
G1 X53.807 Y83.329 E1.44234
G1 F1500 E1.43034
G0 F4800 X53.414 Y81.35
G0 X53.995 Y82.272
G0 X100.577 Y71.44
G0 X101.476 Y71.804
G1 F1500 E2.23034
G0 F4800 X101.44 Y71.187
;TYPE:WALL-OUTER
G1 F1800 X107.024 Y68.515 E2.46339
G1 X112.846 Y66.892 E2.69093
G1 X118.986 Y66.286 E2.92321
G1 X182.872 Y2.409 E6.32433
G1 X217.87 Y37.408 E8.18769
G1 X154.586 Y100.692 E11.557
G1 X154.375 Y100.484 E11.56815
G1 X154.196 Y100.419 E11.57532
G1 X153.985 Y100.609 E11.58601
G1 X153.51 Y106.742 E11.81759
G1 X152.004 Y112.594 E12.04508
G1 X149.457 Y118.214 E12.27737
G1 X172.838 Y205.48 E15.67857
G1 X159.901 Y208.947 E16.18279
G1 X159.869 Y208.947 E16.184
G1 X125.026 Y218.292 E17.5421
G1 X101.861 Y131.843 E20.91147
G1 X102.148 Y131.763 E20.92269
G1 X102.295 Y131.638 E20.92995
G1 X102.271 Y131.388 E20.93941
G1 X97.165 Y127.887 E21.17248
G1 X92.844 Y123.653 E21.40023
G1 X89.258 Y118.641 E21.63224
G1 X1.987 Y95.253 E25.03368
G1 X14.799 Y47.442 E26.89714
G1 X101.249 Y70.608 E30.26656
G1 X101.143 Y71.017 E30.28247
G1 X101.302 Y71.161 E30.29054
G1 X101.44 Y71.187 E30.29583
G0 F4800 X101.62 Y71.101
G0 X101.639 Y71.619
;TYPE:WALL-INNER
G1 F1800 X107.192 Y68.965 E30.54915
G1 X112.934 Y67.364 E30.7945
G1 X119.097 Y66.757 E31.0494
G1 X119.344 Y66.61 E31.06123
G1 X182.872 Y3.085 E34.75899
G1 X217.194 Y37.408 E36.75684
G1 X154.526 Y100.075 E40.4046
G1 X154.159 Y99.942 E40.42067
G1 X153.82 Y100.058 E40.43542
G1 X153.632 Y100.241 E40.44622
G1 X153.515 Y100.476 E40.45702
G1 X153.036 Y106.663 E40.71244
G1 X151.551 Y112.434 E40.95771
G1 X149.022 Y118.027 E41.21035
G1 X148.994 Y118.322 E41.22255
G1 X172.252 Y205.141 E44.92197
G1 X159.804 Y208.477 E45.4524
G1 X159.777 Y208.478 E45.45351
G1 X125.365 Y217.706 E46.91993
G1 X102.425 Y132.098 E50.56782
G1 X102.729 Y131.841 E50.58421
G1 X102.796 Y131.54 E50.5969
G1 X102.702 Y131.188 E50.6119
G1 X102.509 Y130.97 E50.62388
G1 X97.47 Y127.516 E50.87533
G1 X93.209 Y123.341 E51.12086
G1 X89.638 Y118.351 E51.37342
G1 X89.363 Y118.173 E51.38691
G1 X2.573 Y94.914 E55.08519
G1 X15.138 Y48.028 E57.08308
G1 X100.74 Y70.967 E60.73072
G1 X100.789 Y71.314 E60.74515
G1 X101.1 Y71.595 E60.7624
G1 X101.274 Y71.65 E60.76991
G1 X101.639 Y71.619 E60.78499
;;retract;;
G1 F1500 E60.22499
G1 F2400 X103.51 Y70.914 E59.99699
G1 F1500 E59.98499
G0 F4800 X101.706 Y71.751
G0 X107.098 Y68.721
G0 X112.891 Y67.106
G0 X118.996 Y66.509
G0 X130.26 Y55.287
G0 X132.054 Y54.254
G0 X138.687 Y53.979
G1 F1500 E60.78499
G0 F4800 X139.392 Y54.015
;TYPE:WALL-OUTER
G1 F1800 X139.476 Y52.32 E60.84888
G1 X139.864 Y50.58 E60.91599
G1 X140.514 Y48.999 E60.98034
G1 X141.43 Y47.526 E61.04565
G1 X142.611 Y46.206 E61.11233
G1 X143.943 Y45.148 E61.17637
G1 X145.499 Y44.293 E61.24321
G1 X147.143 Y43.728 E61.30865
G1 X148.862 Y43.45 E61.37421
G1 X150.558 Y43.462 E61.43806
G1 X152.31 Y43.774 E61.50506
G1 X153.924 Y44.357 E61.56966
G1 X155.455 Y45.231 E61.63603
G1 X156.789 Y46.325 E61.70098
G1 X157.922 Y47.631 E61.76607
G1 X158.815 Y49.1 E61.83079
G1 X159.458 Y50.726 E61.89662
G1 X159.816 Y52.434 E61.96232
G1 X159.878 Y54.175 E62.0279
G1 X159.645 Y55.903 E62.09354
G1 X159.114 Y57.58 E62.15977
G1 X158.321 Y59.122 E62.22505
G1 X157.302 Y60.481 E62.28899
G1 X156.039 Y61.679 E62.35453
G1 X154.556 Y62.666 E62.42159
G1 X152.967 Y63.367 E62.48698
G1 X151.317 Y63.784 E62.55105
G1 X149.57 Y63.923 E62.61703
G1 X147.841 Y63.765 E62.68239
G1 X146.134 Y63.305 E62.74895
G1 X144.571 Y62.585 E62.81373
G1 X143.153 Y61.612 E62.87847
G1 X141.896 Y60.393 E62.94439
G1 X140.86 Y58.967 E63.01075
G1 X140.106 Y57.443 E63.07476
G1 X139.598 Y55.741 E63.14163
G1 X139.392 Y54.015 E63.20707
G0 F4800 X139.401 Y53.816
G0 X138.911 Y54.047
;TYPE:WALL-INNER
G1 F1800 X139.001 Y52.241 E63.2815
G1 X139.397 Y50.459 E63.35663
G1 X140.096 Y48.76 E63.43225
G1 X141.038 Y47.252 E63.50543
G1 X142.253 Y45.885 E63.58071
G1 X143.692 Y44.736 E63.6565
G1 X145.286 Y43.859 E63.73139
G1 X147.002 Y43.266 E63.80611
G1 X148.803 Y42.972 E63.88122
G1 X150.626 Y42.984 E63.95626
G1 X152.411 Y43.302 E64.03089
G1 X154.126 Y43.923 E64.10596
G1 X155.713 Y44.823 E64.18105
G1 X157.128 Y45.987 E64.25647
G1 X158.311 Y47.348 E64.33069
G1 X159.257 Y48.908 E64.40578
G1 X159.924 Y50.605 E64.48083
G1 X160.289 Y52.365 E64.55481
G1 X160.356 Y54.195 E64.63018
G1 X160.115 Y56.005 E64.70534
G1 X159.568 Y57.741 E64.78025
G1 X158.74 Y59.361 E64.85514
G1 X157.65 Y60.815 E64.92993
G1 X156.32 Y62.068 E65.00514
G1 X154.807 Y63.078 E65.08002
G1 X153.145 Y63.816 E65.15486
G1 X151.377 Y64.262 E65.22991
G1 X149.575 Y64.402 E65.30431
G1 X147.752 Y64.238 E65.37964
G1 X146.018 Y63.772 E65.45355
G1 X145.935 Y63.74 E65.45721
G1 X144.347 Y63.008 E65.52918
G1 X142.821 Y61.959 E65.6054
G1 X141.535 Y60.711 E65.67915
G1 X140.461 Y59.233 E65.75435
G1 X139.651 Y57.602 E65.82931
G1 X139.131 Y55.861 E65.90409
G1 X138.911 Y54.047 E65.9793
;;retract;;
G1 F1500 E65.4193
G1 F2400 X139.179 Y52.065 E65.1913
G1 F1500 E65.1793
G0 F4800 X138.77 Y54.046
G0 X139.014 Y55.959
G0 X139.526 Y57.667
G0 X140.372 Y59.351
G0 X141.414 Y60.786
G0 X142.808 Y62.125
G0 X144.275 Y63.129
G0 X146.029 Y63.92
G0 X147.7 Y64.373
G0 X149.239 Y64.508
G0 X150.882 Y64.53
G0 X155.741 Y69.255
G0 X155.738 Y71.008
G1 F1500 E65.9793
G0 F4800 X156.363 Y71.008
;TYPE:WALL-OUTER
G1 F1800 X156.447 Y69.29 E66.04406
G1 X156.83 Y67.564 E66.11062
G1 X157.484 Y65.97 E66.17548
G1 X158.394 Y64.508 E66.24031
G1 X159.566 Y63.189 E66.30674
G1 X160.913 Y62.118 E66.37153
G1 X162.46 Y61.267 E66.438
G1 X164.096 Y60.702 E66.50316
G1 X165.822 Y60.42 E66.569
G1 X167.556 Y60.434 E66.63428
G1 X169.26 Y60.738 E66.69944
G1 X170.903 Y61.332 E66.76522
G1 X172.41 Y62.19 E66.8305
G1 X173.755 Y63.29 E66.89592
G1 X174.889 Y64.597 E66.96106
G1 X175.785 Y66.071 E67.026
G1 X176.426 Y67.689 E67.09152
G1 X176.788 Y69.43 E67.15846
G1 X176.848 Y71.129 E67.22247
G1 X176.62 Y72.851 E67.28786
G1 X176.085 Y74.553 E67.35503
G1 X175.312 Y76.06 E67.41879
G1 X174.272 Y77.451 E67.48417
G1 X173.009 Y78.649 E67.54971
G1 X171.526 Y79.636 E67.61678
G1 X169.938 Y80.338 E67.68214
G1 X168.288 Y80.755 E67.74621
G1 X166.517 Y80.893 E67.81309
G1 X164.785 Y80.73 E67.87858
G1 X163.104 Y80.276 E67.94413
G1 X161.545 Y79.557 E68.00877
G1 X160.123 Y78.582 E68.07367
G1 X158.861 Y77.358 E68.13986
G1 X157.838 Y75.952 E68.20532
G1 X157.063 Y74.382 E68.27124
G1 X156.571 Y72.732 E68.33606
G1 X156.363 Y71.008 E68.40143
G0 F4800 X156.372 Y70.809
G0 X155.885 Y71.034
;TYPE:WALL-INNER
G1 F1800 X155.975 Y69.205 E68.4768
G1 X156.378 Y67.409 E68.55256
G1 X157.064 Y65.735 E68.62702
G1 X158.02 Y64.203 E68.70135
G1 X159.238 Y62.841 E68.77656
G1 X160.663 Y61.705 E68.85157
G1 X162.284 Y60.822 E68.92754
G1 X163.985 Y60.237 E69.00158
G1 X165.77 Y59.944 E69.07603
G1 X167.575 Y59.955 E69.15033
G1 X169.379 Y60.275 E69.22574
G1 X171.12 Y60.905 E69.30194
G1 X172.68 Y61.795 E69.37586
G1 X174.084 Y62.943 E69.45051
G1 X175.275 Y64.314 E69.52526
G1 X176.222 Y65.874 E69.60037
G1 X176.894 Y67.572 E69.67554
G1 X177.264 Y69.351 E69.75033
G1 X177.326 Y71.112 E69.82285
G1 X177.32 Y71.232 E69.8278
G1 X177.086 Y72.977 E69.90026
G1 X176.539 Y74.715 E69.97526
G1 X175.709 Y76.333 E70.05011
G1 X174.62 Y77.785 E70.12481
G1 X173.292 Y79.039 E70.19999
G1 X171.774 Y80.05 E70.27506
G1 X170.116 Y80.787 E70.34974
G1 X168.349 Y81.233 E70.42475
G1 X166.528 Y81.375 E70.49993
G1 X164.724 Y81.209 E70.57449
G1 X162.959 Y80.735 E70.64971
G1 X161.308 Y79.972 E70.72457
G1 X159.799 Y78.939 E70.79984
G1 X158.491 Y77.661 E70.87511
