;FLAVOR:Marlin
;TIME:8665.78
;Filament used:14.4437m
;Layer height:0.2
;MINX:2.239
;MINY:1.565
;MINZ:0.2
;MAXX:218.178
;MAXY:217.504
;MAXZ:5
;OuterWall Time:459.289
;InnerWall Time:367.202
;Skin Time:6679.34
;Support Time:0
;SkirtBrim Time:0
;Infill Time:503.589
;Support Infills Time:0
;Combing Time:246.485
;Retraction Time:409.878
;PrimeTower Time:0

;
;;;;;;;;;;;;;;;;;;;;;;;;;;;;;;;;;;;;;;;;;;;;;;;;;;;;;;;;;;;;;;;;;;;;;;;;;;;;;
;Creality Print GCode Generated by CXEngine
;CRSLICE_GIT_HASH:d90fa71
;Creality Print Version : V4.3.8.6674
;CXEngine Release Time:2023-10-16 18:06:53
;Gcode Generated Time:2024-12-19 03:05:09
;----------Machine Config--------------
;Machine Name:Ender-3 V3 SE
;Machine Height:250
;Machine Width:220
;Machine Depth:220
;Material Type:PLA
;Material Name:CR-PLA_1.75
;Number of Extruders:1
;ExtruderParams[0] Nozzle Diameter:1000
;----------Profile Config---------------
;Wall Thickness:0.8
;Top/Bottom Thickness:0.8
;Out Wall Line Width:0.42
;Inner Wall Line Width:0.45
;Inital Height:200
;Wall Line Count:2
;Infill Line Distance:8
;Infill Pattern:grid
;Infill Sparse Density:10
;Infill Wipe Distance:0
;Print Temperature:190
;Bed Temperature:60
;Support Enable:false
;Support Density:15
;Support Angle:60
;Adhesion Type:autobrim
;machine is belt:false
;machine belt offset:10
;machine belt offset Y:0
;Raft Base Line Spacing:1.6
;Wait Heatup Sync:true
;Enable Ironing:false
;Material Type:PLA
;Max volumetric speed:20
;Material Diameter:1.75
;Material Density:1.24
;Filament Cost:20
;Filament Weight:1000
;Preview Img Type:png
;Screen Size:Sermoon D3
;----------Shell Config----------------
;Outer Wall Wipe Distance:200
;Outer Inset First:false
;Infill Before Walls:false
;Infill Overlap:0.04
;Fill Gaps Between Walls:everywhere
;Minimum Infill Area:15
;Top Surface Skin Layer:0
;Top Layers:4
;Z Seam Alignment:sharpest_corner
;Seam Corner Preference:z_seam_corner_inner
;Z Seam X:110
;Z Seam Y:220
;Horizontal Expansion:0
;Top/Bottom Pattern:zigzag
;Ironing Pattern:zigzag
;Vase Model:false
;----------Support Config----------------
;Support Type:everywhere
;Support Pattern:zigzag
;Support Infill Layer Thickness:0.15
;Minimum Support Area:1
;Enable Support Roof:true
;Support Roof Thickness:0.8
;Support Roof Pattern:lines
;Connect Support Lines:0
;Connect Support ZigZags:1
;Minimum Support X/Y Distance:0.2
;Support Line Distance:2.67
; ---------PrintSpeed & Travel----------
;Enable Print Cool:true
;Avoid Printed Parts Traveling:true
;Enable Retraction:true
;Retraction Distance:0.8
;Retraction Speed:25
;Retraction Prime Speed:25
;Maximum Retraction Count:100
;Minimum Extrusion Distance Window:0.8
;Z Hop When Retracted:false
;Z Hop Height:0.2
;Retract Before Outer Wall:true

;Outer Wall Speed:60
;Inner Wall Speed:90
;Infill Speed:180
;Top/Bottom Speed:50
;Travel Speed:150
;Initial Layer Speed:30
;Skirt/Brim Speed:25
;Prime Tower Speed:60
;Outer Wall Acceleration:1000
;Inner Wall Acceleration:2000
;Infill Acceleration:2500
;Top/Bottom Acceleration:2500
;Travel Acceleration:2500
;Initial Layer Print Acceleration:500
;Initial Layer Travel Acceleration:500
;Skirt/Brim Acceleration:500
;Combing Mode:no_outer_surfaces
; --------SpecialModel&Mesh Fixes--------
;Union Overlapping Volum:true
;Remove All Holes:false
;Maximum Travel Resolution:0.25
;Maximum Deviation:0.05
;Maximum Model Angle:0.872665
;IS Mold Print:false
;Make Overhang Printable:false
;Enable Coasting:false
;Coasting Volumes:0.064
;Coasting Speed:0.9
;Raft AirGap:0.25
;Layer0 ZOverLap:0.13
;Adaptive Layers:0
;---------------------End of Head--------------------------
M140 S60
M105
M190 S60
M104 S190
M82 ;absolute extrusion mode
M220 S100 ;Reset Feedrate
M221 S100 ;Reset Flowrate

G28 ;Home

G92 E0 ;Reset Extruder
G1 Z2.0 F3000 ;Move Z Axis up
G1 X-2.1 Y20 Z0.28 F5000.0 ;Move to start position
M109 S190.000000
G1 X-2.1 Y145.0 Z0.28 F1500.0 E15 ;Draw the first line
G1 X-2.4 Y145.0 Z0.28 F5000.0 ;Move to side a little
G1 X-2.4 Y20 Z0.28 F1500.0 E30 ;Draw the second line
G92 E0  ;Reset Extruder
G1 E-1.0000 F1800 ;Retract a bit
G1 Z2.0 F3000 ;Move Z Axis up
G1 E0.0000 F1800 

G92 E0
G92 E0
G1 F1500 E-0.8
;LAYER_COUNT:25

;LAYER:0
M106 S0
M204 S500
;MESH:0_0
G0 F4800 X28.494 Y55.412 Z0.2
;TYPE:WALL-OUTER
G1 F1500 E0
G1 F1800 X28.315 Y55.772 E0.01514
G1 X28.091 Y56.072 E0.02923
G1 X27.825 Y56.325 E0.04305
G1 X27.482 Y56.556 E0.05862
G1 X27.13 Y56.712 E0.07311
G1 X26.763 Y56.803 E0.08735
G1 X26.407 Y56.831 E0.10079
G1 X26.015 Y56.799 E0.1156
G1 X25.625 Y56.691 E0.13084
G1 X25.299 Y56.541 E0.14434
G1 X24.979 Y56.325 E0.15888
G1 X24.704 Y56.058 E0.17331
G1 X24.476 Y55.746 E0.18786
G1 X24.316 Y55.42 E0.20153
G1 X24.196 Y55.019 E0.21729
G1 X24.153 Y54.639 E0.23168
G1 X24.174 Y54.266 E0.24575
G1 X24.263 Y53.885 E0.26048
G1 X24.396 Y53.562 E0.27363
G1 X24.586 Y53.249 E0.28741
G1 X24.843 Y52.956 E0.30209
G1 X25.174 Y52.694 E0.31798
G1 X25.502 Y52.517 E0.33201
G1 X25.863 Y52.394 E0.34637
G1 X26.21 Y52.336 E0.35961
G1 X26.608 Y52.337 E0.3746
G1 X26.986 Y52.404 E0.38905
G1 X27.362 Y52.541 E0.40411
G1 X27.663 Y52.713 E0.41717
G1 X27.99 Y52.981 E0.43308
G1 X28.226 Y53.258 E0.44678
G1 X28.408 Y53.553 E0.45983
G1 X28.553 Y53.909 E0.4743
G1 X28.635 Y54.28 E0.48861
G1 X28.653 Y54.662 E0.50301
G1 X28.608 Y55.04 E0.51734
G1 X28.494 Y55.412 E0.53198
G0 F4800 X28.405 Y55.591
G0 X28.932 Y55.613
;TYPE:WALL-INNER
G1 F1800 X28.72 Y56.026 E0.55109
G1 X28.447 Y56.391 E0.56985
G1 X28.121 Y56.702 E0.5884
G1 X27.716 Y56.976 E0.60852
G1 X27.315 Y57.154 E0.62658
G1 X26.852 Y57.275 E0.64628
G1 X26.402 Y57.31 E0.66485
G1 X25.906 Y57.265 E0.68535
G1 X25.481 Y57.149 E0.70349
G1 X25.425 Y57.126 E0.70598
G1 X25.066 Y56.959 E0.72227
G1 X24.678 Y56.697 E0.74154
G1 X24.343 Y56.372 E0.76076
G1 X24.067 Y55.994 E0.78002
G1 X23.859 Y55.576 E0.79924
G1 X23.729 Y55.141 E0.81792
G1 X23.672 Y54.671 E0.83741
G1 X23.694 Y54.248 E0.85484
G1 X23.797 Y53.763 E0.87525
G1 X23.977 Y53.324 E0.89478
G1 X24.209 Y52.949 E0.91293
G1 X24.53 Y52.588 E0.93281
G1 X24.89 Y52.304 E0.95169
G1 X25.289 Y52.084 E0.97044
G1 X25.724 Y51.932 E0.98941
G1 X26.19 Y51.854 E1.00885
G1 X26.651 Y51.86 E1.02783
G1 X27.104 Y51.937 E1.04674
G1 X27.545 Y52.095 E1.06602
G1 X27.954 Y52.329 E1.08542
G1 X28.31 Y52.619 E1.10432
G1 X28.604 Y52.959 E1.12282
G1 X28.849 Y53.355 E1.14198
G1 X29.019 Y53.785 E1.16102
G1 X29.116 Y54.24 E1.18016
G1 X29.133 Y54.703 E1.19923
G1 X29.075 Y55.163 E1.21832
G1 X28.932 Y55.613 E1.23775
;;retract;;
G1 F1500 E0.67775
G1 F2400 X28.447 Y56.391 E0.57333
G1 X28.121 Y56.702 E0.52203
G1 X27.716 Y56.976 E0.46639
G1 X27.583 Y57.035 E0.44975
G1 F1500 E0.43775
G0 F4800 X29.058 Y55.682
G0 X62.07 Y67.171
G0 X62.678 Y68.176
G0 X63.338 Y68.716
G0 X64.171 Y69.009
G1 F1500 E1.23775
G0 F4800 X64.227 Y68.386
;TYPE:WALL-OUTER
G1 F1800 X63.921 Y68.303 E1.24969
G1 X63.636 Y68.171 E1.26151
G1 X63.381 Y67.996 E1.27315
G1 X63.156 Y67.778 E1.28495
G1 X62.969 Y67.523 E1.29685
G1 X62.828 Y67.235 E1.30893
G1 X62.74 Y66.941 E1.32048
G1 X62.702 Y66.634 E1.33213
G1 X62.715 Y66.336 E1.34335
G1 X62.792 Y65.992 E1.35663
G1 X62.901 Y65.727 E1.36741
G1 X63.052 Y65.475 E1.37847
G1 X63.266 Y65.229 E1.39075
G1 X63.54 Y65.012 E1.40391
G1 X63.778 Y64.88 E1.41415
G1 X64.116 Y64.762 E1.42763
G1 X64.43 Y64.714 E1.43959
G1 X64.721 Y64.717 E1.45054
G1 X65.027 Y64.771 E1.46224
G1 X65.3 Y64.867 E1.47314
G1 X65.581 Y65.023 E1.48524
G1 X65.856 Y65.247 E1.49859
G1 X66.053 Y65.477 E1.50999
G1 X66.219 Y65.754 E1.52215
G1 X66.319 Y66.007 E1.53239
G1 X66.387 Y66.311 E1.54412
G1 X66.403 Y66.627 E1.55603
G1 X66.365 Y66.941 E1.56794
G1 X66.265 Y67.266 E1.58074
G1 X66.125 Y67.542 E1.59239
G1 X65.936 Y67.793 E1.60422
G1 X65.708 Y68.009 E1.61604
G1 X65.435 Y68.19 E1.62837
G1 X65.168 Y68.309 E1.63938
G1 X64.846 Y68.39 E1.65188
G1 X64.556 Y68.413 E1.66283
G1 X64.227 Y68.386 E1.67526
G0 F4800 X64.034 Y68.334
G0 X64.133 Y68.855
;TYPE:WALL-INNER
G1 F1800 X63.748 Y68.752 E1.69166
G1 X63.373 Y68.571 E1.7088
G1 X63.105 Y68.387 E1.72218
G1 X62.801 Y68.104 E1.73928
G1 X62.557 Y67.771 E1.75627
G1 X62.377 Y67.395 E1.77343
G1 X62.278 Y67.069 E1.78745
G1 X62.224 Y66.655 E1.80463
G1 X62.237 Y66.314 E1.81868
G1 X62.242 Y66.255 E1.82112
G1 X62.326 Y65.868 E1.83741
G1 X62.48 Y65.494 E1.85406
G1 X62.679 Y65.169 E1.86975
G1 X62.948 Y64.866 E1.88642
G1 X63.257 Y64.622 E1.90263
G1 X63.603 Y64.431 E1.9189
G1 X63.975 Y64.3 E1.93513
G1 X64.373 Y64.235 E1.95173
G1 X64.764 Y64.24 E1.96782
G1 X65.147 Y64.304 E1.98381
G1 X65.513 Y64.435 E1.99981
G1 X65.866 Y64.634 E2.01648
G1 X66.177 Y64.887 E2.03299
G1 X66.43 Y65.177 E2.04883
G1 X66.641 Y65.521 E2.06544
G1 X66.785 Y65.885 E2.08155
G1 X66.868 Y66.27 E2.09776
G1 X66.883 Y66.671 E2.11427
G1 X66.832 Y67.064 E2.13059
G1 X66.707 Y67.449 E2.14725
G1 X66.53 Y67.796 E2.16328
G1 X66.283 Y68.123 E2.18015
G1 X65.981 Y68.402 E2.19707
G1 X65.681 Y68.601 E2.21189
G1 X65.322 Y68.765 E2.22813
G1 X64.902 Y68.865 E2.2459
G1 X64.511 Y68.891 E2.26203
G1 X64.133 Y68.855 E2.27766
;;retract;;
G1 F1500 E1.71766
G1 F2400 X63.373 Y68.571 E1.62521
G1 X63.105 Y68.387 E1.58816
G1 X62.801 Y68.104 E1.54085
G1 X62.557 Y67.771 E1.49388
G1 X62.541 Y67.738 E1.48966
G1 F1500 E1.47766
G0 F4800 X64.111 Y69.002
G0 X63.688 Y68.97
G0 X54.448 Y99.435
G0 X53.508 Y100.025
G0 X53.068 Y100.466
G1 F1500 E2.27766
G0 F4800 X53.587 Y100.816
;TYPE:WALL-OUTER
G1 F1800 X53.801 Y100.573 E2.28985
G1 X54.052 Y100.374 E2.30191
G1 X54.333 Y100.22 E2.31397
G1 X54.627 Y100.118 E2.32569
G1 X54.948 Y100.067 E2.33792
G1 X55.26 Y100.071 E2.34967
G1 X55.555 Y100.124 E2.36095
G1 X55.857 Y100.233 E2.37304
G1 X56.134 Y100.393 E2.38509
G1 X56.369 Y100.585 E2.39651
G1 X56.567 Y100.811 E2.40782
G1 X56.737 Y101.086 E2.41999
G1 X56.854 Y101.383 E2.43201
G1 X56.918 Y101.689 E2.44378
G1 X56.93 Y101.997 E2.45538
G1 X56.889 Y102.313 E2.46738
G1 X56.798 Y102.601 E2.47875
G1 X56.641 Y102.911 E2.49183
G1 X56.48 Y103.126 E2.50194
G1 X56.22 Y103.373 E2.51545
G1 X55.988 Y103.527 E2.52593
G1 X55.709 Y103.656 E2.5375
G1 X55.403 Y103.737 E2.54942
G1 X55.092 Y103.765 E2.56117
G1 X54.733 Y103.734 E2.57474
G1 X54.43 Y103.648 E2.5866
G1 X54.183 Y103.534 E2.59684
G1 X53.926 Y103.362 E2.60848
G1 X53.673 Y103.118 E2.62171
G1 X53.509 Y102.895 E2.63213
G1 X53.352 Y102.578 E2.64545
G1 X53.265 Y102.28 E2.65714
G1 X53.229 Y101.966 E2.66904
G1 X53.242 Y101.689 E2.67948
G1 X53.319 Y101.345 E2.69275
G1 X53.435 Y101.065 E2.70416
G1 X53.587 Y100.816 E2.71514
G0 F4800 X53.719 Y100.666
G0 X53.221 Y100.507
;TYPE:WALL-INNER
G1 F1800 X53.459 Y100.238 E2.72992
G1 X53.764 Y99.991 E2.74608
G1 X54.099 Y99.801 E2.76193
G1 X54.508 Y99.652 E2.77985
G1 X54.905 Y99.59 E2.79638
G1 X55.26 Y99.591 E2.811
G1 X55.68 Y99.659 E2.82851
G1 X56.057 Y99.798 E2.84505
G1 X56.422 Y100.011 E2.86244
G1 X56.68 Y100.221 E2.87613
G1 X56.968 Y100.549 E2.8941
G1 X57.169 Y100.874 E2.90983
G1 X57.304 Y101.219 E2.92508
G1 X57.389 Y101.6 E2.94114
G1 X57.408 Y102.017 E2.95832
G1 X57.36 Y102.412 E2.9747
G1 X57.236 Y102.803 E2.99159
G1 X57.062 Y103.146 E3.00742
G1 X56.827 Y103.46 E3.02356
G1 X56.537 Y103.736 E3.04004
G1 X56.201 Y103.959 E3.05663
G1 X55.849 Y104.118 E3.07253
G1 X55.466 Y104.215 E3.08879
G1 X55.069 Y104.247 E3.10519
G1 X54.672 Y104.213 E3.12159
G1 X54.283 Y104.106 E3.13819
G1 X53.927 Y103.942 E3.15433
G1 X53.604 Y103.722 E3.17041
G1 X53.324 Y103.452 E3.18642
G1 X53.087 Y103.129 E3.20291
G1 X52.911 Y102.771 E3.21933
G1 X52.798 Y102.401 E3.23525
G1 X52.748 Y102.002 E3.2518
G1 X52.767 Y101.606 E3.26812
G1 X52.855 Y101.217 E3.28454
G1 X53.009 Y100.847 E3.30103
G1 X53.221 Y100.507 E3.31752
;;retract;;
G1 F1500 E2.75752
G1 F2400 X53.764 Y99.991 E2.67214
G1 X54.099 Y99.801 E2.62825
G1 X54.508 Y99.652 E2.57866
G1 X54.905 Y99.59 E2.53294
G1 X54.935 Y99.59 E2.52952
G1 F1500 E2.51752
G0 F4800 X53.111 Y100.407
G0 X52.666 Y101.075
G0 X18.92 Y93.93
G0 X18.686 Y94.367
G1 F1500 E3.31752
G0 F4800 X18.128 Y94.083
;TYPE:WALL-OUTER
G1 F1800 X17.952 Y94.425 E3.332
G1 X17.751 Y94.693 E3.34462
G1 X17.472 Y94.962 E3.35921
G1 X17.118 Y95.198 E3.37522
G1 X16.768 Y95.351 E3.3896
G1 X16.44 Y95.434 E3.40234
G1 X16.062 Y95.467 E3.41663
G1 X15.635 Y95.43 E3.43276
G1 X15.274 Y95.329 E3.44688
G1 X14.963 Y95.187 E3.45975
G1 X14.611 Y94.949 E3.47574
G1 X14.364 Y94.709 E3.48871
G1 X14.134 Y94.396 E3.50333
G1 X13.963 Y94.057 E3.51763
G1 X13.843 Y93.656 E3.53338
G1 X13.8 Y93.276 E3.54778
G1 X13.817 Y92.936 E3.5606
G1 X13.91 Y92.522 E3.57657
G1 X14.043 Y92.2 E3.58969
G1 X14.258 Y91.854 E3.60502
G1 X14.519 Y91.565 E3.61968
G1 X14.79 Y91.352 E3.63266
G1 X15.131 Y91.161 E3.64737
G1 X15.491 Y91.035 E3.66173
G1 X15.858 Y90.973 E3.67574
G1 X16.237 Y90.973 E3.69001
G1 X16.628 Y91.039 E3.70494
G1 X16.982 Y91.165 E3.71909
G1 X17.319 Y91.355 E3.73365
G1 X17.622 Y91.602 E3.74837
G1 X17.873 Y91.895 E3.76289
G1 X18.064 Y92.206 E3.77663
G1 X18.208 Y92.569 E3.79134
G1 X18.283 Y92.916 E3.8047
G1 X18.301 Y93.299 E3.81914
G1 X18.255 Y93.678 E3.83351
G1 X18.128 Y94.083 E3.84949
G0 F4800 X18.037 Y94.261
G0 X18.582 Y94.245
;TYPE:WALL-INNER
G1 F1800 X18.37 Y94.665 E3.86885
G1 X18.1 Y95.025 E3.88737
G1 X17.758 Y95.35 E3.90679
G1 X17.366 Y95.612 E3.9262
G1 X16.946 Y95.8 E3.94514
G1 X16.502 Y95.912 E3.96399
G1 X16.039 Y95.949 E3.9831
G1 X15.572 Y95.909 E4.0024
G1 X15.131 Y95.789 E4.02121
G1 X14.715 Y95.601 E4.04
G1 X14.323 Y95.336 E4.05947
G1 X13.985 Y95.007 E4.07889
G1 X13.712 Y94.631 E4.09801
G1 X13.506 Y94.212 E4.11723
G1 X13.376 Y93.778 E4.13588
G1 X13.319 Y93.309 E4.15532
G1 X13.342 Y92.854 E4.17407
G1 X13.445 Y92.397 E4.19335
G1 X13.622 Y91.965 E4.21257
G1 X13.859 Y91.584 E4.23104
G1 X14.175 Y91.228 E4.25063
G1 X14.539 Y90.941 E4.26971
G1 X14.936 Y90.724 E4.28833
G1 X15.373 Y90.571 E4.30739
G1 X15.842 Y90.494 E4.32695
G1 X16.241 Y90.495 E4.34337
G1 X16.359 Y90.505 E4.34825
G1 X16.778 Y90.584 E4.3658
G1 X17.165 Y90.723 E4.38272
G1 X17.572 Y90.949 E4.40188
G1 X17.933 Y91.238 E4.42092
G1 X18.24 Y91.585 E4.43999
G1 X18.504 Y92.016 E4.46079
G1 X18.657 Y92.402 E4.47788
G1 X18.761 Y92.872 E4.49769
G1 X18.782 Y93.34 E4.51698
G1 X18.722 Y93.801 E4.53611
G1 X18.582 Y94.245 E4.55527
;;retract;;
G1 F1500 E3.99527
G1 F2400 X18.1 Y95.025 E3.89085
G1 X17.758 Y95.35 E3.83715
G1 X17.366 Y95.612 E3.78346
G1 X17.237 Y95.67 E3.76727
G1 F1500 E3.75527
G0 F4800 X18.708 Y94.314
G0 X18.92 Y93.93
G0 X88.127 Y110.287
G0 X88.421 Y109.941
G1 F1500 E4.55527
G0 F4800 X88.94 Y110.288
;TYPE:WALL-OUTER
G1 F1800 X89.167 Y110.034 E4.5681
G1 X89.396 Y109.853 E4.57908
G1 X89.686 Y109.692 E4.59157
G1 X89.979 Y109.591 E4.60324
G1 X90.301 Y109.54 E4.61551
G1 X90.604 Y109.543 E4.62692
G1 X90.908 Y109.596 E4.63854
G1 X91.21 Y109.706 E4.65064
G1 X91.487 Y109.866 E4.66268
G1 X91.716 Y110.052 E4.67379
G1 X91.92 Y110.284 E4.68542
G1 X92.084 Y110.549 E4.69715
G1 X92.208 Y110.861 E4.70979
G1 X92.269 Y111.146 E4.72076
G1 X92.283 Y111.475 E4.73316
G1 X92.244 Y111.776 E4.74459
G1 X92.144 Y112.095 E4.75717
G1 X92.005 Y112.367 E4.76867
G1 X91.807 Y112.628 E4.78101
G1 X91.573 Y112.846 E4.79305
G1 X91.341 Y113 E4.80353
G1 X91.047 Y113.134 E4.81569
G1 X90.738 Y113.214 E4.82771
G1 X90.426 Y113.239 E4.83949
G1 X90.086 Y113.207 E4.85235
G1 X89.783 Y113.121 E4.86421
G1 X89.536 Y113.007 E4.87445
G1 X89.279 Y112.835 E4.88609
G1 X89.026 Y112.591 E4.89932
G1 X88.862 Y112.368 E4.90974
G1 X88.705 Y112.051 E4.92306
G1 X88.618 Y111.753 E4.93475
G1 X88.582 Y111.439 E4.94665
G1 X88.595 Y111.162 E4.95709
G1 X88.672 Y110.818 E4.97036
G1 X88.788 Y110.538 E4.98177
G1 X88.94 Y110.288 E4.99278
G0 F4800 X89.073 Y110.139
G0 X88.549 Y110.012
;TYPE:WALL-INNER
G1 F1800 X88.822 Y109.702 E5.00979
G1 X89.137 Y109.45 E5.02639
G1 X89.451 Y109.273 E5.04122
G1 X89.867 Y109.126 E5.05938
G1 X90.258 Y109.063 E5.07569
G1 X90.614 Y109.064 E5.09034
G1 X91.03 Y109.131 E5.10768
G1 X91.432 Y109.282 E5.12536
G1 X91.723 Y109.448 E5.13915
G1 X92.034 Y109.695 E5.15549
G1 X92.31 Y110.001 E5.17245
G1 X92.528 Y110.366 E5.18995
G1 X92.646 Y110.66 E5.20299
G1 X92.672 Y110.744 E5.20661
G1 X92.744 Y111.092 E5.22124
G1 X92.762 Y111.458 E5.23632
G1 X92.713 Y111.885 E5.25401
G1 X92.589 Y112.278 E5.27097
G1 X92.411 Y112.624 E5.28699
G1 X92.181 Y112.932 E5.30281
G1 X91.89 Y113.209 E5.31934
G1 X91.551 Y113.434 E5.33609
