;FLAVOR:Marlin
;TIME:8664.16
;Filament used:14.4542m
;Layer height:0.2
;MINX:2.614
;MINY:2.46
;MINZ:0.2
;MAXX:218.553
;MAXY:218.399
;MAXZ:5
;OuterWall Time:459.234
;InnerWall Time:367.394
;Skin Time:6686.06
;Support Time:0
;SkirtBrim Time:0
;Infill Time:502.647
;Support Infills Time:0
;Combing Time:248.779
;Retraction Time:400.046
;PrimeTower Time:0

;
;
;;;;;;;;;;;;;;;;;;;;;;;;;;;;;;;;;;;;;;;;;;;;;;;;;;;;;;;;;;;;;;;;;;;;;;;;;;;
;Creality Print GCode Generated by CXEngine
;CRSLICE_GIT_HASH:d90fa71
;Creality Print Version : V4.3.8.6674
;CXEngine Release Time:2023-10-16 18:06:53
;Gcode Generated Time:2024-12-18 14:56:26
;----------Machine Config--------------
;Machine Name:Ender-3 V3 SE
;Machine Height:250
;Machine Width:220
;Machine Depth:220
;Material Type:PLA
;Material Name:CR-PLA_1.75
;Number of Extruders:1
;ExtruderParams[0] Nozzle Diameter:1000
;----------Profile Config---------------
;Wall Thickness:0.8
;Top/Bottom Thickness:0.8
;Out Wall Line Width:0.42
;Inner Wall Line Width:0.45
;Inital Height:200
;Wall Line Count:2
;Infill Line Distance:8
;Infill Pattern:grid
;Infill Sparse Density:10
;Infill Wipe Distance:0
;Print Temperature:190
;Bed Temperature:60
;Support Enable:false
;Support Density:15
;Support Angle:60
;Adhesion Type:autobrim
;machine is belt:false
;machine belt offset:10
;machine belt offset Y:0
;Raft Base Line Spacing:1.6
;Wait Heatup Sync:true
;Enable Ironing:false
;Material Type:PLA
;Max volumetric speed:20
;Material Diameter:1.75
;Material Density:1.24
;Filament Cost:20
;Filament Weight:1000
;Preview Img Type:png
;Screen Size:Sermoon D3
;----------Shell Config----------------
;Outer Wall Wipe Distance:200
;Outer Inset First:false
;Infill Before Walls:false
;Infill Overlap:0.04
;Fill Gaps Between Walls:everywhere
;Minimum Infill Area:15
;Top Surface Skin Layer:0
;Top Layers:4
;Z Seam Alignment:sharpest_corner
;Seam Corner Preference:z_seam_corner_inner
;Z Seam X:110
;Z Seam Y:220
;Horizontal Expansion:0
;Top/Bottom Pattern:zigzag
;Ironing Pattern:zigzag
;Vase Model:false
;----------Support Config----------------
;Support Type:everywhere
;Support Pattern:zigzag
;Support Infill Layer Thickness:0.15
;Minimum Support Area:1
;Enable Support Roof:true
;Support Roof Thickness:0.8
;Support Roof Pattern:lines
;Connect Support Lines:0
;Connect Support ZigZags:1
;Minimum Support X/Y Distance:0.2
;Support Line Distance:2.67
; ---------PrintSpeed & Travel----------
;Enable Print Cool:true
;Avoid Printed Parts Traveling:true
;Enable Retraction:true
;Retraction Distance:0.8
;Retraction Speed:25
;Retraction Prime Speed:25
;Maximum Retraction Count:100
;Minimum Extrusion Distance Window:0.8
;Z Hop When Retracted:false
;Z Hop Height:0.2
;Retract Before Outer Wall:true

;Outer Wall Speed:60
;Inner Wall Speed:90
;Infill Speed:180
;Top/Bottom Speed:50
;Travel Speed:150
;Initial Layer Speed:30
;Skirt/Brim Speed:25
;Prime Tower Speed:60
;Outer Wall Acceleration:1000
;Inner Wall Acceleration:2000
;Infill Acceleration:2500
;Top/Bottom Acceleration:2500
;Travel Acceleration:2500
;Initial Layer Print Acceleration:500
;Initial Layer Travel Acceleration:500
;Skirt/Brim Acceleration:500
;Combing Mode:no_outer_surfaces
; --------SpecialModel&Mesh Fixes--------
;Union Overlapping Volum:true
;Remove All Holes:false
;Maximum Travel Resolution:0.25
;Maximum Deviation:0.05
;Maximum Model Angle:0.872665
;IS Mold Print:false
;Make Overhang Printable:false
;Enable Coasting:false
;Coasting Volumes:0.064
;Coasting Speed:0.9
;Raft AirGap:0.25
;Layer0 ZOverLap:0.13
;Adaptive Layers:0
;---------------------End of Head--------------------------
M140 S60
M105
M190 S60
M104 S190
M82 ;absolute extrusion mode
M220 S100 ;Reset Feedrate
M221 S100 ;Reset Flowrate

G28 ;Home

G92 E0 ;Reset Extruder
G1 Z2.0 F3000 ;Move Z Axis up
G1 X-2.1 Y20 Z0.28 F5000.0 ;Move to start position
M109 S190.000000
G1 X-2.1 Y145.0 Z0.28 F1500.0 E15 ;Draw the first line
G1 X-2.4 Y145.0 Z0.28 F5000.0 ;Move to side a little
G1 X-2.4 Y20 Z0.28 F1500.0 E30 ;Draw the second line
G92 E0  ;Reset Extruder
G1 E-1.0000 F1800 ;Retract a bit
G1 Z2.0 F3000 ;Move Z Axis up
G1 E0.0000 F1800 

G92 E0
G92 E0
G1 F1500 E-0.8
;LAYER_COUNT:25

;LAYER:0
M106 S0
M204 S500
;MESH:0_0
G0 F4800 X25.712 Y53.492 Z0.2
;TYPE:WALL-OUTER
G1 F1500 E0
G1 F1800 X26.053 Y53.343 E0.01401
G1 X26.39 Y53.257 E0.0271
G1 X26.767 Y53.223 E0.04135
G1 X27.196 Y53.26 E0.05756
G1 X27.523 Y53.349 E0.07032
G1 X27.883 Y53.51 E0.08517
G1 X28.215 Y53.741 E0.1004
G1 X28.493 Y54.014 E0.11506
G1 X28.716 Y54.328 E0.12956
G1 X28.88 Y54.666 E0.14371
G1 X28.987 Y55.034 E0.15814
G1 X29.03 Y55.414 E0.17253
G1 X29.008 Y55.789 E0.18667
G1 X28.92 Y56.168 E0.20132
G1 X28.768 Y56.528 E0.21603
G1 X28.59 Y56.811 E0.22862
G1 X28.321 Y57.117 E0.24396
G1 X28.032 Y57.345 E0.25782
G1 X27.693 Y57.532 E0.27239
G1 X27.337 Y57.656 E0.28658
G1 X26.954 Y57.72 E0.3012
G1 X26.56 Y57.716 E0.31604
G1 X26.191 Y57.649 E0.33016
G1 X25.841 Y57.522 E0.34417
G1 X25.519 Y57.34 E0.3581
G1 X25.224 Y57.102 E0.37237
G1 X24.964 Y56.807 E0.38717
G1 X24.774 Y56.499 E0.4008
G1 X24.628 Y56.141 E0.41535
G1 X24.542 Y55.732 E0.43108
G1 X24.529 Y55.391 E0.44393
G1 X24.577 Y55.003 E0.45865
G1 X24.685 Y54.645 E0.47273
G1 X24.857 Y54.3 E0.48724
G1 X25.104 Y53.969 E0.50279
G1 X25.353 Y53.731 E0.51576
G1 X25.712 Y53.492 E0.53199
G0 F4800 X25.895 Y53.412
G0 X25.463 Y53.079
;TYPE:WALL-INNER
G1 F1800 X25.87 Y52.897 E0.55034
G1 X26.332 Y52.779 E0.56997
G1 X26.789 Y52.741 E0.58884
G1 X27.259 Y52.781 E0.60826
G1 X27.704 Y52.902 E0.62724
G1 X28.14 Y53.101 E0.64697
G1 X28.509 Y53.359 E0.6655
G1 X28.84 Y53.678 E0.68442
G1 X29.121 Y54.066 E0.70414
G1 X29.322 Y54.473 E0.72282
G1 X29.456 Y54.917 E0.74191
G1 X29.511 Y55.376 E0.76094
G1 X29.488 Y55.835 E0.77985
G1 X29.386 Y56.293 E0.79917
G1 X29.204 Y56.735 E0.81884
G1 X28.96 Y57.117 E0.8375
G1 X28.637 Y57.476 E0.85737
G1 X28.262 Y57.766 E0.87689
G1 X27.914 Y57.957 E0.89322
G1 X27.49 Y58.11 E0.91178
G1 X26.992 Y58.199 E0.9326
G1 X26.558 Y58.196 E0.95046
G1 X26.094 Y58.118 E0.96983
G1 X25.645 Y57.962 E0.98939
G1 X25.282 Y57.755 E1.00659
G1 X25.233 Y57.724 E1.00898
G1 X24.878 Y57.433 E1.02787
G1 X24.579 Y57.091 E1.04657
G1 X24.337 Y56.702 E1.06543
G1 X24.162 Y56.262 E1.08492
G1 X24.065 Y55.804 E1.10419
G1 X24.053 Y55.32 E1.12411
G1 X24.105 Y54.925 E1.14051
G1 X24.244 Y54.451 E1.16084
G1 X24.459 Y54.028 E1.18037
G1 X24.731 Y53.664 E1.19908
G1 X25.07 Y53.341 E1.21835
G1 X25.463 Y53.079 E1.23779
;;retract;;
G1 F1500 E0.67779
G1 F2400 X26.332 Y52.779 E0.57302
G1 X26.789 Y52.741 E0.52081
G1 X27.259 Y52.781 E0.46712
G1 X27.405 Y52.82 E0.44979
G1 F1500 E0.43779
G0 F4800 X25.38 Y52.962
G0 X24.675 Y53.525
G0 X24.33 Y53.974
G0 X24.089 Y54.482
G0 X23.911 Y55.323
G0 X23.924 Y55.812
G0 X24.033 Y56.321
G0 X24.259 Y56.775
G0 X24.777 Y57.648
G0 X14.906 Y91.572
G0 X14.575 Y91.896
G0 X14.003 Y92.561
G1 F1500 E1.23779
G0 F4800 X14.525 Y92.904
;TYPE:WALL-OUTER
G1 F1800 X14.753 Y92.604 E1.25197
G1 X15.033 Y92.342 E1.26641
G1 X15.306 Y92.155 E1.27887
G1 X15.7 Y91.98 E1.2951
G1 X16.056 Y91.89 E1.30892
G1 X16.434 Y91.859 E1.3232
G1 X16.843 Y91.897 E1.33867
G1 X17.195 Y91.994 E1.35241
G1 X17.524 Y92.145 E1.36604
G1 X17.852 Y92.367 E1.38095
G1 X18.133 Y92.641 E1.39573
G1 X18.357 Y92.95 E1.41009
G1 X18.523 Y93.29 E1.42434
G1 X18.631 Y93.65 E1.43849
G1 X18.677 Y94.031 E1.45294
G1 X18.655 Y94.426 E1.46783
G1 X18.579 Y94.767 E1.48098
G1 X18.434 Y95.13 E1.4957
G1 X18.238 Y95.448 E1.50976
G1 X17.959 Y95.762 E1.52557
G1 X17.687 Y95.976 E1.5386
G1 X17.328 Y96.173 E1.55402
G1 X16.968 Y96.296 E1.56834
G1 X16.626 Y96.354 E1.5814
G1 X16.217 Y96.354 E1.5968
G1 X15.843 Y96.287 E1.6111
G1 X15.469 Y96.15 E1.6261
G1 X15.134 Y95.955 E1.64069
G1 X14.871 Y95.739 E1.6535
G1 X14.601 Y95.428 E1.66901
G1 X14.404 Y95.101 E1.68338
G1 X14.265 Y94.741 E1.69791
G1 X14.19 Y94.369 E1.7122
G1 X14.179 Y93.989 E1.72651
G1 X14.231 Y93.609 E1.74095
G1 X14.333 Y93.281 E1.75388
G1 X14.525 Y92.904 E1.76981
G0 F4800 X14.646 Y92.745
G0 X14.104 Y92.668
;TYPE:WALL-INNER
G1 F1800 X14.38 Y92.298 E1.7888
G1 X14.717 Y91.979 E1.8079
G1 X15.092 Y91.726 E1.82652
G1 X15.526 Y91.533 E1.84607
G1 X15.978 Y91.418 E1.86527
G1 X16.435 Y91.378 E1.88415
G1 X16.887 Y91.418 E1.90283
G1 X17.336 Y91.536 E1.92194
G1 X17.777 Y91.738 E1.9419
G1 X18.154 Y91.995 E1.96068
G1 X18.493 Y92.325 E1.98015
G1 X18.75 Y92.675 E1.99803
G1 X18.972 Y93.124 E2.01864
G1 X19.099 Y93.55 E2.03694
G1 X19.158 Y94.012 E2.05611
G1 X19.135 Y94.472 E2.07507
G1 X19.033 Y94.93 E2.09438
G1 X18.854 Y95.368 E2.11385
G1 X18.613 Y95.751 E2.13248
G1 X18.304 Y96.099 E2.15163
G1 X17.94 Y96.386 E2.17071
G1 X17.541 Y96.606 E2.18947
G1 X17.105 Y96.758 E2.20847
G1 X16.643 Y96.837 E2.22776
G1 X16.175 Y96.831 E2.24703
G1 X15.715 Y96.751 E2.26624
G1 X15.289 Y96.598 E2.28487
G1 X14.879 Y96.363 E2.30433
G1 X14.52 Y96.069 E2.32342
G1 X14.225 Y95.729 E2.34195
G1 X13.981 Y95.333 E2.3611
G1 X13.811 Y94.904 E2.38009
G1 X13.714 Y94.445 E2.3994
G1 X13.697 Y93.985 E2.41835
G1 X13.756 Y93.525 E2.43743
G1 X13.895 Y93.08 E2.45662
G1 X14.104 Y92.668 E2.47564
;;retract;;
G1 F1500 E1.91564
G1 F2400 X14.717 Y91.979 E1.81053
G1 X15.092 Y91.726 E1.759
G1 X15.526 Y91.533 E1.70497
G1 X15.673 Y91.496 E1.68764
G1 F1500 E1.67564
G0 F4800 X13.985 Y92.59
G0 X14.385 Y92.103
G0 X15.043 Y91.592
G0 X15.922 Y91.28
G0 X16.472 Y91.241
G0 X17.015 Y91.304
G0 X17.832 Y91.606
G0 X18.24 Y91.881
G0 X18.648 Y92.3
G0 X19.094 Y93.046
G0 X19.237 Y93.514
G0 X19.268 Y94.92
G0 X53.129 Y103.87
G0 X53.826 Y104.659
G0 X54.149 Y104.879
G0 X54.744 Y105.182
G1 F1500 E2.47564
G0 F4800 X54.958 Y104.593
;TYPE:WALL-OUTER
G1 F1800 X54.707 Y104.503 E2.48568
G1 X54.427 Y104.347 E2.49774
G1 X54.152 Y104.123 E2.5111
G1 X53.952 Y103.889 E2.52268
G1 X53.805 Y103.65 E2.53325
G1 X53.677 Y103.324 E2.54643
G1 X53.615 Y103.018 E2.55819
G1 X53.607 Y102.705 E2.56997
G1 X53.651 Y102.388 E2.58202
G1 X53.74 Y102.106 E2.59316
G1 X53.872 Y101.846 E2.60413
G1 X54.063 Y101.587 E2.61625
G1 X54.29 Y101.369 E2.6281
G1 X54.527 Y101.204 E2.63897
G1 X54.831 Y101.065 E2.65155
G1 X55.131 Y100.986 E2.66323
G1 X55.452 Y100.957 E2.67537
G1 X55.782 Y100.985 E2.68783
G1 X56.099 Y101.072 E2.70021
G1 X56.377 Y101.203 E2.71178
G1 X56.637 Y101.382 E2.72366
G1 X56.849 Y101.589 E2.73482
G1 X57.041 Y101.853 E2.74711
G1 X57.18 Y102.135 E2.75894
G1 X57.27 Y102.444 E2.77106
G1 X57.306 Y102.736 E2.78214
G1 X57.287 Y103.07 E2.79473
G1 X57.227 Y103.34 E2.80514
G1 X57.108 Y103.639 E2.81726
G1 X56.927 Y103.93 E2.83016
G1 X56.713 Y104.169 E2.84224
G1 X56.468 Y104.358 E2.85389
G1 X56.23 Y104.491 E2.86415
G1 X55.892 Y104.608 E2.87762
G1 X55.622 Y104.653 E2.88792
G1 X55.305 Y104.654 E2.89986
G1 X54.958 Y104.593 E2.91312
G0 F4800 X54.77 Y104.526
G0 X54.856 Y105.064
;TYPE:WALL-INNER
G1 F1800 X54.485 Y104.931 E2.92934
G1 X54.141 Y104.735 E2.94564
G1 X53.83 Y104.482 E2.96214
G1 X53.576 Y104.19 E2.97807
G1 X53.363 Y103.844 E2.99479
G1 X53.222 Y103.483 E3.01074
G1 X53.139 Y103.098 E3.02695
G1 X53.125 Y102.7 E3.04334
G1 X53.176 Y102.306 E3.0597
G1 X53.298 Y101.924 E3.0762
G1 X53.473 Y101.575 E3.09227
G1 X53.698 Y101.277 E3.10764
G1 X53.977 Y101.007 E3.12362
G1 X54.301 Y100.782 E3.13986
G1 X54.654 Y100.621 E3.15583
G1 X55.073 Y100.507 E3.1737
G1 X55.498 Y100.479 E3.19123
G1 X55.87 Y100.514 E3.20661
G1 X56.222 Y100.608 E3.2216
G1 X56.577 Y100.767 E3.23761
G1 X56.905 Y100.983 E3.25378
G1 X57.213 Y101.278 E3.27133
G1 X57.437 Y101.582 E3.28687
G1 X57.631 Y101.974 E3.30488
G1 X57.73 Y102.303 E3.31902
G1 X57.784 Y102.716 E3.33616
G1 X57.765 Y103.113 E3.35252
G1 X57.682 Y103.498 E3.36873
G1 X57.528 Y103.876 E3.38553
G1 X57.327 Y104.2 E3.40122
G1 X57.061 Y104.504 E3.41785
G1 X56.754 Y104.745 E3.43391
G1 X56.404 Y104.941 E3.45043
G1 X56.031 Y105.07 E3.46667
G1 X55.638 Y105.135 E3.48307
G1 X55.302 Y105.133 E3.4969
G1 X55.183 Y105.122 E3.50181
G1 X54.856 Y105.064 E3.51548
;;retract;;
G1 F1500 E2.95548
G1 F2400 X54.141 Y104.735 E2.86577
G1 X53.83 Y104.482 E2.82017
G1 X53.576 Y104.19 E2.77605
G1 X53.363 Y103.844 E2.72976
G1 X53.356 Y103.826 E2.72748
G1 F1500 E2.71548
G0 F4800 X54.813 Y105.203
G0 X55.651 Y105.274
G0 X56.129 Y105.152
G0 X56.936 Y104.892
G0 X55.741 Y109.356
G0 X88.727 Y117.752
G1 F1500 E3.51548
G0 F4800 X89.307 Y118.06
;TYPE:WALL-OUTER
G1 F1800 X89.169 Y118.213 E3.52324
G1 X89.09 Y118.499 E3.53441
G1 X2.64 Y95.334 E6.90382
G1 X15.452 Y47.522 E8.76731
G1 X102.711 Y70.905 E12.16827
G1 X108.339 Y68.356 E12.40087
G1 X114.191 Y66.85 E12.62836
G1 X120.347 Y66.369 E12.86082
G1 X120.511 Y66.181 E12.87021
G1 X120.447 Y65.985 E12.87797
G1 X120.24 Y65.774 E12.8891
G1 X183.525 Y2.49 E16.25844
G1 X218.523 Y37.488 E18.12177
G1 X154.642 Y101.378 E21.5231
G1 X154.448 Y103.35 E21.5977
G1 X154.04 Y107.511 E21.7551
G1 X152.417 Y113.336 E21.98275
G1 X149.762 Y118.885 E22.21434
G1 X149.837 Y119.143 E22.22445
G1 X150.038 Y119.186 E22.23219
G1 X150.325 Y119.111 E22.24336
G1 X173.491 Y205.561 E25.61278
G1 X125.679 Y218.373 E27.47627
G1 X102.29 Y131.101 E30.87776
G1 X97.28 Y127.516 E31.10968
G1 X93.046 Y123.195 E31.33744
G1 X89.565 Y118.121 E31.56909
G1 X89.307 Y118.06 E31.57907
G0 F4800 X89.174 Y118.208
G0 X89.13 Y117.616
;TYPE:WALL-INNER
G1 F1800 X88.841 Y117.937 E31.59685
G1 X3.226 Y94.995 E35.24504
G1 X15.791 Y48.108 E37.24297
G1 X102.623 Y71.376 E40.94302
G1 X102.912 Y71.336 E40.95503
G1 X108.499 Y68.809 E41.20741
G1 X114.27 Y67.324 E41.45268
G1 X120.505 Y66.842 E41.71008
G1 X120.865 Y66.552 E41.7291
G1 X120.984 Y66.252 E41.74239
G1 X120.851 Y65.84 E41.76021
G1 X183.525 Y3.166 E45.40835
G1 X217.847 Y37.488 E47.40617
G1 X154.285 Y101.056 E51.10617
G1 X154.168 Y101.312 E51.11776
G1 X153.972 Y103.304 E51.20014
G1 X153.568 Y107.423 E51.37049
G1 X151.967 Y113.167 E51.61592
G1 X149.311 Y118.726 E51.8695
G1 X149.272 Y119.004 E51.88106
G1 X149.329 Y119.244 E51.89121
G1 X149.54 Y119.519 E51.90548
G1 X149.963 Y119.608 E51.92327
G1 X172.905 Y205.222 E55.57142
G1 X126.018 Y217.787 E57.56936
G1 X102.733 Y130.909 E61.27141
G1 X102.517 Y130.674 E61.28455
G1 X97.592 Y127.151 E61.53378
G1 X93.417 Y122.89 E61.77932
G1 X89.941 Y117.821 E62.0323
G1 X89.572 Y117.553 E62.05107
G1 X89.13 Y117.616 E62.06944
;;retract;;
G1 F1500 E61.50944
G1 F2400 X87.196 Y117.107 E61.28144
G1 F1500 E61.26944
G0 F4800 X89.024 Y117.55
G0 X89.987 Y117.526
G0 X91.015 Y114.833
G0 X91.91 Y114.488
G0 X92.569 Y114.023
G1 F1500 E62.06944
G0 F4800 X92.097 Y113.612
;TYPE:WALL-OUTER
G1 F1800 X91.82 Y113.831 E62.08274
G1 X91.546 Y113.979 E62.09446
G1 X91.251 Y114.08 E62.1062
G1 X90.935 Y114.129 E62.11824
G1 X90.62 Y114.124 E62.1301
G1 X90.311 Y114.066 E62.14194
G1 X90.06 Y113.976 E62.15197
G1 X89.764 Y113.811 E62.16473
G1 X89.5 Y113.593 E62.17762
G1 X89.308 Y113.367 E62.18879
G1 X89.158 Y113.123 E62.19957
G1 X89.03 Y112.797 E62.21275
G1 X88.968 Y112.491 E62.22451
G1 X88.96 Y112.178 E62.23629
G1 X89.004 Y111.861 E62.24834
G1 X89.093 Y111.579 E62.25948
G1 X89.225 Y111.319 E62.27045
G1 X89.416 Y111.06 E62.28257
G1 X89.65 Y110.836 E62.29476
G1 X89.909 Y110.66 E62.30655
G1 X90.205 Y110.53 E62.31872
G1 X90.506 Y110.455 E62.3304
G1 X90.805 Y110.43 E62.3417
G1 X91.136 Y110.458 E62.3542
G1 X91.442 Y110.542 E62.36615
G1 X91.73 Y110.676 E62.37811
G1 X91.99 Y110.855 E62.38999
G1 X92.202 Y111.063 E62.40117
G1 X92.389 Y111.317 E62.41305
G1 X92.533 Y111.607 E62.42524
G1 X92.62 Y111.896 E62.4366
G1 X92.659 Y112.207 E62.4484
G1 X92.643 Y112.527 E62.46046
G1 X92.576 Y112.833 E62.47225
G1 X92.453 Y113.13 E62.48436
G1 X92.292 Y113.388 E62.49581
G1 X92.097 Y113.612 E62.50699
G0 F4800 X91.941 Y113.736
G0 X92.416 Y113.974
;TYPE:WALL-INNER
G1 F1800 X92.102 Y114.222 E62.52346
G1 X91.763 Y114.41 E62.53941
G1 X91.384 Y114.543 E62.55594
G1 X90.992 Y114.608 E62.5723
G1 X90.596 Y114.606 E62.5886
G1 X90.205 Y114.536 E62.60495
G1 X89.841 Y114.402 E62.62091
G1 X89.496 Y114.207 E62.63722
G1 X89.181 Y113.955 E62.65383
G1 X88.932 Y113.668 E62.66946
G1 X88.717 Y113.318 E62.68637
G1 X88.574 Y112.951 E62.70258
G1 X88.492 Y112.572 E62.71854
G1 X88.478 Y112.173 E62.73498
G1 X88.529 Y111.779 E62.75133
G1 X88.651 Y111.397 E62.76783
G1 X88.826 Y111.048 E62.7839
G1 X89.051 Y110.75 E62.79927
G1 X89.329 Y110.481 E62.81519
G1 X89.676 Y110.241 E62.83256
G1 X90.022 Y110.087 E62.84815
