;FLAVOR:Marlin
;TIME:8235.94
;Filament used:13.6941m
;Layer height:0.2
;MINX:2.205
;MINY:1.93
;MINZ:0.2
;MAXX:218.144
;MAXY:217.869
;MAXZ:7
;OuterWall Time:623.142
;InnerWall Time:514.151
;Skin Time:6018.97
;Support Time:0
;SkirtBrim Time:0
;Infill Time:433.624
;Support Infills Time:0
;Combing Time:270.402
;Retraction Time:375.646
;PrimeTower Time:0

;
;
;;;;;;;;;;;;;;;;;;;;;;;;;;;;;;;;;;;;;;;;;;;;;;;;;;;;;;;;;;;;;;;;;;;;;;;;;;;
;Creality Print GCode Generated by CXEngine
;CRSLICE_GIT_HASH:d90fa71
;Creality Print Version : V4.3.8.6674
;CXEngine Release Time:2023-10-16 18:06:53
;Gcode Generated Time:2024-12-19 03:04:03
;----------Machine Config--------------
;Machine Name:Ender-3 V3 SE
;Machine Height:250
;Machine Width:220
;Machine Depth:220
;Material Type:PLA
;Material Name:CR-PLA_1.75
;Number of Extruders:1
;ExtruderParams[0] Nozzle Diameter:1000
;----------Profile Config---------------
;Wall Thickness:0.8
;Top/Bottom Thickness:0.8
;Out Wall Line Width:0.42
;Inner Wall Line Width:0.45
;Inital Height:200
;Wall Line Count:2
;Infill Line Distance:8
;Infill Pattern:grid
;Infill Sparse Density:10
;Infill Wipe Distance:0
;Print Temperature:190
;Bed Temperature:60
;Support Enable:false
;Support Density:15
;Support Angle:60
;Adhesion Type:autobrim
;machine is belt:false
;machine belt offset:10
;machine belt offset Y:0
;Raft Base Line Spacing:1.6
;Wait Heatup Sync:true
;Enable Ironing:false
;Material Type:PLA
;Max volumetric speed:20
;Material Diameter:1.75
;Material Density:1.24
;Filament Cost:20
;Filament Weight:1000
;Preview Img Type:png
;Screen Size:Sermoon D3
;----------Shell Config----------------
;Outer Wall Wipe Distance:200
;Outer Inset First:false
;Infill Before Walls:false
;Infill Overlap:0.04
;Fill Gaps Between Walls:everywhere
;Minimum Infill Area:15
;Top Surface Skin Layer:0
;Top Layers:4
;Z Seam Alignment:sharpest_corner
;Seam Corner Preference:z_seam_corner_inner
;Z Seam X:110
;Z Seam Y:220
;Horizontal Expansion:0
;Top/Bottom Pattern:zigzag
;Ironing Pattern:zigzag
;Vase Model:false
;----------Support Config----------------
;Support Type:everywhere
;Support Pattern:zigzag
;Support Infill Layer Thickness:0.15
;Minimum Support Area:1
;Enable Support Roof:true
;Support Roof Thickness:0.8
;Support Roof Pattern:lines
;Connect Support Lines:0
;Connect Support ZigZags:1
;Minimum Support X/Y Distance:0.2
;Support Line Distance:2.67
; ---------PrintSpeed & Travel----------
;Enable Print Cool:true
;Avoid Printed Parts Traveling:true
;Enable Retraction:true
;Retraction Distance:0.8
;Retraction Speed:25
;Retraction Prime Speed:25
;Maximum Retraction Count:100
;Minimum Extrusion Distance Window:0.8
;Z Hop When Retracted:false
;Z Hop Height:0.2
;Retract Before Outer Wall:true

;Outer Wall Speed:60
;Inner Wall Speed:90
;Infill Speed:180
;Top/Bottom Speed:50
;Travel Speed:150
;Initial Layer Speed:30
;Skirt/Brim Speed:25
;Prime Tower Speed:60
;Outer Wall Acceleration:1000
;Inner Wall Acceleration:2000
;Infill Acceleration:2500
;Top/Bottom Acceleration:2500
;Travel Acceleration:2500
;Initial Layer Print Acceleration:500
;Initial Layer Travel Acceleration:500
;Skirt/Brim Acceleration:500
;Combing Mode:no_outer_surfaces
; --------SpecialModel&Mesh Fixes--------
;Union Overlapping Volum:true
;Remove All Holes:false
;Maximum Travel Resolution:0.25
;Maximum Deviation:0.05
;Maximum Model Angle:0.872665
;IS Mold Print:false
;Make Overhang Printable:false
;Enable Coasting:false
;Coasting Volumes:0.064
;Coasting Speed:0.9
;Raft AirGap:0.25
;Layer0 ZOverLap:0.13
;Adaptive Layers:0
;---------------------End of Head--------------------------
M140 S60
M105
M190 S60
M104 S190
M82 ;absolute extrusion mode
M220 S100 ;Reset Feedrate
M221 S100 ;Reset Flowrate

G28 ;Home

G92 E0 ;Reset Extruder
G1 Z2.0 F3000 ;Move Z Axis up
G1 X-2.1 Y20 Z0.28 F5000.0 ;Move to start position
M109 S190.000000
G1 X-2.1 Y145.0 Z0.28 F1500.0 E15 ;Draw the first line
G1 X-2.4 Y145.0 Z0.28 F5000.0 ;Move to side a little
G1 X-2.4 Y20 Z0.28 F1500.0 E30 ;Draw the second line
G92 E0  ;Reset Extruder
G1 E-1.0000 F1800 ;Retract a bit
G1 Z2.0 F3000 ;Move Z Axis up
G1 E0.0000 F1800 

G92 E0
G92 E0
G1 F1500 E-0.8
;LAYER_COUNT:35

;LAYER:0
M106 S0
M204 S500
;MESH:0_0
G0 F4800 X18.825 Y52.913 Z0.2
;TYPE:WALL-OUTER
G1 F1500 E0
G1 F1800 X19.2 Y53.051 E0.01504
G1 X19.534 Y53.245 E0.02958
G1 X19.797 Y53.461 E0.0424
G1 X20.065 Y53.767 E0.05771
G1 X20.247 Y54.061 E0.07073
G1 X20.392 Y54.419 E0.08527
G1 X20.474 Y54.79 E0.09957
G1 X20.492 Y55.172 E0.11397
G1 X20.438 Y55.589 E0.1298
G1 X20.327 Y55.94 E0.14366
G1 X20.154 Y56.282 E0.15809
G1 X19.942 Y56.566 E0.17143
G1 X19.654 Y56.845 E0.18653
G1 X19.329 Y57.061 E0.20122
G1 X18.991 Y57.213 E0.21517
G1 X18.613 Y57.31 E0.22986
G1 X18.236 Y57.341 E0.2441
G1 X17.825 Y57.303 E0.25964
G1 X17.499 Y57.214 E0.27236
G1 X17.122 Y57.041 E0.28798
G1 X16.802 Y56.821 E0.3026
G1 X16.53 Y56.552 E0.317
G1 X16.325 Y56.269 E0.33016
G1 X16.142 Y55.898 E0.34573
G1 X16.042 Y55.565 E0.35882
G1 X15.992 Y55.15 E0.37456
G1 X16.009 Y54.801 E0.38771
G1 X16.092 Y54.423 E0.40228
G1 X16.235 Y54.07 E0.41662
G1 X16.426 Y53.757 E0.43042
G1 X16.682 Y53.465 E0.44504
G1 X17.012 Y53.204 E0.46088
G1 X17.304 Y53.043 E0.47344
G1 X17.677 Y52.909 E0.48836
G1 X18.049 Y52.846 E0.50256
G1 X18.446 Y52.846 E0.51751
G1 X18.825 Y52.913 E0.532
G0 F4800 X19.012 Y52.982
G0 X18.945 Y52.447
;TYPE:WALL-INNER
G1 F1800 X19.384 Y52.604 E0.55119
G1 X19.787 Y52.835 E0.57031
G1 X20.146 Y53.13 E0.58943
G1 X20.439 Y53.464 E0.60772
G1 X20.688 Y53.867 E0.62722
G1 X20.837 Y54.243 E0.64386
G1 X20.871 Y54.356 E0.64872
G1 X20.955 Y54.75 E0.6653
G1 X20.972 Y55.216 E0.68449
G1 X20.913 Y55.672 E0.70342
G1 X20.77 Y56.121 E0.72281
G1 X20.56 Y56.541 E0.74214
G1 X20.272 Y56.915 E0.76157
G1 X19.93 Y57.236 E0.78088
G1 X19.552 Y57.485 E0.79951
G1 X19.164 Y57.659 E0.81701
G1 X18.697 Y57.784 E0.83691
G1 X18.237 Y57.82 E0.8559
G1 X17.761 Y57.782 E0.87555
G1 X17.319 Y57.661 E0.89441
G1 X16.902 Y57.47 E0.91329
G1 X16.516 Y57.21 E0.93245
G1 X16.177 Y56.881 E0.95189
G1 X15.903 Y56.503 E0.97111
G1 X15.699 Y56.088 E0.99014
G1 X15.565 Y55.643 E1.00927
G1 X15.511 Y55.187 E1.02817
G1 X15.532 Y54.759 E1.04581
G1 X15.63 Y54.299 E1.06516
G1 X15.813 Y53.837 E1.08562
G1 X16.05 Y53.456 E1.10409
G1 X16.367 Y53.1 E1.12371
G1 X16.732 Y52.812 E1.14284
G1 X17.128 Y52.594 E1.16145
G1 X17.549 Y52.448 E1.17979
G1 X18.025 Y52.364 E1.19968
G1 X18.489 Y52.369 E1.21878
G1 X18.945 Y52.447 E1.23782
;;retract;;
G1 F1500 E0.67782
G1 F2400 X19.787 Y52.835 E0.57215
G1 X20.146 Y53.13 E0.51925
G1 X20.439 Y53.464 E0.46863
G1 X20.525 Y53.604 E0.44982
G1 F1500 E0.43782
G0 F4800 X18.994 Y52.311
G0 X19.532 Y52.528
G0 X20.217 Y52.997
G0 X20.768 Y53.731
G0 X21.006 Y54.317
G0 X21.064 Y54.796
G0 X21.147 Y55.64
G0 X49.601 Y81.529
G0 X49.485 Y82.548
G1 F1500 E1.23782
G0 F4800 X50.11 Y82.548
;TYPE:WALL-OUTER
G1 F1800 X50.132 Y82.114 E1.25418
G1 X50.303 Y81.68 E1.27174
G1 X50.461 Y81.426 E1.28301
G1 X50.766 Y81.093 E1.30001
G1 X51.139 Y80.885 E1.31608
G1 X51.417 Y80.786 E1.32719
G1 X51.696 Y80.738 E1.33785
G1 X52.013 Y80.735 E1.34979
G1 X52.309 Y80.787 E1.3611
G1 X52.585 Y80.885 E1.37213
G1 X52.833 Y81.025 E1.38285
G1 X53.189 Y81.311 E1.40004
G1 X53.425 Y81.69 E1.41685
G1 X53.595 Y82.121 E1.43429
G1 X53.611 Y82.561 E1.45087
G1 X53.574 Y82.855 E1.46202
G1 X53.439 Y83.279 E1.47877
G1 X53.162 Y83.655 E1.49636
G1 X52.952 Y83.852 E1.5072
G1 X52.576 Y84.098 E1.52411
G1 X52.156 Y84.208 E1.54046
G1 X51.855 Y84.233 E1.55183
G1 X51.56 Y84.209 E1.56297
G1 X51.263 Y84.128 E1.57456
G1 X51 Y84.007 E1.58546
G1 X50.746 Y83.834 E1.59703
G1 X50.537 Y83.63 E1.60802
G1 X50.361 Y83.387 E1.61932
G1 X50.23 Y83.119 E1.63055
G1 X50.149 Y82.856 E1.64091
G1 X50.11 Y82.548 E1.6526
G0 F4800 X50.12 Y82.348
G0 X49.629 Y82.559
;TYPE:WALL-INNER
G1 F1800 X49.657 Y82.006 E1.67539
G1 X49.863 Y81.491 E1.69822
G1 X50.07 Y81.149 E1.71467
G1 X50.449 Y80.722 E1.73817
G1 X50.966 Y80.438 E1.76245
G1 X51.284 Y80.326 E1.77633
G1 X51.675 Y80.259 E1.79266
G1 X52.063 Y80.259 E1.80862
G1 X52.43 Y80.321 E1.82394
G1 X52.772 Y80.445 E1.83892
G1 X53.136 Y80.652 E1.85615
G1 X53.555 Y80.994 E1.87841
G1 X53.863 Y81.49 E1.90244
G1 X54.069 Y82.028 E1.92616
G1 X54.09 Y82.553 E1.94778
G1 X54.038 Y82.972 E1.96516
G1 X53.87 Y83.505 E1.98816
G1 X53.521 Y83.976 E2.01229
G1 X53.239 Y84.234 E2.02802
G1 X52.783 Y84.538 E2.05058
G1 X52.209 Y84.684 E2.07496
G1 X51.855 Y84.712 E2.08957
G1 X51.447 Y84.675 E2.10644
G1 X51.099 Y84.578 E2.1213
G1 X50.765 Y84.428 E2.13637
G1 X50.465 Y84.222 E2.15135
G1 X50.193 Y83.963 E2.16681
G1 X49.945 Y83.623 E2.18413
G1 X49.78 Y83.283 E2.19969
G1 X49.673 Y82.915 E2.21546
G1 X49.629 Y82.559 E2.23023
;;retract;;
G1 F1500 E1.67023
G1 F2400 X49.863 Y81.491 E1.54562
G1 X50.07 Y81.149 E1.50014
G1 X50.407 Y80.769 E1.44223
G1 F1500 E1.43023
G0 F4800 X49.485 Y82.559
G0 X49.557 Y81.877
G0 X49.732 Y81.425
G0 X49.972 Y81.046
G0 X50.466 Y80.55
G0 X51.237 Y80.193
G0 X52.072 Y80.117
G0 X52.88 Y80.335
G0 X53.488 Y80.748
G0 X53.765 Y81.121
G0 X54.28 Y81.959
G0 X101.078 Y71.275
G0 X101.719 Y71.355
G1 F1500 E2.23023
G0 F4800 X101.683 Y70.738
;TYPE:WALL-OUTER
G1 F1800 X107.267 Y68.066 E2.46328
G1 X113.089 Y66.443 E2.69082
G1 X119.229 Y65.837 E2.92309
G1 X183.115 Y1.96 E6.32421
G1 X218.114 Y36.959 E8.1876
G1 X154.829 Y100.243 E11.55694
G1 X154.618 Y100.035 E11.56809
G1 X154.439 Y99.97 E11.57526
G1 X154.228 Y100.16 E11.58595
G1 X153.753 Y106.293 E11.81753
G1 X152.248 Y112.145 E12.04501
G1 X149.698 Y117.772 E12.27759
G1 X164.084 Y171.457 E14.36998
G1 X173.081 Y205.031 E15.67854
G1 X125.27 Y217.843 E17.542
G1 X102.104 Y131.394 E20.91138
G1 X102.392 Y131.314 E20.92264
G1 X102.539 Y131.189 E20.9299
G1 X102.479 Y130.914 E20.9405
G1 X97.408 Y127.438 E21.17195
G1 X93.087 Y123.204 E21.3997
G1 X89.501 Y118.192 E21.63171
G1 X2.231 Y94.804 E25.03312
G1 X15.043 Y46.993 E26.89657
G1 X101.492 Y70.159 E30.26596
G1 X101.418 Y70.444 E30.27704
G1 X101.443 Y70.62 E30.28374
G1 X101.683 Y70.738 E30.2938
G0 F4800 X101.863 Y70.652
G0 X101.882 Y71.17
;TYPE:WALL-INNER
G1 F1800 X107.435 Y68.516 E30.54713
G1 X113.177 Y66.915 E30.79248
G1 X119.34 Y66.308 E31.04737
G1 X119.587 Y66.161 E31.0592
G1 X183.115 Y2.636 E34.75696
G1 X217.438 Y36.959 E36.75484
G1 X154.769 Y99.626 E40.40264
G1 X154.402 Y99.493 E40.4187
G1 X154.063 Y99.609 E40.43345
G1 X153.875 Y99.792 E40.44425
G1 X153.758 Y100.027 E40.45505
G1 X153.279 Y106.214 E40.71047
G1 X151.795 Y111.985 E40.95573
G1 X149.266 Y117.578 E41.20837
G1 X149.241 Y117.896 E41.2215
G1 X163.622 Y171.581 E43.50905
G1 X172.495 Y204.692 E44.91997
G1 X125.609 Y217.257 E46.91786
G1 X102.668 Y131.65 E50.56572
G1 X102.972 Y131.392 E50.58213
G1 X103.04 Y131.091 E50.59484
G1 X102.946 Y130.739 E50.60983
G1 X102.753 Y130.521 E50.62182
G1 X97.713 Y127.067 E50.8733
G1 X93.452 Y122.892 E51.11883
G1 X89.881 Y117.902 E51.37139
G1 X89.627 Y117.732 E51.38397
G1 X2.817 Y94.465 E55.08313
G1 X15.382 Y47.579 E57.08103
G1 X100.983 Y70.518 E60.72863
G1 X101.032 Y70.865 E60.74305
G1 X101.269 Y71.106 E60.75697
G1 X101.517 Y71.201 E60.7679
G1 X101.882 Y71.17 E60.78297
;;retract;;
G1 F1500 E60.22297
G1 F2400 X103.753 Y70.465 E59.99497
G1 F1500 E59.98297
G0 F4800 X101.949 Y71.302
G0 X107.341 Y68.272
G0 X113.134 Y66.657
G0 X119.239 Y66.06
G0 X135.417 Y49.939
G0 X139.013 Y51.836
G0 X139.011 Y53.532
G1 F1500 E60.78297
G0 F4800 X139.635 Y53.566
;TYPE:WALL-OUTER
G1 F1800 X139.719 Y51.871 E60.84686
G1 X140.108 Y50.131 E60.91399
G1 X140.757 Y48.55 E60.97833
G1 X141.674 Y47.077 E61.04365
G1 X142.854 Y45.757 E61.11031
G1 X144.186 Y44.699 E61.17435
G1 X145.743 Y43.844 E61.24122
G1 X147.386 Y43.279 E61.30663
G1 X149.106 Y43 E61.37223
G1 X150.802 Y43.012 E61.43608
G1 X152.515 Y43.315 E61.50157
G1 X154.168 Y43.908 E61.56768
G1 X155.698 Y44.782 E61.63402
G1 X157.033 Y45.876 E61.699
G1 X158.165 Y47.182 E61.76406
G1 X159.058 Y48.651 E61.82878
G1 X159.701 Y50.277 E61.89461
G1 X160.059 Y51.985 E61.96031
G1 X160.121 Y53.726 E62.02589
G1 X159.889 Y55.454 E62.09153
G1 X159.358 Y57.133 E62.15783
G1 X158.585 Y58.64 E62.22159
G1 X157.545 Y60.032 E62.28701
G1 X156.282 Y61.23 E62.35254
G1 X154.799 Y62.217 E62.41961
G1 X153.211 Y62.918 E62.48496
G1 X151.561 Y63.335 E62.54903
G1 X149.8 Y63.474 E62.61553
G1 X148.085 Y63.316 E62.68037
G1 X146.386 Y62.86 E62.74659
G1 X145.598 Y62.498 E62.77924
G1 X144.815 Y62.136 E62.81172
G1 X143.396 Y61.163 E62.87649
G1 X142.139 Y59.944 E62.94241
G1 X141.103 Y58.518 E63.00877
G1 X140.349 Y56.994 E63.07278
G1 X139.841 Y55.292 E63.13965
G1 X139.635 Y53.566 E63.20509
G0 F4800 X139.644 Y53.367
G0 X139.154 Y53.598
;TYPE:WALL-INNER
G1 F1800 X139.244 Y51.79 E63.2796
G1 X139.643 Y50.006 E63.35484
G1 X140.34 Y48.309 E63.43035
G1 X141.282 Y46.803 E63.50346
G1 X142.496 Y45.436 E63.57871
G1 X143.936 Y44.287 E63.65454
G1 X145.53 Y43.41 E63.72942
G1 X147.245 Y42.817 E63.80411
G1 X149.047 Y42.522 E63.87927
G1 X150.866 Y42.534 E63.95414
G1 X152.659 Y42.855 E64.02911
G1 X154.37 Y43.474 E64.104
G1 X155.955 Y44.377 E64.17908
G1 X157.369 Y45.532 E64.25423
G1 X158.554 Y46.899 E64.32869
G1 X159.5 Y48.459 E64.40378
G1 X160.167 Y50.157 E64.47887
G1 X160.537 Y51.952 E64.5543
G1 X160.599 Y53.746 E64.62819
G1 X160.359 Y55.556 E64.70334
G1 X159.812 Y57.293 E64.77829
G1 X158.981 Y58.915 E64.85331
G1 X157.893 Y60.366 E64.92795
G1 X156.563 Y61.619 E65.00316
G1 X155.05 Y62.629 E65.07804
G1 X153.369 Y63.37 E65.15365
G1 X151.621 Y63.813 E65.22787
G1 X149.818 Y63.953 E65.30231
G1 X147.996 Y63.789 E65.3776
G1 X146.261 Y63.323 E65.45154
G1 X145.398 Y62.932 E65.49054
G1 X144.591 Y62.559 E65.52713
G1 X143.095 Y61.535 E65.60175
G1 X141.778 Y60.262 E65.67714
G1 X140.704 Y58.784 E65.75234
G1 X139.894 Y57.153 E65.82729
G1 X139.374 Y55.412 E65.90208
G1 X139.154 Y53.598 E65.97729
;;retract;;
G1 F1500 E65.41729
G1 F2400 X139.423 Y51.617 E65.18929
G1 F1500 E65.17729
G0 F4800 X139.013 Y53.597
G0 X139.257 Y55.51
G0 X139.769 Y57.218
G0 X140.615 Y58.902
G0 X141.657 Y60.337
G0 X143.052 Y61.676
G0 X144.519 Y62.68
G0 X146.272 Y63.471
G0 X147.944 Y63.924
G0 X149.483 Y64.059
G0 X151.125 Y64.081
G0 X155.984 Y68.806
G0 X155.981 Y70.559
G1 F1500 E65.97729
G0 F4800 X156.606 Y70.559
;TYPE:WALL-OUTER
G1 F1800 X156.69 Y68.841 E66.04204
G1 X157.073 Y67.115 E66.1086
G1 X157.728 Y65.521 E66.17348
G1 X158.661 Y64.027 E66.23979
G1 X159.81 Y62.74 E66.30475
G1 X161.157 Y61.669 E66.36953
G1 X162.703 Y60.818 E66.43597
G1 X164.34 Y60.253 E66.50117
G1 X166.054 Y59.972 E66.56655
G1 X167.799 Y59.985 E66.63225
G1 X169.503 Y60.288 E66.69741
G1 X171.146 Y60.883 E66.76319
G1 X172.653 Y61.74 E66.82846
G1 X173.998 Y62.841 E66.8939
G1 X175.133 Y64.148 E66.95906
G1 X176.029 Y65.622 E67.024
G1 X176.669 Y67.24 E67.08951
G1 X177.032 Y68.981 E67.15646
G1 X177.092 Y70.68 E67.22047
G1 X176.863 Y72.402 E67.28586
G1 X176.328 Y74.102 E67.35296
G1 X175.535 Y75.644 E67.41824
G1 X174.516 Y77.002 E67.48216
G1 X173.253 Y78.2 E67.54769
G1 X171.77 Y79.187 E67.61476
G1 X170.181 Y79.889 E67.68016
G1 X168.531 Y80.306 E67.74423
G1 X166.76 Y80.444 E67.8111
G1 X165.028 Y80.281 E67.87659
G1 X163.348 Y79.827 E67.94211
G1 X161.788 Y79.108 E68.00678
G1 X160.367 Y78.133 E68.07166
G1 X159.105 Y76.909 E68.13784
G1 X158.082 Y75.503 E68.2033
G1 X157.307 Y73.933 E68.26922
G1 X156.815 Y72.283 E68.33404
G1 X156.606 Y70.559 E68.39942
G0 F4800 X156.615 Y70.36
G0 X156.128 Y70.585
;TYPE:WALL-INNER
G1 F1800 X156.218 Y68.756 E68.47479
G1 X156.621 Y66.96 E68.55055
G1 X157.307 Y65.287 E68.62497
G1 X158.261 Y63.758 E68.69915
G1 X159.482 Y62.392 E68.77456
G1 X160.907 Y61.257 E68.84954
G1 X162.495 Y60.384 E68.92413
G1 X164.23 Y59.788 E68.99964
G1 X166.013 Y59.495 E69.07401
G1 X167.818 Y59.506 E69.1483
G1 X169.625 Y59.823 E69.22382
G1 X171.334 Y60.443 E69.29864
G1 X172.926 Y61.343 E69.37391
G1 X174.327 Y62.494 E69.44854
G1 X175.519 Y63.865 E69.52332
G1 X176.466 Y65.425 E69.59843
G1 X177.137 Y67.124 E69.67362
G1 X177.508 Y68.9 E69.7483
G1 X177.572 Y70.723 E69.82338
G1 X177.329 Y72.528 E69.89834
G1 X176.781 Y74.267 E69.97338
G1 X175.955 Y75.882 E70.04805
G1 X174.864 Y77.336 E70.12287
G1 X173.536 Y78.59 E70.19804
G1 X172.018 Y79.601 E70.27311
G1 X170.359 Y80.338 E70.34783
G1 X168.592 Y80.784 E70.42284
G1 X166.771 Y80.926 E70.49802
