;FLAVOR:Marlin
;TIME:11816.3
;Filament used:17.5283m
;Layer height:0.2
;MINX:62.619
;MINY:30.376
;MINZ:0.2
;MAXX:158.41
;MAXY:186.738
;MAXZ:120
;OuterWall Time:4069.17
;InnerWall Time:2738.18
;Skin Time:332.332
;Support Time:0
;SkirtBrim Time:131.658
;Infill Time:1070.78
;Support Infills Time:0
;Combing Time:1724.73
;Retraction Time:1749.48
;PrimeTower Time:0
;;;;;;;;;;;;;;;;;;;;;;;;;;;;;;;;;;;;;;;;;;;;;;;;;;;;;;;;;;;;;;;;;;;;;;;;;
;Creality Print GCode Generated by CXEngine
;CRSLICE_GIT_HASH:d90fa71
;Creality Print Version : V4.3.8.6674
;CXEngine Release Time:2023-10-16 18:06:53
;Gcode Generated Time:2024-12-18 03:10:01
;----------Machine Config--------------
;Machine Name:Ender-3 V3 SE
;Machine Height:250
;Machine Width:220
;Machine Depth:220
;Material Type:PLA
;Material Name:CR-PLA_1.75
;Number of Extruders:1
;ExtruderParams[0] Nozzle Diameter:1000
;----------Profile Config---------------
;Wall Thickness:0.8
;Top/Bottom Thickness:0.8
;Out Wall Line Width:0.42
;Inner Wall Line Width:0.45
;Inital Height:200
;Wall Line Count:2
;Infill Line Distance:8
;Infill Pattern:grid
;Infill Sparse Density:10
;Infill Wipe Distance:0
;Print Temperature:190
;Bed Temperature:60
;Support Enable:false
;Support Density:15
;Support Angle:60
;Adhesion Type:autobrim
;machine is belt:false
;machine belt offset:10
;machine belt offset Y:0
;Raft Base Line Spacing:1.6
;Wait Heatup Sync:true
;Enable Ironing:false
;Material Type:PLA
;Max volumetric speed:20
;Material Diameter:1.75
;Material Density:1.24
;Filament Cost:20
;Filament Weight:1000
;Preview Img Type:png
;Screen Size:Sermoon D3
;----------Shell Config----------------
;Outer Wall Wipe Distance:200
;Outer Inset First:false
;Infill Before Walls:false
;Infill Overlap:0.04
;Fill Gaps Between Walls:everywhere
;Minimum Infill Area:15
;Top Surface Skin Layer:0
;Top Layers:4
;Z Seam Alignment:sharpest_corner
;Seam Corner Preference:z_seam_corner_inner
;Z Seam X:110
;Z Seam Y:220
;Horizontal Expansion:0
;Top/Bottom Pattern:zigzag
;Ironing Pattern:zigzag
;Vase Model:false
;----------Support Config----------------
;Support Type:everywhere
;Support Pattern:zigzag
;Support Infill Layer Thickness:0.15
;Minimum Support Area:1
;Enable Support Roof:true
;Support Roof Thickness:0.8
;Support Roof Pattern:lines
;Connect Support Lines:0
;Connect Support ZigZags:1
;Minimum Support X/Y Distance:0.2
;Support Line Distance:2.67
; ---------PrintSpeed & Travel----------
;Enable Print Cool:true
;Avoid Printed Parts Traveling:true
;Enable Retraction:true
;Retraction Distance:0.8
;Retraction Speed:25
;Retraction Prime Speed:25
;Maximum Retraction Count:100
;Minimum Extrusion Distance Window:0.8
;Z Hop When Retracted:false
;Z Hop Height:0.2
;Retract Before Outer Wall:true

;Outer Wall Speed:60
;Inner Wall Speed:90
;Infill Speed:180
;Top/Bottom Speed:50
;Travel Speed:150
;Initial Layer Speed:30
;Skirt/Brim Speed:25
;Prime Tower Speed:60
;Outer Wall Acceleration:1000
;Inner Wall Acceleration:2000
;Infill Acceleration:2500
;Top/Bottom Acceleration:2500
;Travel Acceleration:2500
;Initial Layer Print Acceleration:500
;Initial Layer Travel Acceleration:500
;Skirt/Brim Acceleration:500
;Combing Mode:no_outer_surfaces
; --------SpecialModel&Mesh Fixes--------
;Union Overlapping Volum:true
;Remove All Holes:false
;Maximum Travel Resolution:0.25
;Maximum Deviation:0.05
;Maximum Model Angle:0.872665
;IS Mold Print:false
;Make Overhang Printable:false
;Enable Coasting:false
;Coasting Volumes:0.064
;Coasting Speed:0.9
;Raft AirGap:0.25
;Layer0 ZOverLap:0.13
;Adaptive Layers:0
;---------------------End of Head--------------------------
M140 S60
M105
M190 S60
M104 S190
M82 ;absolute extrusion mode
M220 S100 ;Reset Feedrate
M221 S100 ;Reset Flowrate

G28 ;Home

G92 E0 ;Reset Extruder
G1 Z2.0 F3000 ;Move Z Axis up
G1 X-2.1 Y20 Z0.28 F5000.0 ;Move to start position
M109 S190.000000
G1 X-2.1 Y145.0 Z0.28 F1500.0 E15 ;Draw the first line
G1 X-2.4 Y145.0 Z0.28 F5000.0 ;Move to side a little
G1 X-2.4 Y20 Z0.28 F1500.0 E30 ;Draw the second line
G92 E0  ;Reset Extruder
G1 E-1.0000 F1800 ;Retract a bit
G1 Z2.0 F3000 ;Move Z Axis up
G1 E0.0000 F1800 

G92 E0
G92 E0
G1 F1500 E-0.8
;LAYER_COUNT:600

;LAYER:0
M106 S0
M204 S500
G0 F4800 X63.433 Y32.089 Z0.2
;TYPE:SKIRT
G1 F1500 E0
G1 X63.239 Y32.496 E0.01732
G1 X63.121 Y32.93 E0.0346
G1 X63.081 Y33.379 E0.05191
G1 X63.081 Y123.35 E3.50819
G1 X63.132 Y123.856 E3.52773
G1 X63.26 Y124.287 E3.545
G1 X63.463 Y124.69 E3.56233
G1 X63.733 Y125.05 E3.57962
G1 X66.559 Y128.19 E3.74191
G1 X68.892 Y131.548 E3.89898
G1 X70.776 Y135.155 E4.05531
G1 X72.252 Y139.126 E4.21805
G1 X72.422 Y139.492 E4.23356
G1 X72.678 Y139.863 E4.25087
G1 X72.995 Y140.183 E4.26818
G1 X73.363 Y140.442 E4.28546
G1 X152.173 Y185.943 E7.78135
G1 X152.519 Y186.108 E7.79607
G1 X152.951 Y186.235 E7.81337
G1 X153.399 Y186.283 E7.83068
G1 X153.848 Y186.251 E7.84797
G1 X154.285 Y186.14 E7.86529
G1 X154.695 Y185.954 E7.88259
G1 X155.066 Y185.698 E7.8999
G1 X155.386 Y185.381 E7.91721
G1 X155.645 Y185.013 E7.93449
G1 X157.615 Y181.601 E8.08584
G1 X157.78 Y181.255 E8.10057
G1 X157.907 Y180.823 E8.11787
G1 X157.955 Y180.375 E8.13518
G1 X157.923 Y179.926 E8.15247
G1 X157.812 Y179.489 E8.16979
G1 X157.626 Y179.079 E8.18709
G1 X157.37 Y178.708 E8.2044
G1 X157.053 Y178.388 E8.2217
G1 X156.685 Y178.129 E8.23899
G1 X78.571 Y133.029 E11.70402
G1 X77.067 Y129.693 E11.84459
G1 X76.927 Y129.427 E11.85614
G1 X74.624 Y125.598 E12.02779
G1 X74.456 Y125.352 E12.03923
G1 X72.244 Y122.497 E12.17798
G1 X72.244 Y33.379 E15.60148
G1 X72.215 Y32.997 E15.6162
G1 X72.108 Y32.56 E15.63348
G1 X71.926 Y32.148 E15.65079
G1 X71.673 Y31.775 E15.6681
G1 X71.359 Y31.452 E15.68541
G1 X70.993 Y31.19 E15.7027
G1 X70.586 Y30.996 E15.72002
G1 X70.152 Y30.878 E15.7373
G1 X69.703 Y30.838 E15.75461
G1 X65.622 Y30.838 E15.91139
G1 X65.24 Y30.867 E15.9261
G1 X64.803 Y30.974 E15.94339
G1 X64.391 Y31.156 E15.96069
G1 X64.018 Y31.409 E15.978
G1 X63.695 Y31.723 E15.99531
G1 X63.433 Y32.089 E16.0126
G0 F4800 X63.893 Y32.225
G1 F1500 X63.701 Y32.584 E16.02824
G1 X63.583 Y32.974 E16.04389
G1 X63.543 Y33.379 E16.05953
G1 X63.543 Y123.35 E19.5158
G1 X63.565 Y123.649 E19.52732
G1 X63.662 Y124.044 E19.54294
G1 X63.835 Y124.413 E19.5586
G1 X64.077 Y124.741 E19.57426
G1 X66.923 Y127.904 E19.73771
G1 X69.283 Y131.3 E19.89658
G1 X71.2 Y134.969 E20.05561
G1 X72.74 Y139.112 E20.2254
G1 X72.985 Y139.507 E20.24326
G1 X73.263 Y139.804 E20.25888
G1 X73.594 Y140.041 E20.27452
G1 X152.404 Y185.542 E23.77041
G1 X152.777 Y185.711 E23.78614
G1 X153.174 Y185.803 E23.80179
G1 X153.581 Y185.816 E23.81743
G1 X153.983 Y185.75 E23.83308
G1 X154.364 Y185.606 E23.84873
G1 X154.71 Y185.391 E23.86438
G1 X155.007 Y185.113 E23.88001
G1 X155.244 Y184.782 E23.89565
G1 X157.214 Y181.37 E24.047
G1 X157.383 Y180.997 E24.06273
G1 X157.475 Y180.6 E24.07839
G1 X157.488 Y180.193 E24.09403
G1 X157.422 Y179.791 E24.10968
G1 X157.278 Y179.41 E24.12532
G1 X157.063 Y179.064 E24.14097
G1 X156.785 Y178.767 E24.1566
G1 X156.454 Y178.53 E24.17224
G1 X78.21 Y133.355 E27.64303
G1 X76.591 Y129.763 E27.79439
G1 X74.168 Y125.734 E27.975
G1 X71.782 Y122.654 E28.12467
G1 X71.782 Y33.379 E31.55421
G1 X71.742 Y32.972 E31.56992
G1 X71.623 Y32.582 E31.58558
G1 X71.431 Y32.223 E31.60122
G1 X71.172 Y31.908 E31.61689
G1 X70.857 Y31.65 E31.63253
G1 X70.498 Y31.458 E31.64817
G1 X70.108 Y31.34 E31.66382
G1 X69.703 Y31.3 E31.67945
G1 X65.622 Y31.3 E31.83623
G1 X65.215 Y31.34 E31.85194
G1 X64.825 Y31.459 E31.8676
G1 X64.466 Y31.651 E31.88324
G1 X64.151 Y31.91 E31.89891
G1 X63.893 Y32.225 E31.91455
G0 F4800 X64.352 Y32.378
G1 F1500 X64.163 Y32.683 E31.92833
G1 X64.045 Y33.022 E31.94212
G1 X64.005 Y33.379 E31.95592
G1 X64.005 Y123.35 E35.4122
G1 X64.071 Y123.809 E35.43001
G1 X64.211 Y124.14 E35.44382
G1 X64.42 Y124.432 E35.45761
G1 X67.284 Y127.614 E35.62207
G1 X69.684 Y131.069 E35.78368
G1 X71.622 Y134.777 E35.94441
G1 X73.118 Y138.804 E36.10943
G1 X73.301 Y139.157 E36.12471
G1 X73.536 Y139.428 E36.13849
G1 X73.825 Y139.641 E36.15228
G1 X152.635 Y185.142 E39.64816
G1 X152.985 Y185.292 E39.66279
G1 X153.338 Y185.356 E39.67657
G1 X153.697 Y185.339 E39.69038
G1 X154.043 Y185.244 E39.70416
G1 X154.36 Y185.075 E39.71796
G1 X154.631 Y184.84 E39.73174
G1 X154.844 Y184.551 E39.74553
G1 X156.814 Y181.139 E39.89689
G1 X156.964 Y180.789 E39.91151
G1 X157.028 Y180.436 E39.9253
G1 X157.011 Y180.077 E39.9391
G1 X156.916 Y179.731 E39.95289
G1 X156.747 Y179.414 E39.96669
G1 X156.512 Y179.143 E39.98047
G1 X156.223 Y178.93 E39.99426
G1 X77.85 Y133.681 E43.47076
G1 X76.183 Y129.983 E43.62659
G1 X73.786 Y125.996 E43.8053
G1 X71.32 Y122.813 E43.95998
G1 X71.32 Y33.379 E47.39563
G1 X71.275 Y33.002 E47.41021
G1 X71.153 Y32.664 E47.42402
G1 X70.96 Y32.361 E47.43782
G1 X70.704 Y32.109 E47.45162
G1 X70.399 Y31.92 E47.4654
G1 X70.06 Y31.802 E47.47919
G1 X69.703 Y31.762 E47.49299
G1 X65.622 Y31.762 E47.64976
G1 X65.245 Y31.807 E47.66435
G1 X64.907 Y31.929 E47.67815
G1 X64.604 Y32.122 E47.69195
G1 X64.352 Y32.378 E47.70575
G0 F4800 X64.809 Y32.558
G1 F1500 X64.624 Y32.798 E47.71739
G1 X64.507 Y33.078 E47.72905
G1 X64.467 Y33.379 E47.74072
G1 X64.467 Y123.518 E51.20345
G1 X64.592 Y123.873 E51.21791
G1 X64.763 Y124.123 E51.22954
G1 X67.648 Y127.328 E51.3952
G1 X70.079 Y130.827 E51.55887
G1 X72.045 Y134.592 E51.72204
G1 X73.599 Y138.771 E51.89331
G1 X73.816 Y139.056 E51.90708
G1 X74.056 Y139.241 E51.91872
G1 X152.866 Y184.742 E55.4146
G1 X153.136 Y184.855 E55.42584
G1 X153.437 Y184.897 E55.43752
G1 X153.738 Y184.859 E55.44917
G1 X154.018 Y184.744 E55.4608
G1 X154.259 Y184.56 E55.47245
G1 X154.444 Y184.32 E55.48409
G1 X156.414 Y180.908 E55.63544
G1 X156.527 Y180.638 E55.64669
G1 X156.569 Y180.337 E55.65836
G1 X156.531 Y180.036 E55.67002
G1 X156.416 Y179.756 E55.68164
G1 X156.232 Y179.515 E55.69329
G1 X155.992 Y179.33 E55.70493
G1 X77.491 Y134.007 E59.18712
G1 X75.776 Y130.201 E59.34748
G1 X73.403 Y126.257 E59.5243
G1 X70.858 Y122.971 E59.68397
G1 X70.858 Y33.379 E63.12569
G1 X70.821 Y33.089 E63.13692
G1 X70.707 Y32.808 E63.14857
G1 X70.524 Y32.566 E63.16022
G1 X70.284 Y32.381 E63.17186
G1 X70.004 Y32.264 E63.18352
G1 X69.703 Y32.224 E63.19519
G1 X65.622 Y32.224 E63.35196
G1 X65.332 Y32.261 E63.36319
G1 X65.051 Y32.375 E63.37484
G1 X64.809 Y32.558 E63.38649
G0 F4800 X65.083 Y32.943
G1 F1500 X64.929 Y33.379 E63.40426
G1 X64.929 Y123.35 E66.86053
G1 X64.997 Y123.692 E66.87393
G1 X68.013 Y127.043 E67.04712
G1 X70.474 Y130.586 E67.21284
G1 X72.467 Y134.4 E67.37815
G1 X73.984 Y138.482 E67.54544
G1 X74.148 Y138.761 E67.55788
G1 X153.189 Y184.395 E71.064
G1 X153.586 Y184.453 E71.07941
G1 X153.964 Y184.227 E71.09633
G1 X156.067 Y180.585 E71.25789
G1 X156.107 Y180.312 E71.26849
G1 X156.061 Y180.081 E71.27754
G1 X155.761 Y179.73 E71.29527
G1 X77.131 Y134.333 E74.78317
G1 X75.382 Y130.452 E74.9467
G1 X73.041 Y126.551 E75.12147
G1 X70.396 Y123.129 E75.28762
G1 X70.396 Y33.271 E78.73956
G1 X70.247 Y32.9 E78.75492
G1 X69.862 Y32.686 E78.77184
G1 X65.514 Y32.686 E78.93887
G1 X65.26 Y32.788 E78.94938
G1 X65.083 Y32.943 E78.95842
G0 F4800 X65.622 Y33.379
G1 F1500 X65.622 Y123.35 E82.4147
G1 X68.557 Y126.612 E82.58327
G1 X71.067 Y130.224 E82.75224
G1 X73.104 Y134.124 E82.92126
G1 X74.634 Y138.241 E83.08999
G1 X153.444 Y183.742 E86.58587
G1 X155.414 Y180.33 E86.73722
G1 X76.588 Y134.815 E90.2339
G1 X74.75 Y130.737 E90.40574
G1 X72.447 Y126.908 E90.57739
G1 X69.707 Y123.371 E90.74926
G1 X69.703 Y33.379 E94.20635
G1 X65.622 Y33.379 E94.36312
G0 F4800 X65.391 Y33.282
G1 F1500 X65.391 Y123.35 E97.82312
G1 X65.45 Y123.505 E97.82949
G1 X68.373 Y126.753 E97.99736
G1 X70.871 Y130.348 E98.16553
G1 X72.891 Y134.214 E98.33309
G1 X74.417 Y138.321 E98.5014
G1 X74.518 Y138.441 E98.50743
G1 X153.386 Y183.975 E102.00587
G1 X153.596 Y183.941 E102.01404
G1 X155.647 Y180.388 E102.17164
G1 X155.613 Y180.178 E102.17982
G1 X76.771 Y134.658 E105.67713
G1 X74.961 Y130.642 E105.84635
G1 X72.645 Y126.789 E106.01905
G1 X69.934 Y123.287 E106.18918
G1 X69.934 Y33.312 E109.64561
G1 X69.8 Y33.148 E109.65374
G1 X65.555 Y33.148 E109.81682
G1 X65.391 Y33.282 E109.82495
G0 F4800 X62.972 Y31.966
G1 F1500 X62.778 Y32.416 E109.84378
G1 X62.659 Y32.891 E109.86259
G1 X62.619 Y33.379 E109.8814
G1 X62.619 Y123.35 E113.33768
G1 X62.707 Y124.073 E113.36565
G1 X62.863 Y124.537 E113.38446
G1 X63.093 Y124.969 E113.40326
G1 X63.39 Y125.359 E113.42209
G1 X66.198 Y128.479 E113.58334
G1 X68.491 Y131.779 E113.73771
G1 X70.355 Y135.347 E113.89236
G1 X71.819 Y139.287 E114.05382
G1 X72.086 Y139.83 E114.07707
G1 X72.378 Y140.223 E114.09588
G1 X72.73 Y140.563 E114.11468
G1 X73.132 Y140.842 E114.13348
G1 X151.942 Y186.343 E117.62936
G1 X152.213 Y186.481 E117.64104
G1 X152.675 Y186.645 E117.65987
G1 X153.157 Y186.731 E117.67868
G1 X153.647 Y186.738 E117.69751
G1 X154.131 Y186.665 E117.71631
G1 X154.597 Y186.515 E117.73512
G1 X155.033 Y186.29 E117.75396
G1 X155.426 Y185.998 E117.77277
G1 X155.766 Y185.646 E117.79157
G1 X156.045 Y185.244 E117.81037
G1 X158.015 Y181.832 E117.96172
G1 X158.153 Y181.56 E117.97344
G1 X158.317 Y181.099 E117.99224
G1 X158.403 Y180.617 E118.01105
G1 X158.41 Y180.127 E118.02987
G1 X158.337 Y179.643 E118.04867
G1 X158.187 Y179.177 E118.06748
G1 X157.962 Y178.741 E118.08633
G1 X157.67 Y178.348 E118.10514
G1 X157.318 Y178.008 E118.12394
G1 X156.916 Y177.729 E118.14274
G1 X78.931 Y132.704 E121.60203
G1 X77.488 Y129.503 E121.73691
G1 X77.323 Y129.189 E121.75054
G1 X75.02 Y125.36 E121.92219
G1 X74.821 Y125.069 E121.93573
G1 X72.706 Y122.339 E122.0684
G1 X72.706 Y33.379 E125.48583
G1 X72.691 Y33.075 E125.49753
G1 X72.601 Y32.593 E125.51636
G1 X72.435 Y32.133 E125.53515
G1 X72.196 Y31.705 E125.55398
G1 X71.891 Y31.322 E125.57279
G1 X71.528 Y30.994 E125.59158
G1 X71.116 Y30.729 E125.6104
G1 X70.666 Y30.535 E125.62923
G1 X70.191 Y30.416 E125.64804
G1 X69.703 Y30.376 E125.66685
G1 X65.622 Y30.376 E125.82362
G1 X65.318 Y30.391 E125.83531
G1 X64.836 Y30.481 E125.85415
G1 X64.376 Y30.647 E125.87294
G1 X63.948 Y30.886 E125.89177
G1 X63.565 Y31.191 E125.91058
G1 X63.237 Y31.554 E125.92937
G1 X62.972 Y31.966 E125.94819
;;retract;;
G1 F1500 E125.38819
G1 F2400 X62.659 Y32.891 E125.27693
G1 X62.619 Y33.379 E125.22118
G1 X62.619 Y33.914 E125.16019
G1 F1500 E125.14819
;MESH:0_0
G0 F4800 X62.972 Y31.966
G0 X64.957 Y34.336
G0 X66.579 Y34.336
G0 X68.774 Y34.308
G0 X68.937 Y123.612
G1 F1500 E125.94819
G0 F4800 X69.475 Y123.45
;TYPE:WALL-OUTER
G1 F1800 X72.254 Y127.036 E126.11899
G1 X74.544 Y130.842 E126.28621
G1 X76.413 Y134.985 E126.45732
G1 X155.098 Y180.415 E129.87787
G1 X154.229 Y181.92 E129.94329
G1 X153.359 Y183.426 E130.00877
G1 X74.821 Y138.082 E133.42291
G1 X73.313 Y134.024 E133.58589
G1 X71.266 Y130.106 E133.75231
G1 X68.738 Y126.466 E133.91915
G1 X65.853 Y123.261 E134.0815
G1 X65.853 Y33.61 E137.4566
G1 X69.472 Y33.61 E137.59285
G1 X69.475 Y123.45 E140.97507
G0 F4800 X69.597 Y123.608
G0 X68.997 Y123.37
;TYPE:WALL-INNER
G1 F1800 X69.145 Y123.805 E140.99398
G1 X71.859 Y127.307 E141.17634
G1 X74.119 Y131.065 E141.35683
G1 X75.979 Y135.179 E141.54266
G1 X76.236 Y135.436 E141.55762
G1 X154.445 Y180.59 E145.27465
G1 X153.815 Y181.681 E145.3265
G1 X153.184 Y182.773 E145.37841
G1 X75.209 Y137.753 E149.08434
G1 X73.749 Y133.827 E149.25674
G1 X71.676 Y129.859 E149.441
G1 X69.116 Y126.173 E149.62572
G1 X66.332 Y123.078 E149.79706
G1 X66.332 Y34.089 E153.4598
G1 X68.994 Y34.089 E153.56936
G1 X68.997 Y123.37 E157.24412
;;retract;;
G1 F1500 E156.68412
G1 F2400 X70.173 Y124.987 E156.45612
G1 F1500 E156.44412
G0 F4800 X68.755 Y124.141
;TYPE:SKIN
G1 F1500 E157.24412
G1 F1800 X68.538 Y123.4 E157.27378
G1 X68.538 Y116.565 E157.53635
G1 X68.538 Y109.73 E157.79892
G1 X68.538 Y102.895 E158.06149
G1 X68.538 Y96.06 E158.32406
G1 X68.537 Y89.225 E158.58663
G1 X68.537 Y82.39 E158.8492
G1 X68.537 Y75.555 E159.11177
G1 X68.537 Y68.72 E159.37434
G1 X68.536 Y61.885 E159.63691
G1 X68.536 Y55.05 E159.89948
G1 X68.536 Y48.215 E160.16204
G1 X68.536 Y41.38 E160.42461
G1 X68.535 Y34.545 E160.68718
G1 X66.79 Y34.547 E160.75422
G1 X66.79 Y122.901 E164.14838
G1 X67.718 Y123.934 E164.20172
G1 X68.15 Y124.369 E164.22527
G1 X68.298 Y124.493 E164.23269
