;FLAVOR:Marlin
;TIME:11614
;Filament used:17.5554m
;Layer height:0.2
;MINX:32.175
;MINY:30.814
;MINZ:0.2
;MAXX:188.537
;MAXY:126.605
;MAXZ:120
;OuterWall Time:4099.84
;InnerWall Time:2753.44
;Skin Time:380.61
;Support Time:0
;SkirtBrim Time:131.653
;Infill Time:1064.91
;Support Infills Time:0
;Combing Time:1684.58
;Retraction Time:1498.99
;PrimeTower Time:0
;;;;;;;;;;;;;;;;;;;;;;;;;;;;;;;;;;;;;;;;;;;;;;;;;;;;;;;;;;;;;;;;;;;;;;;;;;;
;Creality Print GCode Generated by CXEngine
;CRSLICE_GIT_HASH:d90fa71
;Creality Print Version : V4.3.8.6674
;CXEngine Release Time:2023-10-16 18:06:53
;Gcode Generated Time:2024-12-18 14:51:26
;----------Machine Config--------------
;Machine Name:Ender-3 V3 SE
;Machine Height:250
;Machine Width:220
;Machine Depth:220
;Material Type:PLA
;Material Name:CR-PLA_1.75
;Number of Extruders:1
;ExtruderParams[0] Nozzle Diameter:1000
;----------Profile Config---------------
;Wall Thickness:0.8
;Top/Bottom Thickness:0.8
;Out Wall Line Width:0.42
;Inner Wall Line Width:0.45
;Inital Height:200
;Wall Line Count:2
;Infill Line Distance:8
;Infill Pattern:grid
;Infill Sparse Density:10
;Infill Wipe Distance:0
;Print Temperature:190
;Bed Temperature:60
;Support Enable:false
;Support Density:15
;Support Angle:60
;Adhesion Type:autobrim
;machine is belt:false
;machine belt offset:10
;machine belt offset Y:0
;Raft Base Line Spacing:1.6
;Wait Heatup Sync:true
;Enable Ironing:false
;Material Type:PLA
;Max volumetric speed:20
;Material Diameter:1.75
;Material Density:1.24
;Filament Cost:20
;Filament Weight:1000
;Preview Img Type:png
;Screen Size:Sermoon D3
;----------Shell Config----------------
;Outer Wall Wipe Distance:200
;Outer Inset First:false
;Infill Before Walls:false
;Infill Overlap:0.04
;Fill Gaps Between Walls:everywhere
;Minimum Infill Area:15
;Top Surface Skin Layer:0
;Top Layers:4
;Z Seam Alignment:sharpest_corner
;Seam Corner Preference:z_seam_corner_inner
;Z Seam X:110
;Z Seam Y:220
;Horizontal Expansion:0
;Top/Bottom Pattern:zigzag
;Ironing Pattern:zigzag
;Vase Model:false
;----------Support Config----------------
;Support Type:everywhere
;Support Pattern:zigzag
;Support Infill Layer Thickness:0.15
;Minimum Support Area:1
;Enable Support Roof:true
;Support Roof Thickness:0.8
;Support Roof Pattern:lines
;Connect Support Lines:0
;Connect Support ZigZags:1
;Minimum Support X/Y Distance:0.2
;Support Line Distance:2.67
; ---------PrintSpeed & Travel----------
;Enable Print Cool:true
;Avoid Printed Parts Traveling:true
;Enable Retraction:true
;Retraction Distance:0.8
;Retraction Speed:25
;Retraction Prime Speed:25
;Maximum Retraction Count:100
;Minimum Extrusion Distance Window:0.8
;Z Hop When Retracted:false
;Z Hop Height:0.2
;Retract Before Outer Wall:true

;Outer Wall Speed:60
;Inner Wall Speed:90
;Infill Speed:180
;Top/Bottom Speed:50
;Travel Speed:150
;Initial Layer Speed:30
;Skirt/Brim Speed:25
;Prime Tower Speed:60
;Outer Wall Acceleration:1000
;Inner Wall Acceleration:2000
;Infill Acceleration:2500
;Top/Bottom Acceleration:2500
;Travel Acceleration:2500
;Initial Layer Print Acceleration:500
;Initial Layer Travel Acceleration:500
;Skirt/Brim Acceleration:500
;Combing Mode:no_outer_surfaces
; --------SpecialModel&Mesh Fixes--------
;Union Overlapping Volum:true
;Remove All Holes:false
;Maximum Travel Resolution:0.25
;Maximum Deviation:0.05
;Maximum Model Angle:0.872665
;IS Mold Print:false
;Make Overhang Printable:false
;Enable Coasting:false
;Coasting Volumes:0.064
;Coasting Speed:0.9
;Raft AirGap:0.25
;Layer0 ZOverLap:0.13
;Adaptive Layers:0
;---------------------End of Head--------------------------
M140 S60
M105
M190 S60
M104 S190
M82 ;absolute extrusion mode
M220 S100 ;Reset Feedrate
M221 S100 ;Reset Flowrate

G28 ;Home

G92 E0 ;Reset Extruder
G1 Z2.0 F3000 ;Move Z Axis up
G1 X-2.1 Y20 Z0.28 F5000.0 ;Move to start position
M109 S190.000000
G1 X-2.1 Y145.0 Z0.28 F1500.0 E15 ;Draw the first line
G1 X-2.4 Y145.0 Z0.28 F5000.0 ;Move to side a little
G1 X-2.4 Y20 Z0.28 F1500.0 E30 ;Draw the second line
G92 E0  ;Reset Extruder
G1 E-1.0000 F1800 ;Retract a bit
G1 Z2.0 F3000 ;Move Z Axis up
G1 E0.0000 F1800 

G92 E0
G92 E0
G1 F1500 E-0.8
;LAYER_COUNT:600

;LAYER:0
M106 S0
M204 S500
G0 F4800 X34.359 Y117.116 Z0.2
;TYPE:SKIRT
G1 F1500 E0
G1 X33.947 Y117.298 E0.0173
G1 X33.574 Y117.551 E0.03462
G1 X33.251 Y117.865 E0.05192
G1 X32.989 Y118.231 E0.06921
G1 X32.795 Y118.638 E0.08653
G1 X32.677 Y119.072 E0.10381
G1 X32.637 Y119.521 E0.12113
G1 X32.637 Y123.602 E0.2779
G1 X32.666 Y123.984 E0.29262
G1 X32.773 Y124.421 E0.3099
G1 X32.955 Y124.833 E0.3272
G1 X33.208 Y125.206 E0.34452
G1 X33.522 Y125.529 E0.36182
G1 X33.888 Y125.791 E0.37911
G1 X34.295 Y125.985 E0.39644
G1 X34.729 Y126.103 E0.41371
G1 X35.178 Y126.143 E0.43103
G1 X125.149 Y126.143 E3.88731
G1 X125.655 Y126.092 E3.90684
G1 X126.086 Y125.964 E3.92412
G1 X126.489 Y125.761 E3.94145
G1 X126.849 Y125.491 E3.95874
G1 X129.986 Y122.668 E4.12086
G1 X133.347 Y120.333 E4.27807
G1 X136.954 Y118.448 E4.43442
G1 X140.925 Y116.972 E4.59716
G1 X141.291 Y116.802 E4.61267
G1 X141.662 Y116.546 E4.62998
G1 X141.982 Y116.229 E4.64728
G1 X142.241 Y115.861 E4.66457
G1 X187.742 Y37.052 E8.16042
G1 X187.908 Y36.706 E8.17516
G1 X188.034 Y36.274 E8.19245
G1 X188.082 Y35.826 E8.20976
G1 X188.05 Y35.377 E8.22705
G1 X187.939 Y34.94 E8.24437
G1 X187.753 Y34.53 E8.26167
G1 X187.497 Y34.159 E8.27898
G1 X187.18 Y33.839 E8.29629
G1 X186.811 Y33.58 E8.3136
G1 X183.397 Y31.609 E8.46504
G1 X183.052 Y31.443 E8.47975
G1 X182.62 Y31.317 E8.49704
G1 X182.172 Y31.269 E8.51435
G1 X181.723 Y31.301 E8.53164
G1 X181.286 Y31.412 E8.54896
G1 X180.876 Y31.598 E8.56625
G1 X180.505 Y31.854 E8.58357
G1 X180.185 Y32.171 E8.60087
G1 X179.926 Y32.54 E8.61819
G1 X134.828 Y110.654 E12.08318
G1 X131.491 Y112.159 E12.22381
G1 X131.227 Y112.297 E12.23525
G1 X127.397 Y114.599 E12.40691
G1 X127.15 Y114.768 E12.41841
G1 X124.295 Y116.98 E12.55715
G1 X35.178 Y116.98 E15.98062
G1 X34.796 Y117.009 E15.99534
G1 X34.359 Y117.116 E16.01262
G0 F4800 X34.381 Y117.601
G1 F1500 X34.022 Y117.793 E16.02826
G1 X33.707 Y118.052 E16.04393
G1 X33.449 Y118.367 E16.05957
G1 X33.257 Y118.726 E16.07521
G1 X33.139 Y119.116 E16.09086
G1 X33.099 Y119.521 E16.1065
G1 X33.099 Y123.602 E16.26327
G1 X33.139 Y124.009 E16.27898
G1 X33.258 Y124.399 E16.29464
G1 X33.45 Y124.758 E16.31028
G1 X33.709 Y125.073 E16.32595
G1 X34.024 Y125.331 E16.34159
G1 X34.383 Y125.523 E16.35723
G1 X34.773 Y125.641 E16.37288
G1 X35.178 Y125.681 E16.38852
G1 X125.149 Y125.681 E19.84479
G1 X125.447 Y125.659 E19.85627
G1 X125.843 Y125.562 E19.87194
G1 X126.212 Y125.389 E19.88759
G1 X126.54 Y125.147 E19.90325
G1 X129.7 Y122.304 E20.06654
G1 X133.105 Y119.938 E20.22582
G1 X136.762 Y118.026 E20.38435
G1 X140.911 Y116.484 E20.55439
G1 X141.306 Y116.239 E20.57225
G1 X141.603 Y115.961 E20.58787
G1 X141.84 Y115.63 E20.60351
G1 X187.341 Y36.821 E24.09936
G1 X187.51 Y36.448 E24.11509
G1 X187.602 Y36.051 E24.13075
G1 X187.615 Y35.644 E24.14639
G1 X187.549 Y35.242 E24.16204
G1 X187.405 Y34.861 E24.17769
G1 X187.19 Y34.515 E24.19334
G1 X186.912 Y34.218 E24.20896
G1 X186.58 Y33.981 E24.22463
G1 X183.166 Y32.01 E24.37607
G1 X182.794 Y31.841 E24.39177
G1 X182.397 Y31.749 E24.40742
G1 X181.99 Y31.736 E24.42307
G1 X181.588 Y31.802 E24.43872
G1 X181.207 Y31.946 E24.45436
G1 X180.861 Y32.161 E24.47001
G1 X180.564 Y32.439 E24.48564
G1 X180.327 Y32.771 E24.50131
G1 X135.155 Y111.014 E27.97201
G1 X131.569 Y112.63 E28.12311
G1 X127.534 Y115.056 E28.30397
G1 X124.455 Y117.442 E28.45361
G1 X35.178 Y117.442 E31.88323
G1 X34.771 Y117.482 E31.89894
G1 X34.381 Y117.601 E31.9146
G0 F4800 X34.463 Y118.071
G1 F1500 X34.16 Y118.264 E31.9284
G1 X33.908 Y118.52 E31.9422
G1 X33.719 Y118.825 E31.95599
G1 X33.601 Y119.164 E31.96978
G1 X33.561 Y119.521 E31.98358
G1 X33.561 Y123.602 E32.14035
G1 X33.606 Y123.979 E32.15494
G1 X33.728 Y124.317 E32.16874
G1 X33.921 Y124.62 E32.18254
G1 X34.177 Y124.872 E32.19634
G1 X34.482 Y125.061 E32.21012
G1 X34.821 Y125.179 E32.22391
G1 X35.178 Y125.219 E32.23771
G1 X125.149 Y125.219 E35.69399
G1 X125.608 Y125.153 E35.7118
G1 X125.939 Y125.013 E35.72561
G1 X126.231 Y124.804 E35.73941
G1 X129.41 Y121.943 E35.9037
G1 X132.868 Y119.541 E36.06545
G1 X136.576 Y117.602 E36.22619
G1 X140.603 Y116.106 E36.39122
G1 X140.956 Y115.923 E36.40649
G1 X141.227 Y115.688 E36.42027
G1 X141.44 Y115.399 E36.43407
G1 X186.941 Y36.59 E39.92991
G1 X187.091 Y36.24 E39.94454
G1 X187.155 Y35.887 E39.95832
G1 X187.138 Y35.528 E39.97213
G1 X187.043 Y35.182 E39.98591
G1 X186.874 Y34.865 E39.99971
G1 X186.639 Y34.594 E40.01349
G1 X186.349 Y34.381 E40.02732
G1 X182.935 Y32.41 E40.17875
G1 X182.586 Y32.26 E40.19335
G1 X182.233 Y32.196 E40.20713
G1 X181.874 Y32.213 E40.22094
G1 X181.528 Y32.308 E40.23472
G1 X181.211 Y32.477 E40.24852
G1 X180.94 Y32.712 E40.2623
G1 X180.727 Y33.002 E40.27612
G1 X135.48 Y111.373 E43.75252
G1 X131.785 Y113.04 E43.90824
G1 X127.794 Y115.438 E44.08711
G1 X124.612 Y117.904 E44.24175
G1 X35.178 Y117.904 E47.6774
G1 X34.801 Y117.949 E47.69199
G1 X34.463 Y118.071 E47.70579
G0 F4800 X34.607 Y118.517
G1 F1500 X34.365 Y118.7 E47.71745
G1 X34.18 Y118.94 E47.72909
G1 X34.063 Y119.22 E47.74075
G1 X34.023 Y119.521 E47.75241
G1 X34.023 Y123.602 E47.90918
G1 X34.06 Y123.892 E47.92042
G1 X34.174 Y124.173 E47.93206
G1 X34.357 Y124.415 E47.94372
G1 X34.597 Y124.6 E47.95536
G1 X34.877 Y124.717 E47.96702
G1 X35.178 Y124.757 E47.97868
G1 X125.317 Y124.757 E51.44141
G1 X125.671 Y124.632 E51.45584
G1 X125.922 Y124.461 E51.4675
G1 X129.124 Y121.579 E51.633
G1 X132.626 Y119.146 E51.79681
G1 X136.391 Y117.179 E51.95999
G1 X140.57 Y115.625 E52.13127
G1 X140.855 Y115.408 E52.14503
G1 X141.04 Y115.168 E52.15667
G1 X186.541 Y36.359 E55.65252
G1 X186.654 Y36.089 E55.66376
G1 X186.696 Y35.788 E55.67544
G1 X186.658 Y35.487 E55.68709
G1 X186.543 Y35.207 E55.69872
G1 X186.359 Y34.966 E55.71037
G1 X186.118 Y34.781 E55.72204
G1 X182.704 Y32.81 E55.87348
G1 X182.435 Y32.697 E55.88469
G1 X182.134 Y32.655 E55.89636
G1 X181.833 Y32.693 E55.90802
G1 X181.553 Y32.808 E55.91965
G1 X181.312 Y32.992 E55.93129
G1 X181.127 Y33.233 E55.94297
G1 X135.806 Y111.733 E59.42508
G1 X132 Y113.449 E59.58546
G1 X128.055 Y115.821 E59.76229
G1 X124.77 Y118.366 E59.92193
G1 X35.178 Y118.366 E63.36365
G1 X34.888 Y118.403 E63.37488
G1 X34.607 Y118.517 E63.38653
G0 F4800 X34.699 Y118.977
G1 F1500 X34.485 Y119.362 E63.40345
G1 X34.485 Y123.71 E63.57048
G1 X34.587 Y123.964 E63.58099
G1 X34.742 Y124.141 E63.59003
G1 X35.178 Y124.295 E63.60779
G1 X125.149 Y124.295 E67.06407
G1 X125.491 Y124.227 E67.07747
G1 X128.839 Y121.214 E67.2505
G1 X132.385 Y118.751 E67.41635
G1 X136.199 Y116.757 E67.58168
G1 X140.281 Y115.24 E67.74898
G1 X140.56 Y115.076 E67.76141
G1 X186.194 Y36.036 E71.2675
G1 X186.252 Y35.639 E71.28291
G1 X186.027 Y35.262 E71.29977
G1 X182.381 Y33.157 E71.4615
G1 X181.986 Y33.099 E71.47684
G1 X181.608 Y33.324 E71.49374
G1 X136.132 Y112.093 E74.98778
G1 X132.251 Y113.843 E75.15132
G1 X128.349 Y116.183 E75.32611
G1 X124.928 Y118.828 E75.49223
G1 X35.07 Y118.828 E78.94416
G1 X34.699 Y118.977 E78.95952
G0 F4800 X35.178 Y119.521
G1 F1500 X35.178 Y123.602 E79.1163
G1 X125.149 Y123.602 E82.57257
G1 X128.408 Y120.67 E82.74098
G1 X132.023 Y118.158 E82.91009
G1 X135.923 Y116.12 E83.07913
G1 X140.04 Y114.59 E83.24785
G1 X185.541 Y35.781 E86.7437
G1 X182.127 Y33.81 E86.89514
G1 X136.614 Y112.636 E90.39179
G1 X132.536 Y114.475 E90.56364
G1 X128.706 Y116.777 E90.7353
G1 X125.17 Y119.517 E90.90714
G1 X35.178 Y119.521 E94.36423
G0 F4800 X34.947 Y119.424
G1 F1500 X34.947 Y123.669 E94.5273
G1 X35.081 Y123.833 E94.53544
G1 X125.149 Y123.833 E97.99544
G1 X125.304 Y123.774 E98.00181
G1 X128.549 Y120.854 E98.16951
G1 X132.147 Y118.354 E98.33782
G1 X136.013 Y116.333 E98.5054
G1 X140.12 Y114.807 E98.67371
G1 X140.24 Y114.706 E98.67974
G1 X185.774 Y35.839 E102.17815
G1 X185.74 Y35.629 E102.18632
G1 X182.184 Y33.577 E102.34404
G1 X181.975 Y33.611 E102.35217
G1 X136.457 Y112.453 E105.84945
G1 X132.441 Y114.264 E106.01868
G1 X128.587 Y116.579 E106.19139
G1 X125.086 Y119.29 E106.3615
G1 X35.111 Y119.29 E109.81793
G1 X34.947 Y119.424 E109.82606
G0 F4800 X34.392 Y116.623
G1 F1500 X33.932 Y116.789 E109.84485
G1 X33.504 Y117.028 E109.86368
G1 X33.121 Y117.333 E109.88249
G1 X32.793 Y117.696 E109.90128
G1 X32.528 Y118.108 E109.9201
G1 X32.334 Y118.558 E109.93893
G1 X32.215 Y119.033 E109.95774
G1 X32.175 Y119.521 E109.97655
G1 X32.175 Y123.602 E110.13332
G1 X32.19 Y123.906 E110.14501
G1 X32.28 Y124.388 E110.16385
G1 X32.446 Y124.848 E110.18264
G1 X32.685 Y125.276 E110.20147
G1 X32.99 Y125.659 E110.22028
G1 X33.353 Y125.987 E110.23907
G1 X33.765 Y126.252 E110.25789
G1 X34.215 Y126.446 E110.27671
G1 X34.69 Y126.565 E110.29552
G1 X35.178 Y126.605 E110.31433
G1 X125.149 Y126.605 E113.77061
G1 X125.871 Y126.517 E113.79855
G1 X126.336 Y126.361 E113.81739
G1 X126.768 Y126.131 E113.8362
G1 X127.158 Y125.834 E113.85503
G1 X130.275 Y123.029 E114.01611
G1 X133.584 Y120.73 E114.1709
G1 X137.14 Y118.872 E114.32503
G1 X141.086 Y117.405 E114.48675
G1 X141.629 Y117.138 E114.51
G1 X142.022 Y116.846 E114.52881
G1 X142.362 Y116.494 E114.54761
G1 X142.641 Y116.092 E114.5664
G1 X188.142 Y37.283 E118.06225
G1 X188.28 Y37.011 E118.07397
G1 X188.444 Y36.55 E118.09277
G1 X188.53 Y36.068 E118.11157
G1 X188.537 Y35.578 E118.1304
G1 X188.464 Y35.094 E118.1492
G1 X188.314 Y34.628 E118.16801
G1 X188.089 Y34.192 E118.18686
G1 X187.797 Y33.799 E118.20567
G1 X187.445 Y33.459 E118.22447
G1 X187.042 Y33.18 E118.2433
G1 X183.628 Y31.209 E118.39473
G1 X183.357 Y31.071 E118.40642
G1 X182.896 Y30.907 E118.42521
G1 X182.414 Y30.821 E118.44402
G1 X181.924 Y30.814 E118.46285
G1 X181.44 Y30.887 E118.48165
G1 X180.974 Y31.037 E118.50046
G1 X180.538 Y31.262 E118.5193
G1 X180.145 Y31.554 E118.53811
G1 X179.805 Y31.906 E118.55691
G1 X179.526 Y32.309 E118.57574
G1 X134.503 Y110.293 E122.03496
G1 X131.301 Y111.737 E122.1699
G1 X130.989 Y111.901 E122.18344
G1 X127.159 Y114.203 E122.3551
G1 X126.867 Y114.403 E122.3687
G1 X124.138 Y116.518 E122.50133
G1 X35.178 Y116.518 E125.91877
G1 X34.874 Y116.533 E125.93046
G1 X34.392 Y116.623 E125.9493
;;retract;;
G1 F1500 E125.3893
G1 F2400 X33.504 Y117.028 E125.27815
G1 X33.121 Y117.333 E125.2224
G1 X32.793 Y117.696 E125.16666
G1 X32.768 Y117.735 E125.1613
G1 F1500 E125.1493
;MESH:0_0
G0 F4800 X34.392 Y116.623
G0 X36.135 Y118.856
G0 X36.135 Y120.478
G0 X125.4 Y120.29
G1 F1500 E125.9493
G0 F4800 X125.238 Y119.752
;TYPE:WALL-OUTER
G1 F1800 X128.834 Y116.97 E126.12046
G1 X132.641 Y114.681 E126.2877
G1 X136.779 Y112.813 E126.45862
G1 X182.212 Y34.126 E129.87929
G1 X183.718 Y34.996 E129.94477
G1 X185.225 Y35.866 E130.01028
G1 X139.881 Y114.403 E133.42439
G1 X135.824 Y115.911 E133.58733
G1 X131.905 Y117.959 E133.7538
G1 X128.251 Y120.498 E133.92132
G1 X125.06 Y123.371 E134.08296
G1 X35.409 Y123.371 E137.45807
G1 X35.409 Y119.752 E137.59431
G1 X125.238 Y119.752 E140.97612
G0 F4800 X125.396 Y119.63
G0 X125.593 Y120.082
;TYPE:WALL-INNER
G1 F1800 X129.104 Y117.366 E141.15882
G1 X132.864 Y115.106 E141.33938
G1 X136.973 Y113.247 E141.52501
G1 X137.23 Y112.99 E141.53997
G1 X182.387 Y34.779 E145.25713
G1 X183.479 Y35.41 E145.30904
G1 X184.572 Y36.041 E145.36098
G1 X139.552 Y114.015 E149.06687
G1 X135.627 Y115.475 E149.23924
G1 X131.656 Y117.549 E149.42363
G1 X127.967 Y120.111 E149.6085
G1 X124.877 Y122.893 E149.77963
G1 X35.888 Y122.893 E153.44237
G1 X35.888 Y120.231 E153.55193
G1 X125.159 Y120.231 E157.22627
G1 X125.593 Y120.082 E157.24516
;;retract;;
G1 F1500 E156.68516
G1 F2400 X127.243 Y118.953 E156.45716
G1 F1500 E156.44516
G0 F4800 X125.93 Y120.474
;TYPE:SKIN
G1 F1500 E157.24516
G1 F1800 X125.191 Y120.689 E157.27473
G1 X118.357 Y120.689 E157.53726
G1 X111.523 Y120.689 E157.79979
G1 X104.689 Y120.689 E158.06232
G1 X97.855 Y120.689 E158.32485
G1 X91.021 Y120.689 E158.58738
G1 X84.187 Y120.689 E158.84991
G1 X77.353 Y120.689 E159.11245
G1 X70.519 Y120.689 E159.37498
G1 X63.685 Y120.689 E159.63751
G1 X56.851 Y120.689 E159.90004
G1 X50.017 Y120.689 E160.16257
G1 X43.183 Y120.689 E160.4251
G1 X36.349 Y120.689 E160.68763
G1 X36.346 Y122.434 E160.75467
