;FLAVOR:Marlin
;TIME:1050.5
;Filament used:0.723649m
;Layer height:0.2
;MINX:63.803
;MINY:80.212
;MINZ:0.2
;MAXX:149.347
;MAXY:96.489
;MAXZ:15
;OuterWall Time:426.43
;InnerWall Time:139.079
;Skin Time:212.372
;Support Time:0
;SkirtBrim Time:0
;Infill Time:0
;Support Infills Time:0
;Combing Time:64.5618
;Retraction Time:208.059
;PrimeTower Time:0

;
;
;
;
;;;;;;;;;;;;;;;;;;;;;;;;;;;;;;;;;;;;;;;;;;;;;;;;;;;;;;;;;;;;;;;;;;;;;;;;;
;Creality Print GCode Generated by CXEngine
;CRSLICE_GIT_HASH:d90fa71
;Creality Print Version : V4.3.8.6674
;CXEngine Release Time:2023-10-16 18:06:53
;Gcode Generated Time:2024-12-19 16:57:28
;----------Machine Config--------------
;Machine Name:Ender-3 V3 SE
;Machine Height:250
;Machine Width:220
;Machine Depth:220
;Material Type:PLA
;Material Name:CR-PLA_1.75
;Number of Extruders:1
;ExtruderParams[0] Nozzle Diameter:1000
;----------Profile Config---------------
;Wall Thickness:0.8
;Top/Bottom Thickness:0.8
;Out Wall Line Width:0.42
;Inner Wall Line Width:0.45
;Inital Height:200
;Wall Line Count:2
;Infill Line Distance:8
;Infill Pattern:grid
;Infill Sparse Density:10
;Infill Wipe Distance:0
;Print Temperature:190
;Bed Temperature:60
;Support Enable:false
;Support Density:15
;Support Angle:60
;Adhesion Type:autobrim
;machine is belt:false
;machine belt offset:10
;machine belt offset Y:0
;Raft Base Line Spacing:1.6
;Wait Heatup Sync:true
;Enable Ironing:false
;Material Type:PLA
;Max volumetric speed:20
;Material Diameter:1.75
;Material Density:1.24
;Filament Cost:20
;Filament Weight:1000
;Preview Img Type:png
;Screen Size:Sermoon D3
;----------Shell Config----------------
;Outer Wall Wipe Distance:200
;Outer Inset First:false
;Infill Before Walls:false
;Infill Overlap:0.04
;Fill Gaps Between Walls:everywhere
;Minimum Infill Area:15
;Top Surface Skin Layer:0
;Top Layers:4
;Z Seam Alignment:sharpest_corner
;Seam Corner Preference:z_seam_corner_inner
;Z Seam X:110
;Z Seam Y:220
;Horizontal Expansion:0
;Top/Bottom Pattern:zigzag
;Ironing Pattern:zigzag
;Vase Model:false
;----------Support Config----------------
;Support Type:everywhere
;Support Pattern:zigzag
;Support Infill Layer Thickness:0.15
;Minimum Support Area:1
;Enable Support Roof:true
;Support Roof Thickness:0.8
;Support Roof Pattern:lines
;Connect Support Lines:0
;Connect Support ZigZags:1
;Minimum Support X/Y Distance:0.2
;Support Line Distance:2.67
; ---------PrintSpeed & Travel----------
;Enable Print Cool:true
;Avoid Printed Parts Traveling:true
;Enable Retraction:true
;Retraction Distance:0.8
;Retraction Speed:25
;Retraction Prime Speed:25
;Maximum Retraction Count:100
;Minimum Extrusion Distance Window:0.8
;Z Hop When Retracted:false
;Z Hop Height:0.2
;Retract Before Outer Wall:true

;Outer Wall Speed:60
;Inner Wall Speed:90
;Infill Speed:180
;Top/Bottom Speed:50
;Travel Speed:150
;Initial Layer Speed:30
;Skirt/Brim Speed:25
;Prime Tower Speed:60
;Outer Wall Acceleration:1000
;Inner Wall Acceleration:2000
;Infill Acceleration:2500
;Top/Bottom Acceleration:2500
;Travel Acceleration:2500
;Initial Layer Print Acceleration:500
;Initial Layer Travel Acceleration:500
;Skirt/Brim Acceleration:500
;Combing Mode:no_outer_surfaces
; --------SpecialModel&Mesh Fixes--------
;Union Overlapping Volum:true
;Remove All Holes:false
;Maximum Travel Resolution:0.25
;Maximum Deviation:0.05
;Maximum Model Angle:0.872665
;IS Mold Print:false
;Make Overhang Printable:false
;Enable Coasting:false
;Coasting Volumes:0.064
;Coasting Speed:0.9
;Raft AirGap:0.25
;Layer0 ZOverLap:0.13
;Adaptive Layers:0
;---------------------End of Head--------------------------
M140 S60
M105
M190 S60
M104 S190
M82 ;absolute extrusion mode
M220 S100 ;Reset Feedrate
M221 S100 ;Reset Flowrate

G28 ;Home

G92 E0 ;Reset Extruder
G1 Z2.0 F3000 ;Move Z Axis up
G1 X-2.1 Y20 Z0.28 F5000.0 ;Move to start position
M109 S190.000000
G1 X-2.1 Y145.0 Z0.28 F1500.0 E15 ;Draw the first line
G1 X-2.4 Y145.0 Z0.28 F5000.0 ;Move to side a little
G1 X-2.4 Y20 Z0.28 F1500.0 E30 ;Draw the second line
G92 E0  ;Reset Extruder
G1 E-1.0000 F1800 ;Retract a bit
G1 Z2.0 F3000 ;Move Z Axis up
G1 E0.0000 F1800 

G92 E0
G92 E0
G1 F1500 E-0.8
;LAYER_COUNT:75

;LAYER:0
M106 S0
M204 S500
;MESH:0_4
G0 F4800 X63.866 Y85.029 Z0.2
;TYPE:WALL-OUTER
G1 F1500 E0
G1 F1800 X63.987 Y84.42 E0.02338
G1 X64.186 Y83.831 E0.04678
G1 X64.464 Y83.266 E0.07049
G1 X64.803 Y82.758 E0.09348
G1 X65.213 Y82.29 E0.1169
G1 X65.686 Y81.875 E0.14059
G1 X66.195 Y81.535 E0.16364
G1 X66.758 Y81.258 E0.18726
G1 X67.34 Y81.061 E0.21039
G1 X67.959 Y80.937 E0.23416
G1 X68.572 Y80.896 E0.25729
G1 X69.186 Y80.937 E0.28045
G1 X69.804 Y81.061 E0.30418
G1 X70.387 Y81.258 E0.32735
G1 X70.949 Y81.535 E0.35094
G1 X71.458 Y81.875 E0.37398
G1 X71.926 Y82.284 E0.39738
G1 X72.341 Y82.758 E0.4211
G1 X72.681 Y83.266 E0.44411
G1 X72.956 Y83.824 E0.46753
G1 X73.155 Y84.411 E0.49087
G1 X73.279 Y85.029 E0.5146
G1 X73.32 Y85.697 E0.53979
G1 X73.32 Y95.391 E0.90474
G1 X63.824 Y95.391 E1.26224
G1 X63.824 Y85.654 E1.62881
G1 X63.866 Y85.029 E1.65239
G0 F4800 X63.905 Y84.833
G0 X64.341 Y85.092
;TYPE:WALL-INNER
G1 F1800 X64.45 Y84.544 E1.67539
G1 X64.629 Y84.014 E1.69841
G1 X64.879 Y83.505 E1.72176
G1 X65.183 Y83.05 E1.74428
G1 X65.552 Y82.629 E1.76732
G1 X65.978 Y82.255 E1.79065
G1 X66.434 Y81.95 E1.81323
G1 X66.942 Y81.701 E1.83652
G1 X67.465 Y81.524 E1.85924
G1 X68.022 Y81.412 E1.88263
G1 X68.572 Y81.375 E1.90532
G1 X69.123 Y81.412 E1.92805
G1 X69.68 Y81.524 E1.95143
G1 X70.204 Y81.701 E1.9742
G1 X70.71 Y81.95 E1.99741
G1 X71.167 Y82.256 E2.02005
G1 X71.587 Y82.623 E2.043
G1 X71.961 Y83.05 E2.06637
G1 X72.265 Y83.506 E2.08892
G1 X72.513 Y84.007 E2.11193
G1 X72.692 Y84.535 E2.13488
G1 X72.803 Y85.092 E2.15826
G1 X72.842 Y85.697 E2.18321
G1 X72.842 Y94.913 E2.56253
G1 X64.303 Y94.913 E2.91399
G1 X64.303 Y85.67 E3.29443
G1 X64.341 Y85.092 E3.31827
;;retract;;
G1 F1500 E2.75827
G1 F2400 X64.629 Y84.014 E2.63116
G1 X64.879 Y83.505 E2.56652
G1 X65.055 Y83.241 E2.53027
G1 F1500 E2.51827
G0 F4800 X64.488 Y85.112
G0 X64.55 Y88.966
G0 X65.797 Y88.464
G0 X66.163 Y88.966
G1 F1500 E3.31827
G0 F4800 X66.664 Y88.589
;TYPE:WALL-OUTER
G1 F1800 X66.475 Y88.213 E3.33412
G1 X66.369 Y87.861 E3.34796
G1 X66.322 Y87.472 E3.36271
G1 X66.341 Y87.085 E3.37729
G1 X66.413 Y86.754 E3.39005
G1 X66.575 Y86.354 E3.40629
G1 X66.774 Y86.037 E3.42038
G1 X66.999 Y85.781 E3.43321
G1 X67.318 Y85.523 E3.44866
G1 X67.656 Y85.335 E3.46322
G1 X68.022 Y85.209 E3.47779
G1 X68.358 Y85.152 E3.49062
G1 X68.787 Y85.152 E3.50677
G1 X69.132 Y85.212 E3.51996
G1 X69.488 Y85.336 E3.53415
G1 X69.826 Y85.523 E3.54869
G1 X70.13 Y85.766 E3.56334
G1 X70.395 Y86.073 E3.57861
G1 X70.579 Y86.372 E3.59183
G1 X70.733 Y86.756 E3.6074
G1 X70.808 Y87.125 E3.62158
G1 X70.822 Y87.478 E3.63488
G1 X70.776 Y87.859 E3.64933
G1 X70.669 Y88.214 E3.66329
G1 X70.48 Y88.589 E3.6791
G1 X70.249 Y88.897 E3.69359
G1 X69.972 Y89.157 E3.70789
G1 X69.687 Y89.349 E3.72083
G1 X69.32 Y89.518 E3.73604
G1 X68.952 Y89.614 E3.75036
G1 X68.572 Y89.645 E3.76471
G1 X68.177 Y89.61 E3.77964
G1 X67.824 Y89.518 E3.79337
G1 X67.458 Y89.349 E3.80855
G1 X67.173 Y89.157 E3.82149
G1 X66.894 Y88.895 E3.8359
G1 X66.664 Y88.589 E3.85031
G0 F4800 X66.574 Y88.41
G0 X66.245 Y88.828
;TYPE:WALL-INNER
G1 F1800 X66.032 Y88.403 E3.86988
G1 X65.898 Y87.944 E3.88956
G1 X65.841 Y87.515 E3.90737
G1 X65.86 Y87.045 E3.92673
G1 X65.96 Y86.588 E3.94598
G1 X66.136 Y86.154 E3.96526
G1 X66.377 Y85.765 E3.9841
G1 X66.684 Y85.42 E4.0031
G1 X67.065 Y85.118 E4.02311
G1 X67.443 Y84.904 E4.04099
G1 X67.886 Y84.746 E4.06035
G1 X68.35 Y84.672 E4.07969
G1 X68.796 Y84.672 E4.09805
G1 X69.238 Y84.745 E4.11649
G1 X69.666 Y84.891 E4.1351
G1 X70.079 Y85.117 E4.15448
G1 X70.459 Y85.419 E4.17446
G1 X70.77 Y85.769 E4.19373
G1 X71.003 Y86.15 E4.21211
G1 X71.187 Y86.589 E4.2317
G1 X71.271 Y86.987 E4.24844
G1 X71.286 Y87.105 E4.25334
G1 X71.301 Y87.478 E4.2687
G1 X71.247 Y87.942 E4.28793
G1 X71.112 Y88.406 E4.30782
G1 X70.9 Y88.826 E4.32718
G1 X70.623 Y89.201 E4.34637
G1 X70.286 Y89.523 E4.36556
G1 X69.908 Y89.778 E4.38433
G1 X69.476 Y89.97 E4.40378
G1 X69.035 Y90.085 E4.42254
G1 X68.572 Y90.124 E4.44167
G1 X68.114 Y90.088 E4.46058
G1 X67.668 Y89.97 E4.47956
G1 X67.242 Y89.78 E4.49876
G1 X66.857 Y89.521 E4.51786
G1 X66.517 Y89.196 E4.53722
G1 X66.245 Y88.828 E4.55606
;;retract;;
G1 F1500 E3.99606
G1 F2400 X65.898 Y87.944 E3.88787
G1 X65.841 Y87.515 E3.83862
G1 X65.86 Y87.045 E3.78504
G1 X65.891 Y86.9 E3.76806
G1 F1500 E3.75606
G0 F4800 X66.08 Y88.937
G0 X65.752 Y87.968
G1 F1500 E4.55606
G0 F4800 X65.389 Y88.03
;TYPE:SKIN
G1 F1800 X65.612 Y88.587 E4.5791
G1 X65.839 Y89.043 E4.59867
G1 X66.157 Y89.482 E4.6195
G1 X66.548 Y89.859 E4.64036
G1 X67.032 Y90.187 E4.66282
G1 X67.517 Y90.404 E4.68323
G1 X68.063 Y90.544 E4.70489
G1 X68.592 Y90.581 E4.72526
G1 X69.114 Y90.537 E4.74538
G1 X69.605 Y90.41 E4.76486
G1 X70.143 Y90.171 E4.78748
G1 X70.567 Y89.885 E4.80713
G1 X70.958 Y89.516 E4.82778
G1 X71.306 Y89.042 E4.85037
G1 X71.53 Y88.596 E4.86954
G1 X71.754 Y88.048 E4.89228
G1 X71.8 Y87.557 E4.91123
G1 X71.783 Y86.952 E4.93448
G1 X71.615 Y86.427 E4.95566
G1 X71.409 Y85.936 E4.97611
G1 X71.125 Y85.477 E4.99685
G1 X70.76 Y85.072 E5.01779
G1 X70.381 Y84.765 E5.03653
G1 X69.872 Y84.478 E5.05897
G1 X69.452 Y84.329 E5.07609
G1 X68.879 Y84.214 E5.09854
G1 X68.321 Y84.215 E5.11998
G1 X67.786 Y84.297 E5.14077
G1 X67.237 Y84.495 E5.16319
G1 X66.819 Y84.731 E5.18163
G1 X66.365 Y85.09 E5.20387
G1 X66 Y85.503 E5.22504
G1 X65.73 Y85.94 E5.24477
G1 X65.53 Y86.429 E5.26507
G1 X65.361 Y86.954 E5.28626
G1 X65.344 Y87.559 E5.30951
G1 X65.346 Y87.456 E5.31346
G1 X64.801 Y87.502 E5.33448
G1 X64.809 Y86.894 E5.35783
G1 X64.761 Y86.384 E5.37751
G1 X64.761 Y85.687 E5.40429
G1 X64.797 Y85.153 E5.42485
G1 X64.895 Y84.663 E5.44405
G1 X65.054 Y84.192 E5.46314
G1 X65.28 Y83.731 E5.48287
G1 X65.546 Y83.333 E5.50126
G1 X65.876 Y82.956 E5.5205
G1 X66.26 Y82.618 E5.54015
G1 X66.661 Y82.35 E5.55868
G1 X67.117 Y82.128 E5.57817
G1 X67.586 Y81.968 E5.5972
G1 X68.084 Y81.868 E5.61671
G1 X68.572 Y81.835 E5.6355
G1 X69.058 Y81.868 E5.65422
G1 X69.562 Y81.97 E5.67397
G1 X70.028 Y82.127 E5.69286
G1 X70.472 Y82.342 E5.71181
G1 X70.884 Y82.618 E5.73086
G1 X71.26 Y82.947 E5.75006
G1 X71.598 Y83.332 E5.76974
G1 X71.874 Y83.744 E5.78879
G1 X72.088 Y84.184 E5.80758
G1 X72.245 Y84.639 E5.82607
G1 X72.348 Y85.153 E5.84621
G1 X72.383 Y85.695 E5.86708
G1 X72.383 Y86.385 E5.89358
G1 X72.335 Y86.892 E5.91315
G1 X72.343 Y87.502 E5.93658
G1 X72.326 Y88.098 E5.95949
G1 X72.383 Y88.68 E5.98195
G1 X72.383 Y94.454 E6.20376
G1 X64.761 Y94.454 E6.49656
G1 X64.761 Y88.667 E6.71888
G1 X64.818 Y88.079 E6.74157
G1 X65.389 Y88.03 E6.76359
;;retract;;
G1 F1500 E6.20359
G1 F2400 X65.612 Y88.587 E6.1353
G1 X65.839 Y89.043 E6.07727
G1 X66.157 Y89.482 E6.01549
G1 X66.409 Y89.725 E5.97559
G1 F1500 E5.96359
G0 F4800 X65.753 Y87.969
G0 X65.841 Y88.255
G0 X66.407 Y89.407
G0 X66.407 Y94.665
G0 X65.473 Y94.765
G1 F1500 E6.76359
G0 F4800 X65.473 Y94.221
G1 F1800 X64.992 Y93.74 E6.78972
G1 X64.992 Y93.087
G1 X66.127 Y94.221 E6.85135
G1 X66.78 Y94.221
G1 X64.992 Y92.433 E6.94849
G1 X64.992 Y91.78
G1 X67.433 Y94.221 E7.0811
G1 X68.087 Y94.221
G1 X64.992 Y91.126 E7.24925
G1 X64.992 Y90.473
G1 X68.74 Y94.221 E7.45287
G1 X69.394 Y94.221
G1 X64.992 Y89.82 E7.69199
G1 X64.992 Y89.166
G1 X70.047 Y94.221 E7.96662
G1 X70.7 Y94.221
G1 X66.774 Y90.295 E8.17991
G0 F4800 X67.076 Y89.847
G0 X68.003 Y90.213
G0 X67.867 Y90.735
G1 F1800 X71.354 Y94.221 E8.36932
G1 X72.007 Y94.221
G1 X68.595 Y90.81 E8.55466
G1 X69.193 Y90.754
G1 X72.151 Y93.712 E8.71536
G1 X72.151 Y93.059
G1 X69.71 Y90.617 E8.848
G1 X70.162 Y90.417
G1 X72.151 Y92.406 E8.95606
G1 X72.151 Y91.752
G1 X70.563 Y90.164 E9.04233
G1 X70.921 Y89.869
G1 X72.151 Y91.099 E9.10915
G1 X72.151 Y90.446
G1 X71.236 Y89.531 E9.15886
G1 X71.509 Y89.149
G1 X72.151 Y89.792 E9.19377
G1 X72.151 Y89.139
G1 X71.726 Y88.714 E9.21686
G1 X72.108 Y88.442
G1 X71.943 Y88.278 E9.2258
G0 F4800 X71.359 Y88.098
G0 X71.494 Y86.938
G0 X72.594 Y86.938
G0 X72.694 Y86.503
G0 X72.129 Y86.503
G1 F1800 X71.728 Y86.102 E9.24758
G1 X72.152 Y85.873
G1 X68.359 Y82.08 E9.45365
G1 X67.788 Y82.162
G1 X69.852 Y84.226 E9.56578
G1 X68.962 Y83.99
G1 X67.286 Y82.314 E9.65683
G1 X66.839 Y82.52
G1 X68.302 Y83.983 E9.73631
G1 X67.736 Y84.07
G1 X66.44 Y82.774 E9.80672
G1 X66.088 Y83.075
G1 X67.252 Y84.239 E9.86996
G1 X66.822 Y84.463
G1 X65.777 Y83.418 E9.92673
G1 X65.508 Y83.802
G1 X66.441 Y84.735 E9.97742
G1 X66.096 Y85.043
G1 X65.288 Y84.236 E10.02129
G1 X65.118 Y84.719
G1 X65.794 Y85.395 E10.05801
G1 X65.545 Y85.799
G1 X65.019 Y85.273 E10.08659
G1 X64.992 Y85.9
G1 X65.35 Y86.258 E10.10604
G1 X65.031 Y86.592
G1 X65.162 Y86.723 E10.11316
G0 F4800 X65.75 Y86.853
G0 X65.701 Y88.096
G0 X64.55 Y88.096
G0 X64.45 Y88.536
G0 X65.015 Y88.536
G1 F1800 X65.64 Y89.161 E10.14711
;;retract;;
G1 F1500 E9.58711
G1 F1500 E9.34711
G0 F4800 X66.109 Y88.877
G0 X66.402 Y89.279
G0 X66.828 Y89.67
G0 X67.616 Y90.103
G0 X68.06 Y90.224
G0 X68.608 Y90.263
G0 X69.147 Y90.203
G0 X69.97 Y89.903
G0 X70.376 Y89.63
G0 X70.789 Y89.21
G0 X71.233 Y88.475
G0 X71.379 Y88.008
G0 X71.421 Y87.142
G0 X71.205 Y86.044
G0 X72.594 Y86.044
G0 X72.662 Y85.175
G1 F1500 E10.14711
G0 F4800 X72.118 Y85.185
G1 F1800 X69.029 Y82.096 E10.31493
G1 X69.92 Y82.334
G1 X71.883 Y84.297 E10.42158
;;retract;;
G1 F1500 E9.86158
G1 F2400 X70.469 Y82.883
G1 X71.883 Y84.297 E9.63358
G1 F1500 E9.62158
;MESH:0_2
G0 F4800 X72.398 Y84.123
G0 X73.122 Y85.655
G0 X74.216 Y85.655
G0 X80.781 Y85.87
G0 X81.875 Y85.87
G0 X82.341 Y85.325
G1 F1500 E10.42158
G0 F4800 X81.719 Y85.242
;TYPE:WALL-OUTER
G1 F1800 X81.84 Y84.634 E10.44491
G1 X82.039 Y84.044 E10.46835
G1 X82.317 Y83.48 E10.49203
G1 X82.656 Y82.971 E10.51505
G1 X83.066 Y82.503 E10.53847
G1 X83.539 Y82.088 E10.56216
G1 X84.048 Y81.749 E10.58519
G1 X84.612 Y81.471 E10.60886
G1 X85.193 Y81.274 E10.63196
G1 X85.811 Y81.151 E10.65568
G1 X86.425 Y81.11 E10.67884
G1 X87.04 Y81.151 E10.70205
G1 X87.657 Y81.274 E10.72573
G1 X88.239 Y81.471 E10.74887
G1 X88.802 Y81.749 E10.7725
G1 X89.311 Y82.088 E10.79553
G1 X89.779 Y82.497 E10.81893
G1 X90.194 Y82.971 E10.84264
G1 X90.534 Y83.48 E10.86569
G1 X90.809 Y84.037 E10.88907
G1 X91.008 Y84.625 E10.91244
G1 X91.132 Y85.243 E10.93617
G1 X91.173 Y85.911 E10.96137
G1 X91.173 Y95.605 E11.32632
G1 X81.677 Y95.605 E11.68382
G1 X81.677 Y85.868 E12.05039
G1 X81.719 Y85.242 E12.07401
G0 F4800 X81.758 Y85.046
G0 X82.194 Y85.305
;TYPE:WALL-INNER
G1 F1800 X82.303 Y84.758 E12.09697
G1 X82.482 Y84.227 E12.12003
G1 X82.732 Y83.719 E12.14333
G1 X83.037 Y83.262 E12.16595
G1 X83.405 Y82.842 E12.18893
G1 X83.831 Y82.468 E12.21226
G1 X84.287 Y82.164 E12.23482
G1 X84.795 Y81.914 E12.25813
G1 X85.317 Y81.737 E12.28081
G1 X85.873 Y81.626 E12.30415
G1 X86.425 Y81.589 E12.32692
G1 X86.977 Y81.626 E12.34969
G1 X87.533 Y81.737 E12.37303
G1 X88.056 Y81.914 E12.39575
G1 X88.563 Y82.164 E12.41902
G1 X89.02 Y82.469 E12.44163
G1 X89.44 Y82.836 E12.46459
G1 X89.813 Y83.262 E12.4879
G1 X90.118 Y83.72 E12.51054
G1 X90.366 Y84.22 E12.53352
G1 X90.545 Y84.749 E12.5565
G1 X90.656 Y85.306 E12.57988
G1 X90.695 Y85.911 E12.60483
G1 X90.695 Y95.127 E12.98416
G1 X82.156 Y95.127 E13.33562
G1 X82.156 Y85.884 E13.71605
G1 X82.194 Y85.305 E13.73994
;;retract;;
G1 F1500 E13.17994
G1 F2400 X82.482 Y84.227 E13.05283
G1 X82.732 Y83.719 E12.9883
G1 X82.909 Y83.454 E12.95194
G1 F1500 E12.93994
G0 F4800 X82.341 Y85.325
G0 X82.403 Y89.447
G0 X83.867 Y89.088
G0 X84.681 Y89.884
G0 X85.469 Y90.317
G0 X85.912 Y90.437
G0 X86.463 Y90.477
G0 X87.301 Y90.337
G0 X87.887 Y90.075
G0 X88.253 Y89.778
G0 X88.635 Y89.447
G1 F1500 E13.73994
G0 F4800 X88.13 Y89.077
;TYPE:WALL-OUTER
G1 F1800 X87.825 Y89.371 E13.75588
G1 X87.54 Y89.563 E13.76882
G1 X87.173 Y89.732 E13.78403
G1 X86.805 Y89.827 E13.79834
G1 X86.425 Y89.859 E13.8127
G1 X86.031 Y89.823 E13.82759
G1 X85.677 Y89.732 E13.84135
G1 X85.311 Y89.563 E13.85653
G1 X84.995 Y89.346 E13.87096
G1 X84.724 Y89.082 E13.8852
G1 X84.518 Y88.804 E13.89823
G1 X84.328 Y88.426 E13.91416
G1 X84.222 Y88.074 E13.928
G1 X84.175 Y87.686 E13.94271
G1 X84.189 Y87.339 E13.95579
G1 X84.265 Y86.968 E13.97004
