;FLAVOR:Marlin
;TIME:2121.71
;Filament used:2.02574m
;Layer height:0.2
;MINX:70.274
;MINY:96.231
;MINZ:0.2
;MAXX:149.726
;MAXY:123.769
;MAXZ:30
;OuterWall Time:660.041
;InnerWall Time:425.47
;Skin Time:789.154
;Support Time:0
;SkirtBrim Time:0
;Infill Time:74.5791
;Support Infills Time:0
;Combing Time:87.4123
;Retraction Time:85.0485
;PrimeTower Time:0

;
;;;;;;;;;;;;;;;;;;;;;;;;;;;;;;;;;;;;;;;;;;;;;;;;;;;;;;;;;;;;;;;;;;;;;;;;;;;;
;Creality Print GCode Generated by CXEngine
;CRSLICE_GIT_HASH:d90fa71
;Creality Print Version : V4.3.8.6674
;CXEngine Release Time:2023-10-16 18:06:53
;Gcode Generated Time:2024-12-18 15:01:02
;----------Machine Config--------------
;Machine Name:Ender-3 V3 SE
;Machine Height:250
;Machine Width:220
;Machine Depth:220
;Material Type:PLA
;Material Name:CR-PLA_1.75
;Number of Extruders:1
;ExtruderParams[0] Nozzle Diameter:1000
;----------Profile Config---------------
;Wall Thickness:0.8
;Top/Bottom Thickness:0.8
;Out Wall Line Width:0.42
;Inner Wall Line Width:0.45
;Inital Height:200
;Wall Line Count:2
;Infill Line Distance:8
;Infill Pattern:grid
;Infill Sparse Density:10
;Infill Wipe Distance:0
;Print Temperature:190
;Bed Temperature:60
;Support Enable:false
;Support Density:15
;Support Angle:60
;Adhesion Type:autobrim
;machine is belt:false
;machine belt offset:10
;machine belt offset Y:0
;Raft Base Line Spacing:1.6
;Wait Heatup Sync:true
;Enable Ironing:false
;Material Type:PLA
;Max volumetric speed:20
;Material Diameter:1.75
;Material Density:1.24
;Filament Cost:20
;Filament Weight:1000
;Preview Img Type:png
;Screen Size:Sermoon D3
;----------Shell Config----------------
;Outer Wall Wipe Distance:200
;Outer Inset First:false
;Infill Before Walls:false
;Infill Overlap:0.04
;Fill Gaps Between Walls:everywhere
;Minimum Infill Area:15
;Top Surface Skin Layer:0
;Top Layers:4
;Z Seam Alignment:sharpest_corner
;Seam Corner Preference:z_seam_corner_inner
;Z Seam X:110
;Z Seam Y:220
;Horizontal Expansion:0
;Top/Bottom Pattern:zigzag
;Ironing Pattern:zigzag
;Vase Model:false
;----------Support Config----------------
;Support Type:everywhere
;Support Pattern:zigzag
;Support Infill Layer Thickness:0.15
;Minimum Support Area:1
;Enable Support Roof:true
;Support Roof Thickness:0.8
;Support Roof Pattern:lines
;Connect Support Lines:0
;Connect Support ZigZags:1
;Minimum Support X/Y Distance:0.2
;Support Line Distance:2.67
; ---------PrintSpeed & Travel----------
;Enable Print Cool:true
;Avoid Printed Parts Traveling:true
;Enable Retraction:true
;Retraction Distance:0.8
;Retraction Speed:25
;Retraction Prime Speed:25
;Maximum Retraction Count:100
;Minimum Extrusion Distance Window:0.8
;Z Hop When Retracted:false
;Z Hop Height:0.2
;Retract Before Outer Wall:true

;Outer Wall Speed:60
;Inner Wall Speed:90
;Infill Speed:180
;Top/Bottom Speed:50
;Travel Speed:150
;Initial Layer Speed:30
;Skirt/Brim Speed:25
;Prime Tower Speed:60
;Outer Wall Acceleration:1000
;Inner Wall Acceleration:2000
;Infill Acceleration:2500
;Top/Bottom Acceleration:2500
;Travel Acceleration:2500
;Initial Layer Print Acceleration:500
;Initial Layer Travel Acceleration:500
;Skirt/Brim Acceleration:500
;Combing Mode:no_outer_surfaces
; --------SpecialModel&Mesh Fixes--------
;Union Overlapping Volum:true
;Remove All Holes:false
;Maximum Travel Resolution:0.25
;Maximum Deviation:0.05
;Maximum Model Angle:0.872665
;IS Mold Print:false
;Make Overhang Printable:false
;Enable Coasting:false
;Coasting Volumes:0.064
;Coasting Speed:0.9
;Raft AirGap:0.25
;Layer0 ZOverLap:0.13
;Adaptive Layers:0
;---------------------End of Head--------------------------
M140 S60
M105
M190 S60
M104 S190
M82 ;absolute extrusion mode
M220 S100 ;Reset Feedrate
M221 S100 ;Reset Flowrate

G28 ;Home

G92 E0 ;Reset Extruder
G1 Z2.0 F3000 ;Move Z Axis up
G1 X-2.1 Y20 Z0.28 F5000.0 ;Move to start position
M109 S190.000000
G1 X-2.1 Y145.0 Z0.28 F1500.0 E15 ;Draw the first line
G1 X-2.4 Y145.0 Z0.28 F5000.0 ;Move to side a little
G1 X-2.4 Y20 Z0.28 F1500.0 E30 ;Draw the second line
G92 E0  ;Reset Extruder
G1 E-1.0000 F1800 ;Retract a bit
G1 Z2.0 F3000 ;Move Z Axis up
G1 E0.0000 F1800 

G92 E0
G92 E0
G1 F1500 E-0.8
;LAYER_COUNT:150

;LAYER:0
M106 S0
M204 S500
;MESH:0_0
G0 F4800 X89.197 Y99.129 Z0.2
;TYPE:WALL-OUTER
G1 F1500 E0
G1 F1800 X91.414 Y98.757 E0.08463
G1 X93.599 Y98.133 E0.17018
G1 X95.648 Y97.295 E0.25352
G1 X97.562 Y96.252 E0.33558
G1 X122.438 Y96.252 E1.27209
G1 X124.348 Y97.294 E1.354
G1 X126.416 Y98.14 E1.43812
G1 X128.566 Y98.753 E1.52229
G1 X130.793 Y99.128 E1.60731
G1 X133.023 Y99.252 E1.69139
G1 X137.486 Y99.252 E1.85941
G1 X139.521 Y99.42 E1.93628
G1 X141.473 Y99.914 E2.01208
G1 X143.331 Y100.731 E2.0885
G1 X145.023 Y101.835 E2.16456
G1 X146.506 Y103.201 E2.24046
G1 X147.756 Y104.807 E2.31708
G1 X148.713 Y106.576 E2.3928
G1 X149.371 Y108.487 E2.46889
G1 X149.705 Y110.491 E2.54537
G1 X149.705 Y111.13 E2.56943
G1 X149.705 Y112.506 E2.62123
G1 X149.374 Y114.501 E2.69736
G1 X148.713 Y116.424 E2.77392
G1 X147.756 Y118.193 E2.84963
G1 X146.508 Y119.797 E2.92615
G1 X145.023 Y121.165 E3.00216
G1 X143.331 Y122.269 E3.07822
G1 X141.473 Y123.086 E3.15463
G1 X139.521 Y123.58 E3.23043
G1 X137.486 Y123.748 E3.30731
G1 X82.514 Y123.748 E5.37684
G1 X80.479 Y123.58 E5.45372
G1 X78.527 Y123.086 E5.52952
G1 X76.669 Y122.269 E5.60593
G1 X74.977 Y121.165 E5.68199
G1 X73.492 Y119.797 E5.758
G1 X72.244 Y118.193 E5.83452
G1 X71.287 Y116.424 E5.91023
G1 X70.626 Y114.501 E5.98679
G1 X70.295 Y112.509 E6.06281
G1 X70.295 Y110.494 E6.13867
G1 X70.626 Y108.499 E6.2148
G1 X71.287 Y106.576 E6.29135
G1 X72.244 Y104.807 E6.36707
G1 X73.494 Y103.201 E6.44369
G1 X74.977 Y101.835 E6.51959
G1 X76.669 Y100.731 E6.59565
G1 X78.527 Y99.914 E6.67207
G1 X80.479 Y99.42 E6.74787
G1 X82.514 Y99.252 E6.82474
G1 X86.977 Y99.252 E6.99276
G1 X89.197 Y99.129 E7.07647
G0 F4800 X89.394 Y99.096
G0 X89.269 Y99.603
;TYPE:WALL-INNER
G1 F1800 X91.534 Y99.221 E7.17101
G1 X93.745 Y98.589 E7.26566
G1 X95.829 Y97.738 E7.35831
G1 X97.684 Y96.731 E7.44519
G1 X122.316 Y96.731 E8.45902
G1 X124.162 Y97.735 E8.54551
G1 X126.225 Y98.579 E8.63726
G1 X128.473 Y99.223 E8.73351
G1 X130.78 Y99.607 E8.82977
G1 X132.997 Y99.73 E8.92116
G1 X137.467 Y99.731 E9.10514
G1 X139.442 Y99.893 E9.1867
G1 X141.317 Y100.368 E9.26632
G1 X143.102 Y101.153 E9.34658
G1 X144.728 Y102.214 E9.42649
G1 X146.153 Y103.526 E9.50621
G1 X147.354 Y105.069 E9.58669
G1 X148.273 Y106.769 E9.66623
G1 X148.906 Y108.605 E9.74617
G1 X149.227 Y110.531 E9.82654
G1 X149.227 Y111.13 E9.85119
G1 X149.227 Y112.467 E9.90622
G1 X148.909 Y114.383 E9.98616
G1 X148.273 Y116.231 E10.0666
G1 X147.354 Y117.931 E10.14614
G1 X146.155 Y119.472 E10.22651
G1 X144.728 Y120.786 E10.30635
G1 X143.102 Y121.847 E10.38626
G1 X141.317 Y122.632 E10.46652
G1 X139.442 Y123.107 E10.54613
G1 X137.467 Y123.27 E10.6277
G1 X82.533 Y123.27 E12.88875
G1 X80.558 Y123.107 E12.97032
G1 X78.684 Y122.632 E13.04989
G1 X76.898 Y121.847 E13.13019
G1 X75.272 Y120.786 E13.2101
G1 X73.845 Y119.472 E13.28994
G1 X72.646 Y117.931 E13.37031
G1 X71.727 Y116.231 E13.44985
G1 X71.091 Y114.383 E13.53029
G1 X70.774 Y112.47 E13.6101
G1 X70.774 Y110.534 E13.68978
G1 X71.091 Y108.617 E13.76976
G1 X71.727 Y106.769 E13.8502
G1 X72.646 Y105.069 E13.92974
G1 X73.847 Y103.526 E14.01022
G1 X75.272 Y102.214 E14.08994
G1 X76.898 Y101.153 E14.16986
G1 X78.684 Y100.368 E14.25016
G1 X80.558 Y99.893 E14.32973
G1 X82.533 Y99.731 E14.41129
G1 X87.003 Y99.73 E14.59527
G1 X89.269 Y99.603 E14.68869
;;retract;;
G1 F1500 E14.12869
G1 F2400 X91.219 Y99.162 E13.90069
G1 F1500 E13.88869
G0 F4800 X89.295 Y99.746
G0 X88.298 Y99.906
G0 X87.689 Y109.05
G0 X87.998 Y109.179
G1 F1500 E14.68869
G0 F4800 X87.888 Y109.793
;TYPE:WALL-OUTER
G1 F1800 X88.299 Y109.923 E14.70492
G1 X88.656 Y110.183 E14.72154
G1 X88.863 Y110.399 E14.73281
G1 X89.027 Y110.64 E14.74378
G1 X89.151 Y110.912 E14.75503
G1 X89.259 Y111.326 E14.77114
G1 X89.227 Y111.79 E14.78865
G1 X89.157 Y112.067 E14.79941
G1 X89.04 Y112.336 E14.81045
G1 X88.85 Y112.616 E14.82319
G1 X88.647 Y112.824 E14.83413
G1 X88.434 Y112.982 E14.84412
G1 X88.025 Y113.187 E14.86134
G1 X87.554 Y113.251 E14.87923
G1 X87.258 Y113.235 E14.89039
G1 X86.968 Y113.169 E14.90159
G1 X86.72 Y113.067 E14.91169
G1 X86.473 Y112.919 E14.92253
G1 X86.249 Y112.726 E14.93366
G1 X86.057 Y112.493 E14.94502
G1 X85.905 Y112.227 E14.95656
G1 X85.755 Y111.808 E14.97331
G1 X85.753 Y111.358 E14.99025
G1 X85.8 Y111.072 E15.00116
G1 X85.895 Y110.795 E15.01219
G1 X86.041 Y110.531 E15.02355
G1 X86.223 Y110.301 E15.03459
G1 X86.457 Y110.093 E15.04638
G1 X86.724 Y109.93 E15.05815
G1 X87.005 Y109.819 E15.06953
G1 X87.264 Y109.763 E15.0795
G1 X87.554 Y109.749 E15.09043
G1 X87.888 Y109.793 E15.10312
G0 F4800 X88.078 Y109.853
G0 X87.976 Y109.319
;TYPE:WALL-INNER
G1 F1800 X88.518 Y109.486 E15.12646
G1 X88.964 Y109.817 E15.14932
G1 X89.236 Y110.099 E15.16545
G1 X89.456 Y110.428 E15.18174
G1 X89.599 Y110.745 E15.19605
G1 X89.745 Y111.306 E15.21991
G1 X89.699 Y111.868 E15.24312
G1 X89.62 Y112.186 E15.2566
G1 X89.581 Y112.299 E15.26152
G1 X89.452 Y112.587 E15.27451
G1 X89.238 Y112.902 E15.29019
G1 X88.979 Y113.173 E15.30562
G1 X88.669 Y113.403 E15.3215
G1 X88.17 Y113.652 E15.34446
G1 X87.6 Y113.731 E15.36814
G1 X87.216 Y113.716 E15.38396
G1 X86.847 Y113.636 E15.3995
G1 X86.484 Y113.487 E15.41565
G1 X86.161 Y113.284 E15.43135
G1 X85.888 Y113.042 E15.44637
G1 X85.649 Y112.748 E15.46196
G1 X85.476 Y112.44 E15.4765
G1 X85.281 Y111.902 E15.50006
G1 X85.275 Y111.299 E15.52488
G1 X85.346 Y110.916 E15.54091
G1 X85.476 Y110.56 E15.55651
G1 X85.651 Y110.248 E15.57123
G1 X85.889 Y109.957 E15.58671
G1 X86.165 Y109.714 E15.60184
G1 X86.484 Y109.511 E15.61741
G1 X86.847 Y109.363 E15.63354
G1 X87.181 Y109.292 E15.64759
G1 X87.588 Y109.268 E15.66438
G1 X87.976 Y109.319 E15.68048
;;retract;;
G1 F1500 E15.12048
G1 F2400 X88.964 Y109.817 E14.9944
G1 X89.236 Y110.099 E14.94982
G1 X89.456 Y110.428 E14.90479
G1 X89.5 Y110.526 E14.89248
G1 F1500 E14.88048
G0 F4800 X87.99 Y109.177
G0 X88.508 Y109.356
G0 X89.414 Y109.956
G0 X130.112 Y110.911
G0 X130.758 Y109.882
G0 X131.454 Y109.368
G0 X132.214 Y109.142
G0 X133.01 Y109.182
G0 X133.631 Y109.399
G0 X133.87 Y109.571
G0 X134.393 Y110.064
G1 F1500 E15.68048
G0 F4800 X133.874 Y110.414
;TYPE:WALL-OUTER
G1 F1800 X134.039 Y110.663 E15.69173
G1 X134.149 Y110.909 E15.70187
G1 X134.262 Y111.334 E15.71843
G1 X134.229 Y111.778 E15.73519
G1 X134.156 Y112.07 E15.74652
G1 X134.038 Y112.34 E15.75761
G1 X133.868 Y112.595 E15.76915
G1 X133.647 Y112.824 E15.78113
G1 X133.434 Y112.982 E15.79112
G1 X133.025 Y113.187 E15.80834
G1 X132.554 Y113.251 E15.82624
G1 X132.258 Y113.235 E15.8374
G1 X131.968 Y113.169 E15.84859
G1 X131.72 Y113.067 E15.85869
G1 X131.473 Y112.919 E15.86953
G1 X131.222 Y112.698 E15.88212
G1 X131.047 Y112.479 E15.89267
G1 X130.901 Y112.219 E15.9039
G1 X130.757 Y111.802 E15.92051
G1 X130.754 Y111.342 E15.93783
G1 X130.801 Y111.065 E15.9484
G1 X130.911 Y110.761 E15.96057
G1 X131.059 Y110.505 E15.97171
G1 X131.223 Y110.301 E15.98156
G1 X131.456 Y110.094 E15.99329
G1 X131.724 Y109.93 E16.00512
G1 X131.967 Y109.831 E16.015
G1 X132.294 Y109.76 E16.0276
G1 X132.571 Y109.749 E16.03803
G1 X132.86 Y109.786 E16.049
G1 X133.295 Y109.917 E16.06611
G1 X133.674 Y110.2 E16.08391
G1 X133.874 Y110.414 E16.09494
G0 F4800 X133.984 Y110.581
G0 X134.25 Y110.117
;TYPE:WALL-INNER
G1 F1800 X134.454 Y110.418 E16.10991
G1 X134.61 Y110.77 E16.12575
G1 X134.745 Y111.303 E16.14838
G1 X134.694 Y111.897 E16.17292
G1 X134.595 Y112.266 E16.18865
G1 X134.431 Y112.617 E16.20459
G1 X134.25 Y112.883 E16.21784
G1 X133.982 Y113.171 E16.23403
G1 X133.669 Y113.403 E16.25007
G1 X133.17 Y113.652 E16.27302
G1 X132.6 Y113.731 E16.2967
G1 X132.216 Y113.716 E16.31252
G1 X131.846 Y113.636 E16.3281
G1 X131.487 Y113.488 E16.34408
G1 X131.168 Y113.292 E16.35949
G1 X130.889 Y113.047 E16.37478
G1 X130.65 Y112.746 E16.3906
G1 X130.465 Y112.416 E16.40617
G1 X130.278 Y111.897 E16.42887
G1 X130.275 Y111.33 E16.45221
G1 X130.334 Y110.961 E16.46759
G1 X130.463 Y110.588 E16.48384
G1 X130.645 Y110.262 E16.4992
G1 X130.886 Y109.955 E16.51527
G1 X131.162 Y109.716 E16.5303
G1 X131.484 Y109.511 E16.54601
G1 X131.786 Y109.388 E16.55943
G1 X131.861 Y109.362 E16.5627
G1 X132.22 Y109.286 E16.5778
G1 X132.625 Y109.273 E16.59448
G1 X132.943 Y109.315 E16.60768
G1 X133.508 Y109.48 E16.63191
G1 X133.98 Y109.827 E16.65602
G1 X134.25 Y110.117 E16.67233
;;retract;;
G1 F1500 E16.11233
G1 F2400 X134.61 Y110.77 E16.0274
G1 X134.745 Y111.303 E15.96481
G1 X134.694 Y111.897 E15.89687
G1 X134.666 Y112.003 E15.88433
G1 F1500 E15.87233
G0 F4800 X134.418 Y110.005
G0 X133.498 Y109.332
G0 X132.622 Y109.131
G0 X132.214 Y109.142
G0 X131.454 Y109.368
G0 X130.765 Y109.876
G1 F1500 E16.67233
G0 F4800 X130.536 Y109.659
;TYPE:SKIN
G1 F1800 X130.86 Y109.371 E16.68898
G1 X131.287 Y109.097 E16.70847
G1 X131.723 Y108.921 E16.72653
G1 X132.182 Y108.83 E16.74451
G1 X132.597 Y108.812 E16.76047
G1 X133.065 Y108.871 E16.77859
G1 X133.716 Y109.068 E16.80472
G1 X134.269 Y109.47 E16.83098
G1 X134.588 Y109.801 E16.84864
G1 X134.848 Y110.182 E16.86636
G1 X135.04 Y110.609 E16.88434
G1 X135.209 Y111.256 E16.91003
G1 X135.156 Y111.935 E16.9362
G1 X135.038 Y112.4 E16.95463
G1 X134.878 Y112.716 E16.96823
G1 X134.883 Y112.727 E16.9687
G1 X134.629 Y113.14 E16.98732
G1 X134.272 Y113.528 E17.00758
G1 X133.882 Y113.81 E17.02607
G1 X133.302 Y114.094 E17.05087
G1 X132.599 Y114.19 E17.07813
G1 X132.134 Y114.167 E17.09602
G1 X131.682 Y114.065 E17.11382
G1 X131.353 Y113.93 E17.12748
G1 X130.927 Y113.685 E17.14636
G1 X130.543 Y113.348 E17.16598
G1 X130.274 Y113.014 E17.18246
G1 X130.043 Y112.59 E17.20101
G1 X129.821 Y111.981 E17.22591
G1 X129.817 Y111.31 E17.25168
G1 X129.892 Y110.82 E17.27073
G1 X130.043 Y110.403 E17.28776
G1 X130.259 Y110.015 E17.30482
G1 X130.536 Y109.659 E17.32215
;;retract;;
G1 F1500 E16.76215
G1 F2400 X131.287 Y109.097 E16.65522
G1 X131.723 Y108.921 E16.60164
G1 X132.182 Y108.83 E16.5484
G1 X132.307 Y108.825 E16.53415
G1 F1500 E16.52215
G0 F4800 X130.764 Y109.876
G0 X130.112 Y110.912
G0 X89.605 Y112.769
G0 X89.392 Y112.939
G1 F1500 E17.32215
G0 F4800 X89.63 Y113.136
G1 F1800 X89.317 Y113.488 E17.34025
G1 X88.884 Y113.809 E17.36095
G1 X88.302 Y114.094 E17.38585
G1 X87.599 Y114.19 E17.4131
G1 X87.134 Y114.167 E17.43099
G1 X86.681 Y114.065 E17.44883
G1 X86.291 Y113.904 E17.46504
G1 X85.879 Y113.646 E17.48371
G1 X85.566 Y113.369 E17.49977
G1 X85.284 Y113.027 E17.51679
G1 X85.046 Y112.61 E17.53524
G1 X84.824 Y111.989 E17.56057
G1 X84.816 Y111.334 E17.58574
G1 X84.887 Y110.842 E17.60483
G1 X85.033 Y110.418 E17.62206
G1 X85.276 Y109.988 E17.64103
G1 X85.544 Y109.655 E17.65746
G1 X85.865 Y109.368 E17.674
G1 X86.271 Y109.107 E17.69254
G1 X86.718 Y108.924 E17.71109
G1 X87.145 Y108.831 E17.72788
G1 X87.595 Y108.809 E17.74519
G1 X88.078 Y108.873 E17.76391
G1 X88.724 Y109.07 E17.78985
G1 X89.258 Y109.462 E17.8153
G1 X89.606 Y109.828 E17.8347
G1 X89.864 Y110.216 E17.8526
G1 X90.04 Y110.613 E17.86928
G1 X90.208 Y111.247 E17.89448
G1 X90.153 Y111.939 E17.92114
G1 X90.043 Y112.372 E17.93831
G1 X89.853 Y112.805 E17.95647
G1 X89.63 Y113.136 E17.9718
;;retract;;
G1 F1500 E17.4118
G1 F2400 X88.884 Y113.809 E17.29735
G1 X88.302 Y114.094 E17.22348
G1 X87.957 Y114.141 E17.1838
G1 F1500 E17.1718
G0 F4800 X89.392 Y112.939
G0 X89.756 Y112.219
G0 X89.885 Y111.348
G0 X89.738 Y110.712
G0 X89.518 Y110.316
G0 X89.069 Y109.609
G0 X88.531 Y99.893
G0 X89.307 Y99.745
G1 F1500 E17.9718
G0 F4800 X89.348 Y100.056
G1 F1800 X87.028 Y100.188 E18.06107
G1 X82.554 Y100.189 E18.23294
G1 X80.63 Y100.347 E18.3071
G1 X78.837 Y100.801 E18.37815
G1 X77.113 Y101.56 E18.45052
G1 X75.557 Y102.575 E18.52189
G1 X74.189 Y103.834 E18.59331
G1 X73.029 Y105.325 E18.66588
G1 X72.15 Y106.951 E18.73688
G1 X71.537 Y108.734 E18.80931
G1 X71.232 Y110.575 E18.881
G1 X71.232 Y112.428 E18.95218
G1 X71.537 Y114.266 E19.02376
G1 X72.15 Y116.049 E19.09619
G1 X73.029 Y117.675 E19.16719
G1 X74.185 Y119.162 E19.23955
G1 X75.557 Y120.425 E19.31119
G1 X77.113 Y121.441 E19.38257
G1 X78.836 Y122.199 E19.45489
G1 X80.63 Y122.653 E19.52598
G1 X82.554 Y122.811 E19.60014
